{
  "type": "map",
  "version": "1.10",
  "tiledversion": "1.11.0",
  "orientation": "orthogonal",
  "renderorder": "right-down",
  "infinite": false,
  "width": 20,
  "height": 13,
  "tilewidth": 16,
  "tileheight": 16,
  "nextlayerid": 9,
  "nextobjectid": 12,
  "properties": [
    {
      "name": "name",
      "type": "string",
      "value": "Boathouse studio"
    }
  ],
  "layers": [
    {
      "id": 1,
      "name": "ground",
      "type": "tilelayer",
      "x": 0,
      "y": 0,
      "width": 20,
      "height": 13,
      "opacity": 1,
      "visible": true,
      "data": [
        0,0,0,0,0,0,0,0,0,0,0,0,0,0,0,0,0,0,0,0,
        0,0,2584,2585,2585,2585,2585,2585,2585,2585,2585,2585,2585,2585,2585,2585,2585,2586,0,0,
        0,0,2587,2588,2588,2588,2588,2588,2588,2588,2588,2588,2588,2588,2588,2588,2588,2589,0,0,
        0,0,2590,2591,2591,2591,2591,2591,2591,2591,2591,2591,2591,2591,2591,2591,2591,2591,0,0,
        0,0,2592,2593,2593,2593,2593,2593,2593,2593,2593,2593,2593,2593,2593,2593,2593,2593,0,0,
        0,0,2592,2593,2593,2593,2593,2593,2593,2593,2593,2593,2593,2593,2593,2593,2593,2593,0,0,
        0,0,2592,2593,2593,2593,2593,2593,2593,2593,2593,2593,2593,2593,2593,2593,2593,2593,0,0,
        0,0,2592,2593,2593,2593,2593,2593,2593,2593,2593,2593,2593,2593,2593,2593,2593,2593,0,0,
        0,0,2592,2593,2593,2593,2593,2593,2593,2593,2593,2593,2593,2593,2593,2593,2593,2593,0,0,
        0,0,2592,2593,2593,2593,2593,2593,2593,2593,2593,2593,2593,2593,2593,2593,2593,2593,0,0,
        0,0,2592,2593,2593,2593,2593,2593,2593,2593,2593,2593,2593,2593,2593,2593,2593,2593,0,0,
        0,0,0,0,0,0,0,0,0,0,0,0,0,0,0,0,0,0,0,0,
        0,0,0,0,0,0,0,0,0,0,0,0,0,0,0,0,0,0,0,0
      ]
    },
    {
      "id": 2,
      "name": "ground2",
      "type": "tilelayer",
      "x": 0,
      "y": 0,
      "width": 20,
      "height": 13,
      "opacity": 1,
      "visible": true,
      "data": [
        0,0,0,0,0,0,0,0,0,0,0,0,0,0,0,0,0,0,0,0,
        0,0,0,0,0,0,0,0,2594,2595,2596,0,0,0,0,0,0,0,0,0,
        0,0,0,0,0,0,0,0,2597,2598,2599,0,0,0,0,0,0,0,0,0,
        0,0,0,0,0,0,0,0,0,0,0,0,0,0,0,0,0,0,0,0,
        0,0,0,0,0,0,0,0,0,0,0,0,0,0,0,0,0,0,0,0,
        0,0,80,76,78,79,0,0,0,0,0,0,0,0,0,0,0,0,0,0,
        0,0,79,80,76,78,0,0,0,0,0,0,0,0,0,0,0,0,0,0,
        0,0,78,79,80,76,0,0,0,0,0,0,0,0,0,0,0,0,0,0,
        0,0,76,78,79,80,0,0,0,0,0,0,0,0,0,0,0,0,0,0,
        0,0,80,76,78,79,0,0,0,0,0,0,0,0,0,0,0,0,0,0,
        0,0,79,80,76,78,0,0,0,0,0,0,0,0,0,0,0,0,0,0,
        0,0,78,79,80,76,0,0,0,0,0,0,0,0,0,0,0,0,0,0,
        0,0,0,0,0,0,0,0,0,0,0,0,0,0,0,0,0,0,0,0
      ]
    },
    {
      "id": 3,
      "name": "decal",
      "type": "tilelayer",
      "x": 0,
      "y": 0,
      "width": 20,
      "height": 13,
      "opacity": 1,
      "visible": true,
      "data": [
        0,0,0,0,0,0,0,0,0,0,0,0,0,0,0,0,0,0,0,0,
        0,0,0,0,0,0,0,0,0,0,0,0,0,0,0,0,0,0,0,0,
        0,0,0,0,0,0,0,0,0,0,0,0,0,0,0,0,0,0,0,0,
        0,0,0,0,0,0,0,0,0,0,0,0,0,0,0,0,0,0,0,0,
        0,0,0,0,0,0,0,0,0,0,0,0,0,0,0,0,0,0,0,0,
        0,0,0,0,0,0,0,0,0,0,0,0,0,0,0,0,0,0,0,0,
        0,0,0,0,0,2684356485,0,0,0,0,0,0,0,0,0,0,0,0,0,0,
        0,0,0,0,0,2684356485,0,0,0,0,0,0,0,0,0,0,0,0,0,0,
        0,0,0,0,0,2684356485,0,0,0,0,0,0,0,0,0,0,0,0,0,0,
        0,0,0,0,0,2684356485,0,0,0,0,0,0,0,0,0,0,0,0,0,0,
        0,0,0,0,0,2684356485,0,0,0,0,0,0,0,0,0,0,0,0,0,0,
        0,0,0,0,0,0,0,0,0,0,0,0,0,0,0,0,0,0,0,0,
        0,0,0,0,0,0,0,0,0,0,0,0,0,0,0,0,0,0,0,0
      ]
    },
    {
      "id": 4,
      "name": "below",
      "type": "tilelayer",
      "x": 0,
      "y": 0,
      "width": 20,
      "height": 13,
      "opacity": 1,
      "visible": true,
      "data": [
        0,0,0,0,0,0,0,0,0,0,0,0,0,0,0,0,0,0,0,0,
        0,0,2600,2601,0,0,0,0,0,0,0,0,0,2602,2603,2604,0,0,0,0,
        0,0,2605,2606,0,0,0,2607,0,0,0,2147486256,2147486257,2610,2611,2612,2609,2608,0,0,
        0,0,2613,2614,2615,2616,0,2617,0,0,0,2147486266,2147486267,2620,2621,2622,2619,2618,0,0,
        0,0,0,0,2623,2624,0,0,0,0,0,2147486273,2147486274,2627,2628,2629,2626,2625,0,0,
        0,0,1924,1925,1925,1925,0,0,2630,2631,2632,2633,0,2634,2635,0,0,0,0,0,
        0,0,0,2636,2637,2638,0,0,2639,2640,2641,2642,0,2643,2644,0,0,0,0,0,
        0,0,0,2645,2646,2647,0,0,0,0,0,0,0,0,0,0,2648,2649,0,0,
        0,0,0,2650,2651,0,0,0,0,0,0,0,0,0,2652,0,2653,2654,0,0,
        0,0,0,2655,2656,2638,0,0,0,0,0,0,0,0,2657,0,2658,2659,0,0,
        0,0,0,0,0,2647,0,0,0,0,0,0,0,0,0,0,2660,2661,0,0,
        0,0,0,0,0,0,0,0,0,0,0,0,0,0,0,0,0,0,0,0,
        0,0,0,0,0,0,0,0,0,0,0,0,0,0,0,0,0,0,0,0
      ]
    },
    {
      "id": 5,
      "name": "shade",
      "type": "tilelayer",
      "x": 0,
      "y": 0,
      "width": 20,
      "height": 13,
      "opacity": 1,
      "visible": true,
      "data": [
        0,0,0,0,0,0,0,0,0,0,0,0,0,0,0,0,0,0,0,0,
        0,0,0,0,0,0,0,0,0,0,0,0,0,0,0,0,0,0,0,0,
        0,0,0,0,0,0,0,0,0,0,0,0,0,0,0,0,0,0,0,0,
        0,0,0,0,0,0,0,0,0,0,0,0,0,0,0,0,0,0,0,0,
        0,0,0,0,0,0,0,0,0,0,0,0,0,0,0,0,0,0,0,0,
        0,0,0,0,0,0,0,0,0,0,0,0,0,0,0,0,0,0,0,0,
        0,0,0,0,0,0,0,0,0,0,0,0,0,0,0,0,0,0,0,0,
        0,0,0,0,0,0,0,0,0,0,0,0,0,0,0,0,0,0,0,0,
        0,0,0,0,0,0,0,0,0,0,0,0,0,0,0,0,0,0,0,0,
        0,0,0,0,0,0,0,0,0,0,0,0,0,0,0,0,0,0,0,0,
        0,0,0,0,0,0,0,0,0,0,0,0,0,0,0,0,0,0,0,0,
        0,0,0,0,0,0,0,0,0,0,0,0,0,0,0,0,0,0,0,0,
        0,0,0,0,0,0,0,0,0,0,0,0,0,0,0,0,0,0,0,0
      ],
      "properties": [
        {
          "name": "blend",
          "type": "string",
          "value": "multiply"
        }
      ]
    },
    {
      "id": 6,
      "name": "above",
      "type": "tilelayer",
      "x": 0,
      "y": 0,
      "width": 20,
      "height": 13,
      "opacity": 1,
      "visible": true,
      "data": [
        0,0,0,0,0,0,0,0,0,0,0,0,0,0,0,0,0,0,0,0,
        0,2509,2510,2510,2510,2510,2510,2510,2510,2510,2510,2510,2510,2510,2510,2510,2510,2510,2511,0,
        0,2512,0,0,0,0,0,0,0,0,0,0,0,0,0,0,0,0,2515,0,
        0,2512,0,0,0,0,0,0,0,0,0,0,0,0,0,0,0,0,2515,0,
        0,2512,0,0,0,0,0,0,0,0,0,0,0,0,0,0,0,0,2515,0,
        0,2512,0,0,0,0,0,0,0,0,0,0,0,0,0,0,0,0,2515,0,
        0,2512,0,0,0,0,0,0,0,0,0,0,0,0,0,0,0,0,2515,0,
        0,2512,0,0,0,0,0,0,0,0,0,0,0,0,0,0,0,0,2515,0,
        0,2512,0,0,0,0,0,0,0,0,0,0,0,0,0,0,0,0,2515,0,
        0,2512,0,0,0,0,0,0,0,0,0,0,0,0,0,0,0,0,2515,0,
        0,2512,0,0,0,0,0,0,0,0,0,0,0,0,0,0,0,0,2515,0,
        0,2516,0,0,0,0,2517,2517,2517,2517,0,2517,2517,2517,2517,2517,2517,2517,2518,0,
        0,0,0,0,0,0,0,0,0,0,0,0,0,0,0,0,0,0,0,0
      ]
    },
    {
      "id": 7,
      "name": "collision",
      "type": "tilelayer",
      "x": 0,
      "y": 0,
      "width": 20,
      "height": 13,
      "opacity": 1,
      "visible": false,
      "data": [
        0,0,0,0,0,0,0,0,0,0,0,0,0,0,0,0,0,0,0,0,
        0,1,1,1,1,1,1,1,1,1,1,1,1,1,1,1,1,1,1,0,
        0,1,1,1,1,1,1,1,1,1,1,1,1,1,1,1,1,1,1,0,
        0,1,1,1,1,1,0,0,0,0,0,1,1,1,1,1,1,1,1,0,
        0,1,0,0,1,1,0,0,0,0,0,1,1,1,1,1,1,1,1,0,
        0,1,1,1,1,1,0,0,1,1,1,1,0,1,1,0,0,0,1,0,
        0,1,1,1,1,1,0,0,1,1,1,1,0,1,1,0,0,0,1,0,
        0,1,1,1,1,1,0,0,0,0,0,0,0,0,0,0,1,1,1,0,
        0,1,1,1,1,1,0,0,0,0,0,0,0,0,1,0,1,1,1,0,
        0,1,1,1,1,1,0,0,0,0,0,0,0,0,1,0,1,1,1,0,
        0,1,1,1,1,1,0,0,0,0,0,0,0,0,0,0,1,1,1,0,
        0,1,1,1,1,1,1,1,1,1,0,1,1,1,1,1,1,1,1,0,
        0,0,0,0,0,0,0,0,0,0,0,0,0,0,0,0,0,0,0,0
      ]
    },
    {
      "id": 8,
      "name": "objects",
      "type": "objectgroup",
      "x": 0,
      "y": 0,
      "opacity": 1,
      "visible": true,
      "draworder": "topdown",
      "objects": [
        {
          "id": 1,
          "name": "",
          "type": "light",
          "x": 112,
          "y": 32,
          "width": 16,
          "height": 16,
          "rotation": 0,
          "visible": true,
          "properties": [
            {
              "name": "shape",
              "type": "string",
              "value": "glow"
            },
            {
              "name": "radius",
              "type": "string",
              "value": "1.2"
            },
            {
              "name": "color",
              "type": "string",
              "value": "ff4038"
            },
            {
              "name": "intensity",
              "type": "string",
              "value": "0.55"
            },
            {
              "name": "flicker",
              "type": "string",
              "value": "false"
            }
          ]
        },
        {
          "id": 2,
          "name": "",
          "type": "light",
          "x": 144,
          "y": 32,
          "width": 16,
          "height": 16,
          "rotation": 0,
          "visible": true,
          "properties": [
            {
              "name": "shape",
              "type": "string",
              "value": "glow"
            },
            {
              "name": "radius",
              "type": "string",
              "value": "1.6"
            },
            {
              "name": "color",
              "type": "string",
              "value": "78b4ff"
            },
            {
              "name": "intensity",
              "type": "string",
              "value": "0.35"
            },
            {
              "name": "flicker",
              "type": "string",
              "value": "false"
            }
          ]
        },
        {
          "id": 3,
          "name": "",
          "type": "light",
          "x": 192,
          "y": 64,
          "width": 16,
          "height": 16,
          "rotation": 0,
          "visible": true,
          "properties": [
            {
              "name": "shape",
              "type": "string",
              "value": "glow"
            },
            {
              "name": "radius",
              "type": "string",
              "value": "3"
            },
            {
              "name": "color",
              "type": "string",
              "value": "fff4e0"
            },
            {
              "name": "intensity",
              "type": "string",
              "value": "0.3"
            },
            {
              "name": "flicker",
              "type": "string",
              "value": "false"
            }
          ]
        },
        {
          "id": 4,
          "name": "",
          "type": "light",
          "x": 256,
          "y": 64,
          "width": 16,
          "height": 16,
          "rotation": 0,
          "visible": true,
          "properties": [
            {
              "name": "shape",
              "type": "string",
              "value": "glow"
            },
            {
              "name": "radius",
              "type": "string",
              "value": "3"
            },
            {
              "name": "color",
              "type": "string",
              "value": "fff4e0"
            },
            {
              "name": "intensity",
              "type": "string",
              "value": "0.3"
            },
            {
              "name": "flicker",
              "type": "string",
              "value": "false"
            }
          ]
        },
        {
          "id": 5,
          "name": "",
          "type": "light",
          "x": 224,
          "y": 64,
          "width": 16,
          "height": 16,
          "rotation": 0,
          "visible": true,
          "properties": [
            {
              "name": "shape",
              "type": "string",
              "value": "glow"
            },
            {
              "name": "radius",
              "type": "string",
              "value": "2.2"
            },
            {
              "name": "color",
              "type": "string",
              "value": "78ff8c"
            },
            {
              "name": "intensity",
              "type": "string",
              "value": "0.22"
            },
            {
              "name": "flicker",
              "type": "string",
              "value": "false"
            }
          ]
        },
        {
          "id": 6,
          "name": "",
          "type": "door",
          "x": 160,
          "y": 176,
          "width": 16,
          "height": 16,
          "rotation": 0,
          "visible": true,
          "properties": [
            {
              "name": "toMap",
              "type": "string",
              "value": "town"
            },
            {
              "name": "toSpawn",
              "type": "string",
              "value": "boathouse_door"
            }
          ]
        },
        {
          "id": 7,
          "name": "entrance",
          "type": "spawn",
          "x": 160,
          "y": 160,
          "width": 16,
          "height": 16,
          "rotation": 0,
          "visible": true,
          "properties": [
            {
              "name": "facing",
              "type": "string",
              "value": "up"
            }
          ]
        },
        {
          "id": 8,
          "name": "streamer",
          "type": "npc",
          "x": 240,
          "y": 96,
          "width": 16,
          "height": 16,
          "rotation": 0,
          "visible": true,
          "properties": [
            {
              "name": "character",
              "type": "string",
              "value": "streamer"
            },
            {
              "name": "facing",
              "type": "string",
              "value": "down"
            },
            {
              "name": "name",
              "type": "string",
              "value": "Sunniva"
            },
            {
              "name": "dialogue",
              "type": "string",
              "value": "streamer"
            }
          ]
        },
        {
          "id": 9,
          "name": "",
          "type": "sign",
          "x": 144,
          "y": 96,
          "width": 16,
          "height": 16,
          "rotation": 0,
          "visible": true,
          "properties": [
            {
              "name": "text",
              "type": "string",
              "value": "* The stream preview. Chat is typing faster than anyone can read."
            }
          ]
        },
        {
          "id": 10,
          "name": "",
          "type": "sign",
          "x": 112,
          "y": 32,
          "width": 16,
          "height": 16,
          "rotation": 0,
          "visible": true,
          "properties": [
            {
              "name": "text",
              "type": "string",
              "value": "* The ON AIR lamp. It is always on. Sunniva says that's the point."
            }
          ]
        },
        {
          "id": 11,
          "name": "",
          "type": "sign",
          "x": 224,
          "y": 144,
          "width": 16,
          "height": 16,
          "rotation": 0,
          "visible": true,
          "properties": [
            {
              "name": "text",
              "type": "string",
              "value": "* The camera's little red light blinks at you. You are, briefly, content."
            }
          ]
        }
      ]
    }
  ],
  "tilesets": [
    {
      "firstgid": 1,
      "name": "world",
      "image": "../tilesets/world.png",
      "imagewidth": 2048,
      "imageheight": 2048,
      "tilewidth": 16,
      "tileheight": 16,
      "tilecount": 16384,
      "columns": 128,
      "margin": 0,
      "spacing": 0,
      "tiles": [
        {
          "id": 0,
          "properties": [
            {
              "name": "collides",
              "type": "bool",
              "value": true
            }
          ]
        },
        {
          "id": 1,
          "properties": [
            {
              "name": "clears",
              "type": "bool",
              "value": true
            }
          ]
        }
      ]
    }
  ]
}
