{
  "type": "map",
  "version": "1.10",
  "tiledversion": "1.11.0",
  "orientation": "orthogonal",
  "renderorder": "right-down",
  "infinite": false,
  "width": 18,
  "height": 11,
  "tilewidth": 16,
  "tileheight": 16,
  "nextlayerid": 9,
  "nextobjectid": 8,
  "properties": [
    {
      "name": "name",
      "type": "string",
      "value": "Farmhouse"
    }
  ],
  "layers": [
    {
      "id": 1,
      "name": "ground",
      "type": "tilelayer",
      "x": 0,
      "y": 0,
      "width": 18,
      "height": 11,
      "opacity": 1,
      "visible": true,
      "data": [
        0,0,0,0,0,0,0,0,0,0,0,0,0,0,0,0,0,0,
        0,0,2825,2826,2826,2826,2826,2826,2826,2826,2826,2826,2826,2826,2826,2827,0,0,
        0,0,2828,2829,2829,2829,2829,2829,2829,2829,2829,2829,2829,2829,2829,2830,0,0,
        0,0,2831,2832,2832,2832,2832,2832,2832,2832,2832,2832,2832,2832,2832,2832,0,0,
        0,0,2833,2834,2834,2834,2834,2834,2834,2834,2834,2834,2834,2834,2834,2834,0,0,
        0,0,2833,2834,2834,2834,2834,2834,2834,2834,2834,2834,2834,2834,2834,2834,0,0,
        0,0,2833,2834,2834,2834,2834,2834,2834,2834,2834,2834,2834,2834,2834,2834,0,0,
        0,0,2833,2834,2834,2834,2834,2834,2834,2834,2834,2834,2834,2834,2834,2834,0,0,
        0,0,2833,2834,2834,2834,2834,2834,2834,2834,2834,2834,2834,2834,2834,2834,0,0,
        0,0,0,0,0,0,0,0,0,0,0,0,0,0,0,0,0,0,
        0,0,0,0,0,0,0,0,0,0,0,0,0,0,0,0,0,0
      ]
    },
    {
      "id": 2,
      "name": "ground2",
      "type": "tilelayer",
      "x": 0,
      "y": 0,
      "width": 18,
      "height": 11,
      "opacity": 1,
      "visible": true,
      "data": [
        0,0,0,0,0,0,0,0,0,0,0,0,0,0,0,0,0,0,
        0,0,2835,2836,2837,0,0,0,0,0,0,0,0,0,0,0,0,0,
        0,0,2838,2839,2840,0,0,0,0,0,0,0,0,0,0,0,0,0,
        0,0,2841,2842,2843,0,0,0,0,0,0,0,0,0,0,0,0,0,
        0,0,0,0,0,0,0,0,0,0,0,0,0,0,0,0,0,0,
        0,0,0,0,0,0,0,0,0,2844,2845,2846,0,0,0,0,0,0,
        0,0,0,0,0,0,0,0,0,2847,2848,2849,0,0,0,0,0,0,
        0,0,0,0,0,0,0,0,0,0,0,0,0,0,0,0,0,0,
        0,0,0,0,0,0,0,0,0,0,0,0,0,0,0,0,0,0,
        0,0,0,0,0,0,0,0,0,0,0,0,0,0,0,0,0,0,
        0,0,0,0,0,0,0,0,0,0,0,0,0,0,0,0,0,0
      ]
    },
    {
      "id": 3,
      "name": "decal",
      "type": "tilelayer",
      "x": 0,
      "y": 0,
      "width": 18,
      "height": 11,
      "opacity": 1,
      "visible": true,
      "data": [
        0,0,0,0,0,0,0,0,0,0,0,0,0,0,0,0,0,0,
        0,0,0,0,0,0,0,0,0,0,0,0,0,0,0,0,0,0,
        0,0,0,0,0,0,0,0,0,0,0,0,0,0,0,0,0,0,
        0,0,0,0,0,0,0,0,0,0,0,0,0,0,0,0,0,0,
        0,0,0,0,0,0,0,0,0,0,0,0,0,0,0,0,0,0,
        0,0,0,0,0,0,0,0,0,0,0,0,0,0,0,0,0,0,
        0,0,0,0,0,0,0,0,0,0,0,0,0,0,0,0,0,0,
        0,0,0,0,0,0,0,0,0,0,0,0,0,0,0,0,0,0,
        0,0,0,0,0,0,0,0,0,0,0,0,0,0,0,0,0,0,
        0,0,0,0,0,0,0,0,0,0,0,0,0,0,0,0,0,0,
        0,0,0,0,0,0,0,0,0,0,0,0,0,0,0,0,0,0
      ]
    },
    {
      "id": 4,
      "name": "below",
      "type": "tilelayer",
      "x": 0,
      "y": 0,
      "width": 18,
      "height": 11,
      "opacity": 1,
      "visible": true,
      "data": [
        0,0,0,0,0,0,0,0,0,0,0,0,0,0,0,0,0,0,
        0,0,0,0,0,0,0,0,0,0,0,2850,2851,0,2852,2853,0,0,
        0,0,0,0,0,2854,2855,2856,2857,2858,2859,2860,2861,0,2862,2863,0,0,
        0,0,0,0,0,0,0,0,0,0,0,2864,2865,0,2866,2867,0,0,
        0,0,0,0,0,2868,2869,2870,2871,2872,0,0,0,0,0,0,0,0,
        0,0,0,0,0,2873,2874,2875,2876,2877,0,0,0,0,0,0,0,0,
        0,0,2878,2879,2880,0,2881,2882,2883,0,0,0,0,2884,2885,2886,0,0,
        0,0,2887,2888,2889,0,0,0,0,0,0,0,0,2890,2891,2892,0,0,
        0,0,0,0,0,0,0,0,0,0,0,0,0,0,0,0,0,0,
        0,0,0,0,0,0,0,0,0,0,0,0,0,0,0,0,0,0,
        0,0,0,0,0,0,0,0,0,0,0,0,0,0,0,0,0,0
      ]
    },
    {
      "id": 5,
      "name": "shade",
      "type": "tilelayer",
      "x": 0,
      "y": 0,
      "width": 18,
      "height": 11,
      "opacity": 1,
      "visible": true,
      "data": [
        0,0,0,0,0,0,0,0,0,0,0,0,0,0,0,0,0,0,
        0,0,0,0,0,0,0,0,0,0,0,0,0,0,0,0,0,0,
        0,0,0,0,0,0,0,0,0,0,0,0,0,0,0,0,0,0,
        0,0,0,0,0,0,0,0,0,0,0,0,0,0,0,0,0,0,
        0,0,0,0,0,0,0,0,0,0,0,0,0,0,0,0,0,0,
        0,0,0,0,0,0,0,0,0,0,0,0,0,0,0,0,0,0,
        0,0,0,0,0,0,0,0,0,0,0,0,0,0,0,0,0,0,
        0,0,0,0,0,0,2420,2421,2422,0,0,0,0,0,0,0,0,0,
        0,0,0,0,0,0,0,0,0,0,0,0,0,0,0,0,0,0,
        0,0,0,0,0,0,0,0,0,0,0,0,0,0,0,0,0,0,
        0,0,0,0,0,0,0,0,0,0,0,0,0,0,0,0,0,0
      ],
      "properties": [
        {
          "name": "blend",
          "type": "string",
          "value": "multiply"
        }
      ]
    },
    {
      "id": 6,
      "name": "above",
      "type": "tilelayer",
      "x": 0,
      "y": 0,
      "width": 18,
      "height": 11,
      "opacity": 1,
      "visible": true,
      "data": [
        0,0,0,0,0,0,0,0,0,0,0,0,0,0,0,0,0,0,
        0,2423,2424,2424,2424,2424,2424,2424,2424,2424,2424,2424,2424,2424,2424,2424,2425,0,
        0,2426,0,0,0,0,0,0,0,0,0,0,0,0,0,0,2429,0,
        0,2426,0,0,0,0,0,0,0,0,0,0,0,0,0,0,2429,0,
        0,2426,0,0,0,0,0,0,0,0,0,0,0,0,0,0,2429,0,
        0,2426,0,0,0,0,0,0,0,0,0,0,0,0,0,0,2429,0,
        0,2426,0,0,0,0,0,0,0,0,0,0,0,0,0,0,2429,0,
        0,2426,0,0,0,0,0,0,0,0,0,0,0,0,0,0,2429,0,
        0,2426,0,0,0,0,0,0,0,0,0,0,0,0,0,0,2429,0,
        0,2430,2431,2431,2431,2431,2431,2431,2431,0,2431,2431,2431,2431,2431,2431,2432,0,
        0,0,0,0,0,0,0,0,0,0,0,0,0,0,0,0,0,0
      ]
    },
    {
      "id": 7,
      "name": "collision",
      "type": "tilelayer",
      "x": 0,
      "y": 0,
      "width": 18,
      "height": 11,
      "opacity": 1,
      "visible": false,
      "data": [
        0,0,0,0,0,0,0,0,0,0,0,0,0,0,0,0,0,0,
        0,1,1,1,1,1,1,1,1,1,1,1,1,1,1,1,1,0,
        0,1,1,1,1,1,1,1,1,1,1,1,1,1,1,1,1,0,
        0,1,0,0,0,0,0,0,0,0,0,1,1,0,1,1,1,0,
        0,1,0,0,0,1,1,1,1,1,0,0,0,0,0,0,1,0,
        0,1,0,0,0,1,1,1,1,1,0,0,0,0,0,0,1,0,
        0,1,1,1,1,0,1,1,1,0,0,0,0,1,1,1,1,0,
        0,1,1,1,1,0,0,0,0,0,0,0,0,1,1,1,1,0,
        0,1,0,0,0,0,0,0,0,0,0,0,0,0,0,0,1,0,
        0,1,1,1,1,1,1,1,1,0,1,1,1,1,1,1,1,0,
        0,0,0,0,0,0,0,0,0,0,0,0,0,0,0,0,0,0
      ]
    },
    {
      "id": 8,
      "name": "objects",
      "type": "objectgroup",
      "x": 0,
      "y": 0,
      "opacity": 1,
      "visible": true,
      "draworder": "topdown",
      "objects": [
        {
          "id": 1,
          "name": "",
          "type": "light",
          "x": 32,
          "y": 48,
          "width": 16,
          "height": 16,
          "rotation": 0,
          "visible": true,
          "properties": [
            {
              "name": "shape",
              "type": "string",
              "value": "beam"
            },
            {
              "name": "w",
              "type": "string",
              "value": "3"
            },
            {
              "name": "h",
              "type": "string",
              "value": "3"
            },
            {
              "name": "color",
              "type": "string",
              "value": "fff0d2"
            },
            {
              "name": "intensity",
              "type": "string",
              "value": "0.4"
            }
          ]
        },
        {
          "id": 2,
          "name": "",
          "type": "light",
          "x": 176,
          "y": 48,
          "width": 16,
          "height": 16,
          "rotation": 0,
          "visible": true,
          "properties": [
            {
              "name": "shape",
              "type": "string",
              "value": "glow"
            },
            {
              "name": "radius",
              "type": "string",
              "value": "2.5"
            },
            {
              "name": "color",
              "type": "string",
              "value": "ffae62"
            },
            {
              "name": "intensity",
              "type": "string",
              "value": "0.5"
            },
            {
              "name": "flicker",
              "type": "string",
              "value": "true"
            }
          ]
        },
        {
          "id": 3,
          "name": "",
          "type": "door",
          "x": 144,
          "y": 144,
          "width": 16,
          "height": 16,
          "rotation": 0,
          "visible": true,
          "properties": [
            {
              "name": "toMap",
              "type": "string",
              "value": "town"
            },
            {
              "name": "toSpawn",
              "type": "string",
              "value": "farmhouse_door"
            }
          ]
        },
        {
          "id": 4,
          "name": "entrance",
          "type": "spawn",
          "x": 144,
          "y": 128,
          "width": 16,
          "height": 16,
          "rotation": 0,
          "visible": true,
          "properties": [
            {
              "name": "facing",
              "type": "string",
              "value": "up"
            }
          ]
        },
        {
          "id": 5,
          "name": "",
          "type": "sign",
          "x": 48,
          "y": 112,
          "width": 16,
          "height": 16,
          "rotation": 0,
          "visible": true,
          "properties": [
            {
              "name": "text",
              "type": "string",
              "value": "* Ola's harvest ledger. Tally marks, one page per year. The newest page is the busiest."
            }
          ]
        },
        {
          "id": 6,
          "name": "",
          "type": "sign",
          "x": 176,
          "y": 48,
          "width": 16,
          "height": 16,
          "rotation": 0,
          "visible": true,
          "properties": [
            {
              "name": "text",
              "type": "string",
              "value": "* The oven is still warm. It smells of lefse."
            }
          ]
        },
        {
          "id": 7,
          "name": "",
          "type": "sign",
          "x": 208,
          "y": 112,
          "width": 16,
          "height": 16,
          "rotation": 0,
          "visible": true,
          "properties": [
            {
              "name": "text",
              "type": "string",
              "value": "* Crates of potatoes, carrots and one suspicious cabbage."
            }
          ]
        }
      ]
    }
  ],
  "tilesets": [
    {
      "firstgid": 1,
      "name": "world",
      "image": "../tilesets/world.png",
      "imagewidth": 2048,
      "imageheight": 2048,
      "tilewidth": 16,
      "tileheight": 16,
      "tilecount": 16384,
      "columns": 128,
      "margin": 0,
      "spacing": 0,
      "tiles": [
        {
          "id": 0,
          "properties": [
            {
              "name": "collides",
              "type": "bool",
              "value": true
            }
          ]
        },
        {
          "id": 1,
          "properties": [
            {
              "name": "clears",
              "type": "bool",
              "value": true
            }
          ]
        }
      ]
    }
  ]
}
