{
  "type": "map",
  "version": "1.10",
  "tiledversion": "1.11.0",
  "orientation": "orthogonal",
  "renderorder": "right-down",
  "infinite": false,
  "width": 18,
  "height": 12,
  "tilewidth": 16,
  "tileheight": 16,
  "nextlayerid": 9,
  "nextobjectid": 11,
  "properties": [
    {
      "name": "name",
      "type": "string",
      "value": "Gym"
    }
  ],
  "layers": [
    {
      "id": 1,
      "name": "ground",
      "type": "tilelayer",
      "x": 0,
      "y": 0,
      "width": 18,
      "height": 12,
      "opacity": 1,
      "visible": true,
      "data": [
        0,0,0,0,0,0,0,0,0,0,0,0,0,0,0,0,0,0,
        0,0,2804,2805,2805,2805,2805,2805,2805,2805,2805,2805,2805,2805,2805,2806,0,0,
        0,0,2807,2808,2808,2808,2808,2808,2808,2808,2808,2808,2808,2808,2808,2809,0,0,
        0,0,2810,2811,2811,2811,2811,2811,2811,2811,2811,2811,2811,2811,2811,2811,0,0,
        0,0,2812,2813,2813,2813,2813,2813,2813,2813,2813,2813,2813,2813,2813,2813,0,0,
        0,0,2812,2813,2813,2813,2813,2813,2813,2813,2813,2813,2813,2813,2813,2813,0,0,
        0,0,2812,2813,2813,2813,2813,2813,2813,2813,2813,2813,2813,2813,2813,2813,0,0,
        0,0,2812,2813,2813,2813,2813,2813,2813,2813,2813,2813,2813,2813,2813,2813,0,0,
        0,0,2812,2813,2813,2813,2813,2813,2813,2813,2813,2813,2813,2813,2813,2813,0,0,
        0,0,2812,2813,2813,2813,2813,2813,2813,2813,2813,2813,2813,2813,2813,2813,0,0,
        0,0,0,0,0,0,0,0,0,0,0,0,0,0,0,0,0,0,
        0,0,0,0,0,0,0,0,0,0,0,0,0,0,0,0,0,0
      ]
    },
    {
      "id": 2,
      "name": "ground2",
      "type": "tilelayer",
      "x": 0,
      "y": 0,
      "width": 18,
      "height": 12,
      "opacity": 1,
      "visible": true,
      "data": [
        0,0,0,0,0,0,0,0,0,0,0,0,0,0,0,0,0,0,
        0,0,0,0,0,2814,2815,2816,2814,2815,2816,0,0,0,0,0,0,0,
        0,0,0,0,0,2817,2818,2819,2817,2818,2819,0,0,0,0,0,0,0,
        0,0,0,0,0,0,0,0,0,0,0,0,0,0,0,0,0,0,
        0,0,0,0,0,0,0,0,0,0,0,0,0,0,0,0,0,0,
        0,0,2820,2821,2822,0,0,0,0,0,0,0,0,0,0,0,0,0,
        0,0,2823,2824,2825,0,0,0,0,0,0,0,0,0,0,0,0,0,
        0,0,2826,2827,2828,0,0,0,0,0,0,0,0,0,0,0,0,0,
        0,0,0,0,0,0,0,0,0,0,0,0,0,0,0,0,0,0,
        0,0,0,0,0,0,0,0,0,0,0,0,0,0,0,0,0,0,
        0,0,0,0,0,0,0,0,0,0,0,0,0,0,0,0,0,0,
        0,0,0,0,0,0,0,0,0,0,0,0,0,0,0,0,0,0
      ]
    },
    {
      "id": 3,
      "name": "decal",
      "type": "tilelayer",
      "x": 0,
      "y": 0,
      "width": 18,
      "height": 12,
      "opacity": 1,
      "visible": true,
      "data": [
        0,0,0,0,0,0,0,0,0,0,0,0,0,0,0,0,0,0,
        0,0,0,0,0,0,0,0,0,0,0,0,0,0,0,0,0,0,
        0,0,0,0,0,0,0,0,0,0,0,0,0,0,0,0,0,0,
        0,0,0,0,0,0,0,0,0,0,0,0,0,0,0,0,0,0,
        0,0,0,0,0,0,0,0,0,0,0,0,0,0,0,0,0,0,
        0,0,0,0,0,0,0,0,0,0,0,0,0,0,0,0,0,0,
        0,0,0,0,0,0,0,0,0,0,0,0,0,0,0,0,0,0,
        0,0,0,0,0,0,0,0,0,0,0,0,0,0,0,0,0,0,
        0,0,0,0,0,0,0,0,0,0,0,0,0,0,0,0,0,0,
        0,0,0,0,0,0,0,0,0,0,0,0,0,0,0,0,0,0,
        0,0,0,0,0,0,0,0,0,0,0,0,0,0,0,0,0,0,
        0,0,0,0,0,0,0,0,0,0,0,0,0,0,0,0,0,0
      ]
    },
    {
      "id": 4,
      "name": "below",
      "type": "tilelayer",
      "x": 0,
      "y": 0,
      "width": 18,
      "height": 12,
      "opacity": 1,
      "visible": true,
      "data": [
        0,0,0,0,0,0,0,0,0,0,0,0,0,0,0,0,0,0,
        0,0,0,0,0,0,0,0,0,0,0,2829,2830,0,2831,0,0,0,
        0,0,2832,2833,2834,0,0,0,0,0,0,2835,2836,0,2837,0,0,0,
        0,0,2838,2839,2840,0,2841,2842,2843,2844,0,2845,2846,0,2847,0,0,0,
        0,0,0,0,0,0,2848,2849,2850,2851,0,0,0,0,0,0,0,0,
        0,0,0,0,0,0,0,0,0,0,2852,2853,0,0,2854,2855,2856,0,
        0,0,0,2857,2858,0,0,0,0,0,2859,2860,0,0,2861,2862,2863,0,
        0,0,0,2864,2865,0,0,0,0,0,2866,2867,0,0,2868,2869,2870,0,
        0,0,0,2871,2872,2873,2874,2875,0,2876,2877,0,0,0,2878,2879,2880,0,
        0,0,0,2881,2882,2883,2884,2885,0,2886,2887,0,0,0,0,0,0,0,
        0,0,0,0,0,0,0,0,0,0,0,0,0,0,0,0,0,0,
        0,0,0,0,0,0,0,0,0,0,0,0,0,0,0,0,0,0
      ]
    },
    {
      "id": 5,
      "name": "shade",
      "type": "tilelayer",
      "x": 0,
      "y": 0,
      "width": 18,
      "height": 12,
      "opacity": 1,
      "visible": true,
      "data": [
        0,0,0,0,0,0,0,0,0,0,0,0,0,0,0,0,0,0,
        0,0,0,0,0,0,0,0,0,0,0,0,0,0,0,0,0,0,
        0,0,0,0,0,0,0,0,0,0,0,0,0,0,0,0,0,0,
        0,0,0,0,0,0,0,0,0,0,0,0,0,0,0,0,0,0,
        0,0,0,0,0,0,0,0,0,0,0,0,0,0,0,0,0,0,
        0,0,0,0,0,0,0,0,0,0,0,0,0,0,0,0,0,0,
        0,0,0,0,0,0,0,0,0,0,0,0,0,0,0,0,0,0,
        0,0,0,0,0,0,0,0,0,0,0,0,0,0,0,0,0,0,
        0,0,0,0,0,0,0,0,0,0,0,0,0,0,0,0,0,0,
        0,0,0,0,0,0,0,0,0,0,2499,2500,2501,0,0,0,0,0,
        0,0,0,0,0,0,0,0,0,0,0,0,0,0,0,0,0,0,
        0,0,0,0,0,0,0,0,0,0,0,0,0,0,0,0,0,0
      ],
      "properties": [
        {
          "name": "blend",
          "type": "string",
          "value": "multiply"
        }
      ]
    },
    {
      "id": 6,
      "name": "above",
      "type": "tilelayer",
      "x": 0,
      "y": 0,
      "width": 18,
      "height": 12,
      "opacity": 1,
      "visible": true,
      "data": [
        0,0,0,0,0,0,0,0,0,0,0,0,0,0,0,0,0,0,
        0,2502,2503,2503,2503,2503,2503,2503,2503,2503,2503,2503,2503,2503,2503,2503,2504,0,
        0,2505,0,0,0,0,0,0,0,0,0,0,0,0,0,0,2508,0,
        0,2505,0,0,0,0,0,0,0,0,0,0,0,0,0,0,2508,0,
        0,2505,0,0,0,0,0,0,0,0,0,0,0,0,0,0,2508,0,
        0,2505,0,0,0,0,0,0,0,0,0,0,0,0,0,0,2508,0,
        0,2505,0,0,0,0,0,0,0,0,0,0,0,0,0,0,2508,0,
        0,2505,0,0,0,0,0,0,0,0,0,0,0,0,0,0,2508,0,
        0,2505,0,0,0,0,0,0,0,0,0,0,0,0,0,0,2508,0,
        0,2505,0,0,0,0,0,0,0,0,0,0,0,0,0,0,2508,0,
        0,2509,2510,2510,2510,2510,2510,2510,0,2510,2510,2510,2510,2510,2510,2510,2511,0,
        0,0,0,0,0,0,0,0,0,0,0,0,0,0,0,0,0,0
      ]
    },
    {
      "id": 7,
      "name": "collision",
      "type": "tilelayer",
      "x": 0,
      "y": 0,
      "width": 18,
      "height": 12,
      "opacity": 1,
      "visible": false,
      "data": [
        0,0,0,0,0,0,0,0,0,0,0,0,0,0,0,0,0,0,
        0,1,1,1,1,1,1,1,1,1,1,1,1,1,1,1,1,0,
        0,1,1,1,1,1,1,1,1,1,1,1,1,1,1,1,1,0,
        0,1,1,1,1,0,1,1,1,1,0,1,1,0,1,0,1,0,
        0,1,0,0,0,0,1,1,1,1,0,0,0,0,0,0,1,0,
        0,1,0,0,0,0,0,0,0,0,1,1,0,0,1,1,1,0,
        0,1,0,1,1,0,0,0,0,0,1,1,0,0,1,1,1,0,
        0,1,0,1,1,0,0,0,0,0,1,1,0,0,1,1,1,0,
        0,1,0,1,1,1,1,1,0,1,1,0,0,0,1,1,1,0,
        0,1,0,1,1,1,1,1,0,1,1,0,0,0,0,0,1,0,
        0,1,1,1,1,1,1,1,0,1,1,1,1,1,1,1,1,0,
        0,0,0,0,0,0,0,0,0,0,0,0,0,0,0,0,0,0
      ]
    },
    {
      "id": 8,
      "name": "objects",
      "type": "objectgroup",
      "x": 0,
      "y": 0,
      "opacity": 1,
      "visible": true,
      "draworder": "topdown",
      "objects": [
        {
          "id": 1,
          "name": "",
          "type": "light",
          "x": 80,
          "y": 128,
          "width": 16,
          "height": 16,
          "rotation": 0,
          "visible": true,
          "properties": [
            {
              "name": "shape",
              "type": "string",
              "value": "glow"
            },
            {
              "name": "radius",
              "type": "string",
              "value": "2"
            },
            {
              "name": "color",
              "type": "string",
              "value": "ffd08a"
            },
            {
              "name": "intensity",
              "type": "string",
              "value": "0.45"
            },
            {
              "name": "flicker",
              "type": "string",
              "value": "false"
            }
          ]
        },
        {
          "id": 2,
          "name": "",
          "type": "door",
          "x": 128,
          "y": 160,
          "width": 16,
          "height": 16,
          "rotation": 0,
          "visible": true,
          "properties": [
            {
              "name": "toMap",
              "type": "string",
              "value": "town"
            },
            {
              "name": "toSpawn",
              "type": "string",
              "value": "gym_door"
            }
          ]
        },
        {
          "id": 3,
          "name": "entrance",
          "type": "spawn",
          "x": 128,
          "y": 144,
          "width": 16,
          "height": 16,
          "rotation": 0,
          "visible": true,
          "properties": [
            {
              "name": "facing",
              "type": "string",
              "value": "up"
            }
          ]
        },
        {
          "id": 4,
          "name": "trainer",
          "type": "npc",
          "x": 128,
          "y": 96,
          "width": 16,
          "height": 16,
          "rotation": 0,
          "visible": true,
          "properties": [
            {
              "name": "character",
              "type": "string",
              "value": "trainer"
            },
            {
              "name": "facing",
              "type": "string",
              "value": "down"
            },
            {
              "name": "name",
              "type": "string",
              "value": "Tor"
            },
            {
              "name": "dialogue",
              "type": "string",
              "value": "trainer"
            }
          ]
        },
        {
          "id": 5,
          "name": "",
          "type": "sign",
          "x": 48,
          "y": 48,
          "width": 16,
          "height": 16,
          "rotation": 0,
          "visible": true,
          "properties": [
            {
              "name": "text",
              "type": "string",
              "value": "* The languages rack. Mostly TypeScript-weight dumbbells."
            }
          ]
        },
        {
          "id": 6,
          "name": "",
          "type": "sign",
          "x": 112,
          "y": 64,
          "width": 16,
          "height": 16,
          "rotation": 0,
          "visible": true,
          "properties": [
            {
              "name": "text",
              "type": "string",
              "value": "* The frameworks rack. Every bar is loaded differently."
            }
          ]
        },
        {
          "id": 7,
          "name": "",
          "type": "sign",
          "x": 224,
          "y": 128,
          "width": 16,
          "height": 16,
          "rotation": 0,
          "visible": true,
          "properties": [
            {
              "name": "text",
              "type": "string",
              "value": "* The treadmill: cloud and DevOps. It never stops running."
            }
          ]
        },
        {
          "id": 8,
          "name": "",
          "type": "sign",
          "x": 64,
          "y": 112,
          "width": 16,
          "height": 16,
          "rotation": 0,
          "visible": true,
          "properties": [
            {
              "name": "text",
              "type": "string",
              "value": "* Warm-up weights: everyday tools. Nobody skips them here."
            }
          ]
        },
        {
          "id": 9,
          "name": "",
          "type": "sign",
          "x": 176,
          "y": 128,
          "width": 16,
          "height": 16,
          "rotation": 0,
          "visible": true,
          "properties": [
            {
              "name": "text",
              "type": "string",
              "value": "* The heavy rack: video and streaming. The bar is bending slightly."
            }
          ]
        },
        {
          "id": 10,
          "name": "",
          "type": "sign",
          "x": 80,
          "y": 128,
          "width": 16,
          "height": 16,
          "rotation": 0,
          "visible": true,
          "properties": [
            {
              "name": "text",
              "type": "string",
              "value": "* The front desk. Memberships, payments, a bowl of protein bars."
            }
          ]
        }
      ]
    }
  ],
  "tilesets": [
    {
      "firstgid": 1,
      "name": "world",
      "image": "../tilesets/world.png",
      "imagewidth": 2048,
      "imageheight": 2048,
      "tilewidth": 16,
      "tileheight": 16,
      "tilecount": 16384,
      "columns": 128,
      "margin": 0,
      "spacing": 0,
      "tiles": [
        {
          "id": 0,
          "properties": [
            {
              "name": "collides",
              "type": "bool",
              "value": true
            }
          ]
        },
        {
          "id": 1,
          "properties": [
            {
              "name": "clears",
              "type": "bool",
              "value": true
            }
          ]
        }
      ]
    }
  ]
}
