{
  "type": "map",
  "version": "1.10",
  "tiledversion": "1.11.0",
  "orientation": "orthogonal",
  "renderorder": "right-down",
  "infinite": false,
  "width": 18,
  "height": 12,
  "tilewidth": 16,
  "tileheight": 16,
  "nextlayerid": 9,
  "nextobjectid": 10,
  "properties": [
    {
      "name": "name",
      "type": "string",
      "value": "datagutt's house, upstairs"
    }
  ],
  "layers": [
    {
      "id": 1,
      "name": "ground",
      "type": "tilelayer",
      "x": 0,
      "y": 0,
      "width": 18,
      "height": 12,
      "opacity": 1,
      "visible": true,
      "data": [
        0,0,0,0,0,0,0,0,0,0,0,0,0,0,0,0,0,0,
        0,0,2433,2434,2434,2434,2434,2434,2434,2434,2434,2434,2434,2434,2434,2435,0,0,
        0,0,2436,2437,2437,2437,2437,2437,2437,2437,2437,2437,2437,2437,2437,2438,0,0,
        0,0,2439,2440,2440,2440,2440,2440,2440,2440,2440,2440,2440,2440,2440,2440,0,0,
        0,0,2441,2442,2442,2442,2442,2442,2442,2442,2442,2442,2442,2442,2442,2442,0,0,
        0,0,2441,2442,2442,2442,2442,2442,2442,2442,2442,2442,2442,2442,2442,2442,0,0,
        0,0,2441,2442,2442,2442,2442,2442,2442,2442,2442,2442,2442,2442,2442,2442,0,0,
        0,0,2441,2442,2442,2442,2442,2442,2442,2442,2442,2442,2442,2442,2442,2442,0,0,
        0,0,2441,2442,2442,2442,2442,2442,2442,2442,2442,2442,2442,2442,2442,2442,0,0,
        0,0,2441,2442,2442,2442,2442,2442,2442,2442,2442,2442,2442,2442,2442,2442,0,0,
        0,0,0,0,0,0,0,0,0,0,0,0,0,0,0,0,0,0,
        0,0,0,0,0,0,0,0,0,0,0,0,0,0,0,0,0,0
      ]
    },
    {
      "id": 2,
      "name": "ground2",
      "type": "tilelayer",
      "x": 0,
      "y": 0,
      "width": 18,
      "height": 12,
      "opacity": 1,
      "visible": true,
      "data": [
        0,0,0,0,0,0,0,0,0,0,0,0,0,0,0,0,0,0,
        0,0,2443,2444,2445,0,0,0,0,0,0,0,0,0,0,0,0,0,
        0,0,2446,2447,2448,0,0,0,0,0,0,0,0,0,0,0,0,0,
        0,0,2449,2450,2451,0,0,0,0,0,0,0,0,0,0,0,0,0,
        0,0,0,0,0,0,0,0,0,0,0,0,0,0,0,0,0,0,
        0,0,0,0,0,0,0,0,0,0,0,0,0,0,0,0,0,0,
        0,0,0,0,0,0,2329,2330,2331,2332,0,0,0,0,0,0,0,0,
        0,0,0,0,0,0,2333,2334,2335,2336,0,0,0,0,0,0,0,0,
        0,0,0,0,0,0,2337,2338,2339,2340,0,0,0,0,0,0,0,0,
        0,0,0,0,0,0,0,0,0,0,0,0,0,0,0,0,0,0,
        0,0,0,0,0,0,0,0,0,0,0,0,0,0,0,0,0,0,
        0,0,0,0,0,0,0,0,0,0,0,0,0,0,0,0,0,0
      ]
    },
    {
      "id": 3,
      "name": "decal",
      "type": "tilelayer",
      "x": 0,
      "y": 0,
      "width": 18,
      "height": 12,
      "opacity": 1,
      "visible": true,
      "data": [
        0,0,0,0,0,0,0,0,0,0,0,0,0,0,0,0,0,0,
        0,0,0,0,0,0,0,0,0,0,0,0,0,0,0,0,0,0,
        0,0,0,0,0,0,0,0,0,0,0,0,0,0,0,0,0,0,
        0,0,0,0,0,0,0,0,0,0,0,0,0,0,0,0,0,0,
        0,0,0,0,0,0,0,0,0,0,0,0,0,0,0,0,0,0,
        0,0,0,0,0,0,0,0,0,0,0,0,0,0,0,0,0,0,
        0,0,0,0,0,0,0,0,0,0,0,0,0,0,0,0,0,0,
        0,0,0,0,0,0,0,0,0,0,0,0,0,0,0,0,0,0,
        0,0,0,0,0,0,0,0,0,0,0,0,0,0,0,0,0,0,
        0,0,0,0,0,0,0,0,0,0,0,0,0,0,0,0,0,0,
        0,0,0,0,0,0,0,0,0,0,0,0,0,0,0,0,0,0,
        0,0,0,0,0,0,0,0,0,0,0,0,0,0,0,0,0,0
      ]
    },
    {
      "id": 4,
      "name": "below",
      "type": "tilelayer",
      "x": 0,
      "y": 0,
      "width": 18,
      "height": 12,
      "opacity": 1,
      "visible": true,
      "data": [
        0,0,0,0,0,0,0,0,0,0,0,0,0,0,0,0,0,0,
        0,0,0,0,0,0,0,0,0,0,2452,2453,2454,0,0,0,0,0,
        0,0,0,0,0,2455,2456,2457,2458,2459,2460,2461,2462,0,0,0,0,0,
        0,0,0,0,0,2463,2464,2465,2466,2467,2468,2469,2470,2351,2352,2353,0,0,
        0,0,0,0,0,2471,2472,2473,2474,0,0,0,0,2363,2364,2365,0,0,
        0,0,2475,2476,0,0,0,0,0,0,0,0,0,2375,2376,2377,0,0,
        0,0,2477,2478,0,0,0,0,0,0,0,0,0,0,0,0,0,0,
        0,0,2479,2480,0,0,0,0,0,0,0,0,0,2481,2482,2483,0,0,
        0,0,2484,2485,0,0,0,0,0,0,0,0,0,2486,2487,2488,0,0,
        0,0,0,0,0,0,0,0,0,0,0,0,0,2489,2490,2491,0,0,
        0,0,0,0,0,0,0,0,0,0,0,0,0,0,0,0,0,0,
        0,0,0,0,0,0,0,0,0,0,0,0,0,0,0,0,0,0
      ]
    },
    {
      "id": 5,
      "name": "shade",
      "type": "tilelayer",
      "x": 0,
      "y": 0,
      "width": 18,
      "height": 12,
      "opacity": 1,
      "visible": true,
      "data": [
        0,0,0,0,0,0,0,0,0,0,0,0,0,0,0,0,0,0,
        0,0,0,0,0,0,0,0,0,0,0,0,0,0,0,0,0,0,
        0,0,0,0,0,0,0,0,0,0,0,0,0,0,0,0,0,0,
        0,0,0,0,0,0,0,0,0,0,0,0,0,0,0,0,0,0,
        0,0,0,0,0,0,0,0,0,0,0,0,0,0,0,0,0,0,
        0,0,0,0,0,0,0,0,0,0,0,0,0,0,0,0,0,0,
        0,0,0,0,0,0,0,0,0,0,0,0,0,0,0,0,0,0,
        0,0,0,0,0,0,0,0,0,0,0,0,0,0,0,0,0,0,
        0,0,0,0,0,0,0,0,0,0,0,0,0,0,0,0,0,0,
        0,0,2420,2421,2422,0,0,0,0,0,0,0,0,0,0,0,0,0,
        0,0,0,0,0,0,0,0,0,0,0,0,0,0,0,0,0,0,
        0,0,0,0,0,0,0,0,0,0,0,0,0,0,0,0,0,0
      ],
      "properties": [
        {
          "name": "blend",
          "type": "string",
          "value": "multiply"
        }
      ]
    },
    {
      "id": 6,
      "name": "above",
      "type": "tilelayer",
      "x": 0,
      "y": 0,
      "width": 18,
      "height": 12,
      "opacity": 1,
      "visible": true,
      "data": [
        0,0,0,0,0,0,0,0,0,0,0,0,0,0,0,0,0,0,
        0,2423,2424,2424,2424,2424,2424,2424,2424,2424,2424,2424,2424,2424,2424,2424,2425,0,
        0,2426,0,0,0,0,0,0,0,0,0,0,0,0,0,0,2429,0,
        0,2426,0,0,0,0,0,0,0,0,0,0,0,2492,2493,2494,2429,0,
        0,2426,0,0,0,0,0,0,0,0,0,0,0,2495,0,2496,2429,0,
        0,2426,0,0,0,0,0,0,0,0,0,0,0,2497,2498,2499,2429,0,
        0,2426,0,0,0,0,0,0,0,0,0,0,0,0,0,0,2429,0,
        0,2426,0,0,0,0,0,0,0,0,0,0,0,0,0,0,2429,0,
        0,2426,0,0,0,0,0,0,0,0,0,0,0,0,0,0,2429,0,
        0,2426,0,0,0,0,0,0,0,0,0,0,0,0,0,0,2429,0,
        0,2430,2431,2431,2431,2431,2431,2431,2431,2431,2431,2431,2431,2431,2431,2431,2432,0,
        0,0,0,0,0,0,0,0,0,0,0,0,0,0,0,0,0,0
      ]
    },
    {
      "id": 7,
      "name": "collision",
      "type": "tilelayer",
      "x": 0,
      "y": 0,
      "width": 18,
      "height": 12,
      "opacity": 1,
      "visible": false,
      "data": [
        0,0,0,0,0,0,0,0,0,0,0,0,0,0,0,0,0,0,
        0,1,1,1,1,1,1,1,1,1,1,1,1,1,1,1,1,0,
        0,1,1,1,1,1,1,1,1,1,1,1,1,1,1,1,1,0,
        0,1,0,0,0,1,1,1,1,1,1,1,1,1,0,1,1,0,
        0,1,0,0,0,1,1,1,1,0,0,0,0,1,0,1,1,0,
        0,1,1,1,0,0,0,0,0,0,0,0,0,1,0,1,1,0,
        0,1,1,1,0,0,0,0,0,0,0,0,0,0,0,0,1,0,
        0,1,1,1,0,0,0,0,0,0,0,0,0,1,1,1,1,0,
        0,1,1,1,0,0,0,0,0,0,0,0,0,1,1,1,1,0,
        0,1,0,0,0,0,0,0,0,0,0,0,0,1,1,1,1,0,
        0,1,1,1,1,1,1,1,1,1,1,1,1,1,1,1,1,0,
        0,0,0,0,0,0,0,0,0,0,0,0,0,0,0,0,0,0
      ]
    },
    {
      "id": 8,
      "name": "objects",
      "type": "objectgroup",
      "x": 0,
      "y": 0,
      "opacity": 1,
      "visible": true,
      "draworder": "topdown",
      "objects": [
        {
          "id": 1,
          "name": "",
          "type": "light",
          "x": 80,
          "y": 64,
          "width": 16,
          "height": 16,
          "rotation": 0,
          "visible": true,
          "properties": [
            {
              "name": "shape",
              "type": "string",
              "value": "glow"
            },
            {
              "name": "radius",
              "type": "string",
              "value": "1.6"
            },
            {
              "name": "color",
              "type": "string",
              "value": "78b4ff"
            },
            {
              "name": "intensity",
              "type": "string",
              "value": "0.35"
            },
            {
              "name": "flicker",
              "type": "string",
              "value": "false"
            }
          ]
        },
        {
          "id": 2,
          "name": "",
          "type": "light",
          "x": 96,
          "y": 64,
          "width": 16,
          "height": 16,
          "rotation": 0,
          "visible": true,
          "properties": [
            {
              "name": "shape",
              "type": "string",
              "value": "glow"
            },
            {
              "name": "radius",
              "type": "string",
              "value": "1.6"
            },
            {
              "name": "color",
              "type": "string",
              "value": "78b4ff"
            },
            {
              "name": "intensity",
              "type": "string",
              "value": "0.35"
            },
            {
              "name": "flicker",
              "type": "string",
              "value": "false"
            }
          ]
        },
        {
          "id": 3,
          "name": "",
          "type": "light",
          "x": 112,
          "y": 64,
          "width": 16,
          "height": 16,
          "rotation": 0,
          "visible": true,
          "properties": [
            {
              "name": "shape",
              "type": "string",
              "value": "glow"
            },
            {
              "name": "radius",
              "type": "string",
              "value": "1.6"
            },
            {
              "name": "color",
              "type": "string",
              "value": "78b4ff"
            },
            {
              "name": "intensity",
              "type": "string",
              "value": "0.35"
            },
            {
              "name": "flicker",
              "type": "string",
              "value": "false"
            }
          ]
        },
        {
          "id": 4,
          "name": "",
          "type": "light",
          "x": 32,
          "y": 48,
          "width": 16,
          "height": 16,
          "rotation": 0,
          "visible": true,
          "properties": [
            {
              "name": "shape",
              "type": "string",
              "value": "beam"
            },
            {
              "name": "w",
              "type": "string",
              "value": "3"
            },
            {
              "name": "h",
              "type": "string",
              "value": "3"
            },
            {
              "name": "color",
              "type": "string",
              "value": "fff0d2"
            },
            {
              "name": "intensity",
              "type": "string",
              "value": "0.4"
            }
          ]
        },
        {
          "id": 5,
          "name": "",
          "type": "door",
          "x": 224,
          "y": 64,
          "width": 16,
          "height": 16,
          "rotation": 0,
          "visible": true,
          "properties": [
            {
              "name": "toMap",
              "type": "string",
              "value": "house"
            },
            {
              "name": "toSpawn",
              "type": "string",
              "value": "stairs"
            }
          ]
        },
        {
          "id": 6,
          "name": "stairs",
          "type": "spawn",
          "x": 224,
          "y": 96,
          "width": 16,
          "height": 16,
          "rotation": 0,
          "visible": true,
          "properties": [
            {
              "name": "facing",
              "type": "string",
              "value": "down"
            }
          ]
        },
        {
          "id": 7,
          "name": "datagutt",
          "type": "npc",
          "x": 96,
          "y": 80,
          "width": 16,
          "height": 16,
          "rotation": 0,
          "visible": true,
          "properties": [
            {
              "name": "character",
              "type": "string",
              "value": "datagutt"
            },
            {
              "name": "facing",
              "type": "string",
              "value": "up"
            },
            {
              "name": "name",
              "type": "string",
              "value": "Thomas"
            },
            {
              "name": "dialogue",
              "type": "string",
              "value": "datagutt"
            }
          ]
        },
        {
          "id": 8,
          "name": "",
          "type": "sign",
          "x": 112,
          "y": 64,
          "width": 16,
          "height": 16,
          "rotation": 0,
          "visible": true,
          "properties": [
            {
              "name": "text",
              "type": "string",
              "value": "* Three computers. Several terminals are open. Something is compiling."
            }
          ]
        },
        {
          "id": 9,
          "name": "",
          "type": "sign",
          "x": 144,
          "y": 48,
          "width": 16,
          "height": 16,
          "rotation": 0,
          "visible": true,
          "properties": [
            {
              "name": "text",
              "type": "string",
              "value": "* A mini-fridge. Energy drinks, top to bottom. Also one lemon, looking lonely."
            }
          ]
        }
      ]
    }
  ],
  "tilesets": [
    {
      "firstgid": 1,
      "name": "world",
      "image": "../tilesets/world.png",
      "imagewidth": 2048,
      "imageheight": 2048,
      "tilewidth": 16,
      "tileheight": 16,
      "tilecount": 16384,
      "columns": 128,
      "margin": 0,
      "spacing": 0,
      "tiles": [
        {
          "id": 0,
          "properties": [
            {
              "name": "collides",
              "type": "bool",
              "value": true
            }
          ]
        },
        {
          "id": 1,
          "properties": [
            {
              "name": "clears",
              "type": "bool",
              "value": true
            }
          ]
        }
      ]
    }
  ]
}
