{
  "type": "map",
  "version": "1.10",
  "tiledversion": "1.11.0",
  "orientation": "orthogonal",
  "renderorder": "right-down",
  "infinite": false,
  "width": 18,
  "height": 13,
  "tilewidth": 16,
  "tileheight": 16,
  "nextlayerid": 8,
  "nextobjectid": 8,
  "properties": [
    {
      "name": "name",
      "type": "string",
      "value": "datagutt's house"
    }
  ],
  "layers": [
    {
      "id": 1,
      "name": "ground",
      "type": "tilelayer",
      "x": 0,
      "y": 0,
      "width": 18,
      "height": 13,
      "opacity": 1,
      "visible": true,
      "data": [
        0,0,0,0,0,0,0,0,0,0,0,0,0,0,0,0,0,0,
        0,0,2315,2316,2317,2315,2316,2317,2315,2316,2317,2315,2316,2317,2315,2316,0,0,
        0,0,2318,2319,2320,2318,2319,2320,2318,2319,2320,2318,2319,2320,2318,2319,0,0,
        0,0,2321,2322,2323,2321,2322,2323,2321,2322,2323,2321,2322,2323,2321,2322,0,0,
        0,0,2324,2325,2326,2324,2325,2326,2324,2325,2326,2324,2325,2326,2324,2325,0,0,
        0,0,2321,2322,2323,2321,2322,2323,2321,2322,2323,2321,2322,2323,2321,2322,0,0,
        0,0,2324,2325,2326,2324,2325,2326,2324,2325,2326,2324,2325,2326,2324,2325,0,0,
        0,0,2321,2322,2323,2321,2322,2323,2321,2322,2323,2321,2322,2323,2321,2322,0,0,
        0,0,2324,2325,2326,2324,2325,2326,2324,2325,2326,2324,2325,2326,2324,2325,0,0,
        0,0,2321,2322,2323,2321,2322,2323,2321,2322,2323,2321,2322,2323,2321,2322,0,0,
        0,0,2324,2325,2326,2324,2325,2326,2324,2325,2326,2324,2325,2326,2324,2325,0,0,
        0,0,0,0,0,0,0,0,0,0,0,0,0,0,0,0,0,0,
        0,0,0,0,0,0,0,0,0,0,0,0,0,0,0,0,0,0
      ]
    },
    {
      "id": 2,
      "name": "ground2",
      "type": "tilelayer",
      "x": 0,
      "y": 0,
      "width": 18,
      "height": 13,
      "opacity": 1,
      "visible": true,
      "data": [
        0,0,0,0,0,0,0,0,0,0,0,0,0,0,0,0,0,0,
        0,0,0,0,0,0,0,2327,2328,0,0,0,0,0,0,0,0,0,
        0,0,0,0,0,0,0,2329,2330,0,0,0,0,0,0,0,0,0,
        0,0,0,0,0,0,0,0,0,0,0,0,0,0,0,0,0,0,
        0,0,0,0,0,0,0,0,0,0,0,0,0,0,0,0,0,0,
        0,0,0,0,0,0,0,0,2331,2332,2333,2334,0,0,0,0,0,0,
        0,0,0,0,0,0,0,0,2335,2336,2337,2338,0,0,0,0,0,0,
        0,0,0,0,0,0,0,0,2339,2340,2341,2342,0,0,0,0,0,0,
        0,0,0,0,0,0,0,0,0,0,0,0,0,0,0,0,0,0,
        0,0,0,0,0,0,0,0,2343,2344,2345,0,0,0,0,0,0,0,
        0,0,0,0,0,0,0,0,2346,2347,2348,0,0,0,0,0,0,0,
        0,0,0,0,0,0,0,0,0,0,0,0,0,0,0,0,0,0,
        0,0,0,0,0,0,0,0,0,0,0,0,0,0,0,0,0,0
      ]
    },
    {
      "id": 3,
      "name": "decal",
      "type": "tilelayer",
      "x": 0,
      "y": 0,
      "width": 18,
      "height": 13,
      "opacity": 1,
      "visible": true,
      "data": [
        0,0,0,0,0,0,0,0,0,0,0,0,0,0,0,0,0,0,
        0,0,0,0,0,0,0,0,0,0,0,0,0,0,0,0,0,0,
        0,0,0,0,0,0,0,0,0,0,0,0,0,0,0,0,0,0,
        0,0,0,0,0,0,0,0,0,0,0,0,0,0,0,0,0,0,
        0,0,0,0,0,0,0,0,0,0,0,0,0,0,0,0,0,0,
        0,0,0,0,0,0,0,0,0,0,0,0,0,0,0,0,0,0,
        0,0,0,0,0,0,0,0,0,0,0,0,0,0,0,0,0,0,
        0,0,0,0,0,0,0,0,0,0,0,0,0,0,0,0,0,0,
        0,0,0,0,0,0,0,0,0,0,0,0,0,0,0,0,0,0,
        0,0,0,0,0,0,0,0,0,0,0,0,0,0,0,0,0,0,
        0,0,0,0,0,0,0,0,0,0,0,0,0,0,0,0,0,0,
        0,0,0,0,0,0,0,0,0,0,0,0,0,0,0,0,0,0,
        0,0,0,0,0,0,0,0,0,0,0,0,0,0,0,0,0,0
      ]
    },
    {
      "id": 4,
      "name": "below",
      "type": "tilelayer",
      "x": 0,
      "y": 0,
      "width": 18,
      "height": 13,
      "opacity": 1,
      "visible": true,
      "data": [
        0,0,0,0,0,0,0,0,0,0,0,0,0,0,0,0,0,0,
        0,0,0,0,0,0,0,0,0,2462,2463,2351,2352,2397,2398,2399,0,0,
        0,0,2400,2401,2432,2433,2434,0,0,2525,2526,2359,2360,2402,2403,2404,0,0,
        0,0,2405,2406,2437,2438,2439,0,0,2527,2528,2367,2368,2407,2408,2409,0,0,
        0,0,0,0,0,0,0,2442,2443,0,0,2444,2445,2410,2411,2412,0,0,
        0,0,0,0,0,0,0,2446,2447,0,0,2448,2449,0,0,0,0,0,
        0,0,0,2450,2414,2415,2451,2452,2453,0,0,2454,2455,0,0,0,0,0,
        0,0,0,2456,2417,2418,2457,2458,2459,0,0,2460,2461,2385,2386,0,0,0,
        0,0,2529,2530,2420,2421,2422,0,0,0,0,0,0,2387,2388,0,0,0,
        0,0,2531,2532,0,0,0,0,0,0,0,0,0,0,0,2353,0,0,
        0,0,2533,2534,0,0,0,0,0,0,0,0,0,0,0,2361,0,0,
        0,0,0,0,0,0,0,0,0,0,0,0,0,0,0,0,0,0,
        0,0,0,0,0,0,0,0,0,0,0,0,0,0,0,0,0,0
      ]
    },
    {
      "id": 5,
      "name": "above",
      "type": "tilelayer",
      "x": 0,
      "y": 0,
      "width": 18,
      "height": 13,
      "opacity": 1,
      "visible": true,
      "data": [
        0,0,0,0,0,0,0,0,0,0,0,0,0,0,0,0,0,0,
        0,2389,2390,2390,2390,2390,2390,2390,2390,2390,2390,2390,2390,2390,2390,2390,2391,0,
        0,2392,0,0,0,0,0,0,0,2464,2465,0,0,0,0,0,2393,0,
        0,2392,0,0,0,0,0,0,0,0,0,0,0,0,0,0,2393,0,
        0,2392,0,0,0,0,0,0,0,0,0,0,0,0,0,0,2393,0,
        0,2392,0,0,0,0,0,0,0,0,0,0,0,0,0,0,2393,0,
        0,2392,0,0,0,0,0,0,0,0,0,0,0,0,0,0,2393,0,
        0,2392,0,0,0,0,0,0,0,0,0,0,0,0,0,0,2393,0,
        0,2392,0,0,0,0,0,0,0,0,0,0,0,0,0,0,2393,0,
        0,2392,0,0,0,0,0,0,0,0,0,0,0,0,0,0,2393,0,
        0,2392,0,0,0,0,0,0,0,0,0,0,0,0,0,0,2393,0,
        0,2394,2395,2395,2395,2395,2395,2395,2395,0,2395,2395,2395,2395,2395,2395,2396,0,
        0,0,0,0,0,0,0,0,0,0,0,0,0,0,0,0,0,0
      ]
    },
    {
      "id": 6,
      "name": "collision",
      "type": "tilelayer",
      "x": 0,
      "y": 0,
      "width": 18,
      "height": 13,
      "opacity": 1,
      "visible": false,
      "data": [
        0,0,0,0,0,0,0,0,0,0,0,0,0,0,0,0,0,0,
        0,1,1,1,1,1,1,1,1,1,1,1,1,1,1,1,1,0,
        0,1,1,1,1,1,1,1,1,1,1,1,1,1,0,1,1,0,
        0,1,1,1,1,1,1,0,0,1,1,1,1,1,0,1,1,0,
        0,1,0,0,0,0,0,0,0,0,0,0,0,1,0,1,1,0,
        0,1,0,0,0,0,0,1,0,0,0,0,1,0,0,0,1,0,
        0,1,0,1,0,0,1,1,0,0,0,0,1,0,0,0,1,0,
        0,1,0,1,1,1,1,1,0,0,0,0,1,1,1,0,1,0,
        0,1,1,1,1,1,0,0,0,0,0,0,0,1,1,0,1,0,
        0,1,1,1,0,0,0,0,0,0,0,0,0,0,0,1,1,0,
        0,1,1,1,0,0,0,0,0,0,0,0,0,0,0,1,1,0,
        0,1,1,1,1,1,1,1,1,0,1,1,1,1,1,1,1,0,
        0,0,0,0,0,0,0,0,0,0,0,0,0,0,0,0,0,0
      ]
    },
    {
      "id": 7,
      "name": "objects",
      "type": "objectgroup",
      "x": 0,
      "y": 0,
      "opacity": 1,
      "visible": true,
      "draworder": "topdown",
      "objects": [
        {
          "id": 1,
          "name": "",
          "type": "door",
          "x": 224,
          "y": 32,
          "width": 16,
          "height": 16,
          "rotation": 0,
          "visible": true,
          "properties": [
            {
              "name": "toMap",
              "type": "string",
              "value": "house-up"
            },
            {
              "name": "toSpawn",
              "type": "string",
              "value": "stairs"
            }
          ]
        },
        {
          "id": 2,
          "name": "stairs",
          "type": "spawn",
          "x": 224,
          "y": 64,
          "width": 16,
          "height": 16,
          "rotation": 0,
          "visible": true,
          "properties": [
            {
              "name": "facing",
              "type": "string",
              "value": "down"
            }
          ]
        },
        {
          "id": 3,
          "name": "",
          "type": "door",
          "x": 144,
          "y": 176,
          "width": 16,
          "height": 16,
          "rotation": 0,
          "visible": true,
          "properties": [
            {
              "name": "toMap",
              "type": "string",
              "value": "town"
            },
            {
              "name": "toSpawn",
              "type": "string",
              "value": "house_door"
            }
          ]
        },
        {
          "id": 4,
          "name": "entrance",
          "type": "spawn",
          "x": 144,
          "y": 160,
          "width": 16,
          "height": 16,
          "rotation": 0,
          "visible": true,
          "properties": [
            {
              "name": "facing",
              "type": "string",
              "value": "up"
            }
          ]
        },
        {
          "id": 5,
          "name": "",
          "type": "sign",
          "x": 208,
          "y": 128,
          "width": 16,
          "height": 16,
          "rotation": 0,
          "visible": true,
          "properties": [
            {
              "name": "text",
              "type": "string",
              "value": "* A scale model of Fjord Town. Tiny you is standing in it. Best not to think about it."
            }
          ]
        },
        {
          "id": 6,
          "name": "",
          "type": "sign",
          "x": 32,
          "y": 48,
          "width": 16,
          "height": 16,
          "rotation": 0,
          "visible": true,
          "properties": [
            {
              "name": "text",
              "type": "string",
              "value": "* The stove. Spotless. It has never been used, and it knows it."
            }
          ]
        },
        {
          "id": 7,
          "name": "",
          "type": "sign",
          "x": 144,
          "y": 48,
          "width": 16,
          "height": 16,
          "rotation": 0,
          "visible": true,
          "properties": [
            {
              "name": "text",
              "type": "string",
              "value": "* The TV is paused on a speedrun. Someone is about to clip through a wall."
            }
          ]
        }
      ]
    }
  ],
  "tilesets": [
    {
      "firstgid": 1,
      "name": "world",
      "image": "../tilesets/world.png",
      "imagewidth": 2048,
      "imageheight": 2048,
      "tilewidth": 16,
      "tileheight": 16,
      "tilecount": 16384,
      "columns": 128,
      "margin": 0,
      "spacing": 0,
      "tiles": [
        {
          "id": 0,
          "properties": [
            {
              "name": "collides",
              "type": "bool",
              "value": true
            }
          ]
        },
        {
          "id": 1,
          "properties": [
            {
              "name": "clears",
              "type": "bool",
              "value": true
            }
          ]
        }
      ]
    }
  ]
}
