{
  "type": "map",
  "version": "1.10",
  "tiledversion": "1.11.0",
  "orientation": "orthogonal",
  "renderorder": "right-down",
  "infinite": false,
  "width": 20,
  "height": 13,
  "tilewidth": 16,
  "tileheight": 16,
  "nextlayerid": 9,
  "nextobjectid": 9,
  "properties": [
    {
      "name": "name",
      "type": "string",
      "value": "Post office"
    }
  ],
  "layers": [
    {
      "id": 1,
      "name": "ground",
      "type": "tilelayer",
      "x": 0,
      "y": 0,
      "width": 20,
      "height": 13,
      "opacity": 1,
      "visible": true,
      "data": [
        0,0,0,0,0,0,0,0,0,0,0,0,0,0,0,0,0,0,0,0,
        0,0,2778,2779,2779,2779,2779,2779,2779,2779,2779,2779,2779,2779,2779,2779,2779,2780,0,0,
        0,0,2781,2782,2782,2782,2782,2782,2782,2782,2782,2782,2782,2782,2782,2782,2782,2783,0,0,
        0,0,2784,2785,2785,2785,2785,2785,2785,2785,2785,2785,2785,2785,2785,2785,2785,2785,0,0,
        0,0,2786,2787,2787,2787,2787,2787,2787,2787,2787,2787,2787,2787,2787,2787,2787,2787,0,0,
        0,0,2786,2787,2787,2787,2787,2787,2787,2787,2787,2787,2787,2787,2787,2787,2787,2787,0,0,
        0,0,2786,2787,2787,2787,2787,2787,2787,2787,2787,2787,2787,2787,2787,2787,2787,2787,0,0,
        0,0,2786,2787,2787,2787,2787,2787,2787,2787,2787,2787,2787,2787,2787,2787,2787,2787,0,0,
        0,0,2786,2787,2787,2787,2787,2787,2787,2787,2787,2787,2787,2787,2787,2787,2787,2787,0,0,
        0,0,2786,2787,2787,2787,2787,2787,2787,2787,2787,2787,2787,2787,2787,2787,2787,2787,0,0,
        0,0,2786,2787,2787,2787,2787,2787,2787,2787,2787,2787,2787,2787,2787,2787,2787,2787,0,0,
        0,0,0,0,0,0,0,0,0,0,0,0,0,0,0,0,0,0,0,0,
        0,0,0,0,0,0,0,0,0,0,0,0,0,0,0,0,0,0,0,0
      ]
    },
    {
      "id": 2,
      "name": "ground2",
      "type": "tilelayer",
      "x": 0,
      "y": 0,
      "width": 20,
      "height": 13,
      "opacity": 1,
      "visible": true,
      "data": [
        0,0,0,0,0,0,0,0,0,0,0,0,0,0,0,0,0,0,0,0,
        0,0,0,0,0,0,2404,2405,0,0,0,0,0,0,0,0,0,0,0,0,
        0,0,2788,2789,0,0,2406,2407,0,0,0,0,0,0,0,0,0,0,0,0,
        0,0,0,0,0,0,0,0,0,0,0,0,0,0,0,0,0,0,0,0,
        0,0,0,0,0,0,0,0,0,0,0,0,0,0,0,0,0,0,0,0,
        0,0,0,0,0,0,0,0,0,0,0,0,0,0,0,0,0,0,0,0,
        0,0,0,0,0,0,0,0,0,0,0,0,0,0,0,0,0,0,0,0,
        0,0,0,0,0,0,0,0,0,0,0,0,0,0,0,0,0,0,0,0,
        0,0,0,0,0,0,0,0,0,0,0,0,0,0,0,0,0,0,0,0,
        0,0,0,0,0,0,0,0,0,0,0,0,0,0,0,0,0,0,0,0,
        0,0,0,0,0,0,0,0,0,0,0,0,0,0,0,0,0,0,0,0,
        0,0,0,0,0,0,0,0,0,0,0,0,0,0,0,0,0,0,0,0,
        0,0,0,0,0,0,0,0,0,0,0,0,0,0,0,0,0,0,0,0
      ]
    },
    {
      "id": 3,
      "name": "decal",
      "type": "tilelayer",
      "x": 0,
      "y": 0,
      "width": 20,
      "height": 13,
      "opacity": 1,
      "visible": true,
      "data": [
        0,0,0,0,0,0,0,0,0,0,0,0,0,0,0,0,0,0,0,0,
        0,0,0,0,0,0,0,0,0,0,0,0,0,0,0,0,0,0,0,0,
        0,0,0,0,0,0,0,0,0,0,0,0,0,0,0,0,0,0,0,0,
        0,0,0,0,0,0,0,0,0,0,0,0,0,0,0,0,0,0,0,0,
        0,0,0,0,0,0,0,0,0,0,0,0,0,0,0,0,0,0,0,0,
        0,0,0,0,0,0,0,0,0,0,0,0,0,0,0,0,0,0,0,0,
        0,0,0,0,0,0,0,0,0,0,0,0,0,0,0,0,0,0,0,0,
        0,0,0,0,0,0,0,0,0,0,0,0,0,0,0,0,0,0,0,0,
        0,0,0,0,0,0,0,0,0,0,0,0,0,0,0,0,0,0,0,0,
        0,0,0,0,0,0,0,0,0,0,0,0,0,0,0,0,0,0,0,0,
        0,0,0,0,0,0,0,0,0,0,0,0,0,0,0,0,0,0,0,0,
        0,0,0,0,0,0,0,0,0,0,0,0,0,0,0,0,0,0,0,0,
        0,0,0,0,0,0,0,0,0,0,0,0,0,0,0,0,0,0,0,0
      ]
    },
    {
      "id": 4,
      "name": "below",
      "type": "tilelayer",
      "x": 0,
      "y": 0,
      "width": 20,
      "height": 13,
      "opacity": 1,
      "visible": true,
      "data": [
        0,0,0,0,0,0,0,0,0,0,0,0,0,0,0,0,0,0,0,0,
        0,0,0,0,0,0,0,0,0,0,0,0,0,0,0,0,0,0,0,0,
        0,0,0,0,0,2790,0,0,2793,2794,2791,2792,2793,2794,2791,2792,2793,2794,0,0,
        0,0,0,0,0,2795,0,0,2798,2799,2796,2797,2798,2799,2796,2797,2798,2799,0,0,
        0,0,0,0,0,0,0,0,2791,2792,0,0,0,0,0,0,0,0,0,0,
        0,0,0,0,0,0,0,0,2796,2797,0,0,0,0,0,0,0,0,0,0,
        0,0,0,0,0,0,0,0,2793,2794,2764,2765,2766,2764,2765,2766,2791,2792,0,0,
        0,0,2800,2801,0,0,0,0,2798,2799,2772,2773,2774,2772,2773,2774,2796,2797,0,0,
        0,0,2802,2803,0,0,0,0,0,0,0,0,0,0,0,0,0,0,0,0,
        0,0,0,0,0,0,0,0,0,0,0,0,0,0,0,0,0,0,0,0,
        0,0,0,0,0,0,0,0,0,0,0,0,0,0,0,0,0,0,0,0,
        0,0,0,0,0,0,0,0,0,0,0,0,0,0,0,0,0,0,0,0,
        0,0,0,0,0,0,0,0,0,0,0,0,0,0,0,0,0,0,0,0
      ]
    },
    {
      "id": 5,
      "name": "shade",
      "type": "tilelayer",
      "x": 0,
      "y": 0,
      "width": 20,
      "height": 13,
      "opacity": 1,
      "visible": true,
      "data": [
        0,0,0,0,0,0,0,0,0,0,0,0,0,0,0,0,0,0,0,0,
        0,0,0,0,0,0,0,0,0,0,0,0,0,0,0,0,0,0,0,0,
        0,0,0,0,0,0,0,0,0,0,0,0,0,0,0,0,0,0,0,0,
        0,0,0,0,0,0,0,0,0,0,0,0,0,0,0,0,0,0,0,0,
        0,0,0,0,0,0,0,0,0,0,0,0,0,0,0,0,0,0,0,0,
        0,0,0,0,0,0,0,0,0,0,0,0,0,0,0,0,0,0,0,0,
        0,0,0,0,0,0,0,0,0,0,0,0,0,0,0,0,0,0,0,0,
        0,0,0,0,0,0,0,0,0,0,0,0,0,0,0,0,0,0,0,0,
        0,0,0,0,0,0,0,0,0,0,2499,2500,2501,2499,2500,2501,0,0,0,0,
        0,0,0,0,0,0,0,0,0,0,0,0,0,0,0,0,0,0,0,0,
        0,0,0,0,0,0,0,0,0,0,0,0,0,0,0,0,0,0,0,0,
        0,0,0,0,0,0,0,0,0,0,0,0,0,0,0,0,0,0,0,0,
        0,0,0,0,0,0,0,0,0,0,0,0,0,0,0,0,0,0,0,0
      ],
      "properties": [
        {
          "name": "blend",
          "type": "string",
          "value": "multiply"
        }
      ]
    },
    {
      "id": 6,
      "name": "above",
      "type": "tilelayer",
      "x": 0,
      "y": 0,
      "width": 20,
      "height": 13,
      "opacity": 1,
      "visible": true,
      "data": [
        0,0,0,0,0,0,0,0,0,0,0,0,0,0,0,0,0,0,0,0,
        0,2502,2503,2503,2503,2503,2503,2503,2503,2503,2503,2503,2503,2503,2503,2503,2503,2503,2504,0,
        0,2505,0,0,0,0,0,0,0,0,0,0,0,0,0,0,0,0,2508,0,
        0,2505,0,0,0,0,0,0,0,0,0,0,0,0,0,0,0,0,2508,0,
        0,2505,0,0,0,0,0,0,0,0,0,0,0,0,0,0,0,0,2508,0,
        0,2505,0,0,0,0,0,0,0,0,0,0,0,0,0,0,0,0,2508,0,
        0,2505,0,0,0,0,0,0,0,0,0,0,0,0,0,0,0,0,2508,0,
        0,2505,0,0,0,0,0,0,0,0,0,0,0,0,0,0,0,0,2508,0,
        0,2505,0,0,0,0,0,0,0,0,0,0,0,0,0,0,0,0,2508,0,
        0,2505,0,0,0,0,0,0,0,0,0,0,0,0,0,0,0,0,2508,0,
        0,2505,0,0,0,0,0,0,0,0,0,0,0,0,0,0,0,0,2508,0,
        0,2509,2510,2510,2510,2510,2510,0,2510,2510,2510,2510,2510,2510,2510,2510,2510,2510,2511,0,
        0,0,0,0,0,0,0,0,0,0,0,0,0,0,0,0,0,0,0,0
      ]
    },
    {
      "id": 7,
      "name": "collision",
      "type": "tilelayer",
      "x": 0,
      "y": 0,
      "width": 20,
      "height": 13,
      "opacity": 1,
      "visible": false,
      "data": [
        0,0,0,0,0,0,0,0,0,0,0,0,0,0,0,0,0,0,0,0,
        0,1,1,1,1,1,1,1,1,1,1,1,1,1,1,1,1,1,1,0,
        0,1,1,1,1,1,1,1,1,1,1,1,1,1,1,1,1,1,1,0,
        0,1,0,0,0,1,0,0,1,1,1,1,1,1,1,1,1,1,1,0,
        0,1,0,0,0,0,0,0,1,1,0,0,0,0,0,0,0,0,1,0,
        0,1,0,0,0,0,0,0,1,1,0,0,0,0,0,0,0,0,1,0,
        0,1,0,0,0,0,0,0,1,1,1,1,1,1,1,1,1,1,1,0,
        0,1,1,1,0,0,0,0,1,1,1,1,1,1,1,1,1,1,1,0,
        0,1,1,0,0,0,0,0,0,0,0,0,0,0,0,0,0,0,1,0,
        0,1,0,0,0,0,0,0,0,0,0,0,0,0,0,0,0,0,1,0,
        0,1,0,0,0,0,0,0,0,0,0,0,0,0,0,0,0,0,1,0,
        0,1,1,1,1,1,1,0,1,1,1,1,1,1,1,1,1,1,1,0,
        0,0,0,0,0,0,0,0,0,0,0,0,0,0,0,0,0,0,0,0
      ]
    },
    {
      "id": 8,
      "name": "objects",
      "type": "objectgroup",
      "x": 0,
      "y": 0,
      "opacity": 1,
      "visible": true,
      "draworder": "topdown",
      "objects": [
        {
          "id": 1,
          "name": "",
          "type": "light",
          "x": 80,
          "y": 48,
          "width": 16,
          "height": 16,
          "rotation": 0,
          "visible": true,
          "properties": [
            {
              "name": "shape",
              "type": "string",
              "value": "beam"
            },
            {
              "name": "w",
              "type": "string",
              "value": "2"
            },
            {
              "name": "h",
              "type": "string",
              "value": "3"
            },
            {
              "name": "color",
              "type": "string",
              "value": "fff0d2"
            },
            {
              "name": "intensity",
              "type": "string",
              "value": "0.4"
            }
          ]
        },
        {
          "id": 2,
          "name": "",
          "type": "light",
          "x": 192,
          "y": 80,
          "width": 16,
          "height": 16,
          "rotation": 0,
          "visible": true,
          "properties": [
            {
              "name": "shape",
              "type": "string",
              "value": "glow"
            },
            {
              "name": "radius",
              "type": "string",
              "value": "2"
            },
            {
              "name": "color",
              "type": "string",
              "value": "ffd08a"
            },
            {
              "name": "intensity",
              "type": "string",
              "value": "0.45"
            },
            {
              "name": "flicker",
              "type": "string",
              "value": "false"
            }
          ]
        },
        {
          "id": 3,
          "name": "",
          "type": "door",
          "x": 112,
          "y": 176,
          "width": 16,
          "height": 16,
          "rotation": 0,
          "visible": true,
          "properties": [
            {
              "name": "toMap",
              "type": "string",
              "value": "town"
            },
            {
              "name": "toSpawn",
              "type": "string",
              "value": "post_office_door"
            }
          ]
        },
        {
          "id": 4,
          "name": "entrance",
          "type": "spawn",
          "x": 112,
          "y": 160,
          "width": 16,
          "height": 16,
          "rotation": 0,
          "visible": true,
          "properties": [
            {
              "name": "facing",
              "type": "string",
              "value": "up"
            }
          ]
        },
        {
          "id": 5,
          "name": "postmaster",
          "type": "npc",
          "x": 192,
          "y": 80,
          "width": 16,
          "height": 16,
          "rotation": 0,
          "visible": true,
          "properties": [
            {
              "name": "character",
              "type": "string",
              "value": "postmaster"
            },
            {
              "name": "facing",
              "type": "string",
              "value": "down"
            },
            {
              "name": "name",
              "type": "string",
              "value": "Liv"
            },
            {
              "name": "dialogue",
              "type": "string",
              "value": "postmaster"
            }
          ]
        },
        {
          "id": 6,
          "name": "",
          "type": "sign",
          "x": 48,
          "y": 32,
          "width": 16,
          "height": 16,
          "rotation": 0,
          "visible": true,
          "properties": [
            {
              "name": "text",
              "type": "string",
              "value": "* The noticeboard: GitHub, Bluesky, LinkedIn and more. Liv can point you at any of them."
            }
          ]
        },
        {
          "id": 7,
          "name": "",
          "type": "sign",
          "x": 80,
          "y": 48,
          "width": 16,
          "height": 16,
          "rotation": 0,
          "visible": true,
          "properties": [
            {
              "name": "text",
              "type": "string",
              "value": "* The red box. For letters to Thomas. Liv has his address."
            }
          ]
        },
        {
          "id": 8,
          "name": "",
          "type": "sign",
          "x": 48,
          "y": 112,
          "width": 16,
          "height": 16,
          "rotation": 0,
          "visible": true,
          "properties": [
            {
              "name": "text",
              "type": "string",
              "value": "* A writing desk, a pen on a string, and a stack of postcards with the ferry on them."
            }
          ]
        }
      ]
    }
  ],
  "tilesets": [
    {
      "firstgid": 1,
      "name": "world",
      "image": "../tilesets/world.png",
      "imagewidth": 2048,
      "imageheight": 2048,
      "tilewidth": 16,
      "tileheight": 16,
      "tilecount": 16384,
      "columns": 128,
      "margin": 0,
      "spacing": 0,
      "tiles": [
        {
          "id": 0,
          "properties": [
            {
              "name": "collides",
              "type": "bool",
              "value": true
            }
          ]
        },
        {
          "id": 1,
          "properties": [
            {
              "name": "clears",
              "type": "bool",
              "value": true
            }
          ]
        }
      ]
    }
  ]
}
