{
  "type": "map",
  "version": "1.10",
  "tiledversion": "1.11.0",
  "orientation": "orthogonal",
  "renderorder": "right-down",
  "infinite": false,
  "width": 18,
  "height": 12,
  "tilewidth": 16,
  "tileheight": 16,
  "nextlayerid": 9,
  "nextobjectid": 12,
  "properties": [
    {
      "name": "name",
      "type": "string",
      "value": "Smithy"
    }
  ],
  "layers": [
    {
      "id": 1,
      "name": "ground",
      "type": "tilelayer",
      "x": 0,
      "y": 0,
      "width": 18,
      "height": 12,
      "opacity": 1,
      "visible": true,
      "data": [
        0,0,0,0,0,0,0,0,0,0,0,0,0,0,0,0,0,0,
        0,0,2804,2805,2805,2805,2805,2805,2805,2805,2805,2805,2805,2805,2805,2806,0,0,
        0,0,2807,2808,2808,2808,2808,2808,2808,2808,2808,2808,2808,2808,2808,2809,0,0,
        0,0,2810,2811,2811,2811,2811,2811,2811,2811,2811,2811,2811,2811,2811,2811,0,0,
        0,0,2812,2813,2813,2813,2813,2813,2813,2813,2813,2813,2813,2813,2813,2813,0,0,
        0,0,2812,2813,2813,2813,2813,2813,2813,2813,2813,2813,2813,2813,2813,2813,0,0,
        0,0,2812,2813,2813,2813,2813,2813,2813,2813,2813,2813,2813,2813,2813,2813,0,0,
        0,0,2812,2813,2813,2813,2813,2813,2813,2813,2813,2813,2813,2813,2813,2813,0,0,
        0,0,2812,2813,2813,2813,2813,2813,2813,2813,2813,2813,2813,2813,2813,2813,0,0,
        0,0,2812,2813,2813,2813,2813,2813,2813,2813,2813,2813,2813,2813,2813,2813,0,0,
        0,0,0,0,0,0,0,0,0,0,0,0,0,0,0,0,0,0,
        0,0,0,0,0,0,0,0,0,0,0,0,0,0,0,0,0,0
      ]
    },
    {
      "id": 2,
      "name": "ground2",
      "type": "tilelayer",
      "x": 0,
      "y": 0,
      "width": 18,
      "height": 12,
      "opacity": 1,
      "visible": true,
      "data": [
        0,0,0,0,0,0,0,0,0,0,0,0,0,0,0,0,0,0,
        0,0,0,0,0,0,0,0,0,0,0,0,0,0,0,0,0,0,
        0,0,0,0,0,0,0,0,0,0,0,0,0,0,0,0,0,0,
        0,0,0,0,0,0,0,0,0,0,0,0,0,0,0,0,0,0,
        0,0,0,0,0,0,0,0,0,0,0,0,0,0,0,0,0,0,
        0,0,0,0,0,0,0,0,0,0,0,0,0,0,0,0,0,0,
        0,0,0,0,0,0,0,0,0,0,0,0,0,0,0,0,0,0,
        0,0,0,0,0,0,0,0,0,0,0,0,0,0,0,0,0,0,
        0,0,0,0,0,0,0,0,0,0,0,0,0,0,0,0,0,0,
        0,0,0,0,0,0,0,0,0,0,0,0,0,0,0,0,0,0,
        0,0,0,0,0,0,0,0,0,0,0,0,0,0,0,0,0,0,
        0,0,0,0,0,0,0,0,0,0,0,0,0,0,0,0,0,0
      ]
    },
    {
      "id": 3,
      "name": "decal",
      "type": "tilelayer",
      "x": 0,
      "y": 0,
      "width": 18,
      "height": 12,
      "opacity": 1,
      "visible": true,
      "data": [
        0,0,0,0,0,0,0,0,0,0,0,0,0,0,0,0,0,0,
        0,0,0,0,0,0,0,0,0,0,0,0,0,0,0,0,0,0,
        0,0,0,0,0,0,0,0,0,0,0,0,0,0,0,0,0,0,
        0,0,0,0,0,0,0,0,0,0,0,0,0,0,0,0,0,0,
        0,0,0,0,0,0,0,0,0,0,0,0,0,0,0,0,0,0,
        0,0,0,0,0,0,0,0,0,0,0,0,0,0,0,0,0,0,
        0,0,0,0,0,0,0,0,0,0,0,0,0,0,0,0,0,0,
        0,0,0,0,0,0,0,0,0,0,0,0,0,0,0,0,0,0,
        0,0,0,0,0,0,0,0,0,0,0,0,0,0,0,0,0,0,
        0,0,0,0,0,0,0,0,0,0,0,0,0,0,0,0,0,0,
        0,0,0,0,0,0,0,0,0,0,0,0,0,0,0,0,0,0,
        0,0,0,0,0,0,0,0,0,0,0,0,0,0,0,0,0,0
      ]
    },
    {
      "id": 4,
      "name": "below",
      "type": "tilelayer",
      "x": 0,
      "y": 0,
      "width": 18,
      "height": 12,
      "opacity": 1,
      "visible": true,
      "data": [
        0,0,0,0,0,0,0,0,0,0,0,0,0,0,0,0,0,0,
        0,0,2516,2517,0,0,0,0,2814,2815,0,2766,2767,2768,2769,0,0,0,
        0,0,2521,2522,0,2816,2817,0,2818,2819,0,2775,2776,2777,2778,0,0,0,
        0,0,2529,2530,0,2820,2821,0,2822,2823,0,2784,2785,2786,2787,0,0,0,
        0,0,0,0,0,0,0,0,0,0,0,0,0,0,0,0,0,0,
        0,0,2788,2789,0,0,0,0,0,0,0,0,0,2824,2825,2826,0,0,
        0,0,2792,2793,0,0,0,0,0,0,0,0,0,2827,2828,2829,0,0,
        0,0,2796,2797,0,0,0,0,0,2798,2799,0,0,2830,2831,0,0,0,
        0,0,0,0,0,0,0,0,0,2802,2803,0,0,2832,2833,0,0,0,
        0,0,0,0,0,0,0,0,0,0,0,0,0,0,0,0,0,0,
        0,0,0,0,0,0,0,0,0,0,0,0,0,0,0,0,0,0,
        0,0,0,0,0,0,0,0,0,0,0,0,0,0,0,0,0,0
      ]
    },
    {
      "id": 5,
      "name": "shade",
      "type": "tilelayer",
      "x": 0,
      "y": 0,
      "width": 18,
      "height": 12,
      "opacity": 1,
      "visible": true,
      "data": [
        0,0,0,0,0,0,0,0,0,0,0,0,0,0,0,0,0,0,
        0,0,0,0,0,0,0,0,0,0,0,0,0,0,0,0,0,0,
        0,0,0,0,0,0,0,0,0,0,0,0,0,0,0,0,0,0,
        0,0,0,0,0,0,0,0,0,0,0,0,0,0,0,0,0,0,
        0,0,0,0,0,0,0,0,0,0,0,0,0,0,0,0,0,0,
        0,0,0,0,0,0,0,0,0,0,0,0,0,0,0,0,0,0,
        0,0,0,0,0,0,0,0,0,0,0,0,0,0,0,0,0,0,
        0,0,0,0,0,0,0,0,0,0,0,0,0,0,0,0,0,0,
        0,2420,2421,2422,0,0,0,0,0,0,0,0,0,2420,2421,2422,0,0,
        0,0,0,0,0,0,0,0,0,0,0,0,0,0,0,0,0,0,
        0,0,0,0,0,0,0,0,0,0,0,0,0,0,0,0,0,0,
        0,0,0,0,0,0,0,0,0,0,0,0,0,0,0,0,0,0
      ],
      "properties": [
        {
          "name": "blend",
          "type": "string",
          "value": "multiply"
        }
      ]
    },
    {
      "id": 6,
      "name": "above",
      "type": "tilelayer",
      "x": 0,
      "y": 0,
      "width": 18,
      "height": 12,
      "opacity": 1,
      "visible": true,
      "data": [
        0,0,0,0,0,0,0,0,0,0,0,0,0,0,0,0,0,0,
        0,2423,2424,2424,2424,2424,2424,2424,2424,2424,2424,2424,2424,2424,2424,2424,2425,0,
        0,2426,0,0,0,0,0,0,0,0,0,0,0,0,0,0,2429,0,
        0,2426,0,0,0,0,0,0,0,0,0,0,0,0,0,0,2429,0,
        0,2426,0,0,0,0,0,0,0,0,0,0,0,0,0,0,2429,0,
        0,2426,0,0,0,0,0,0,0,0,0,0,0,0,0,0,2429,0,
        0,2426,0,0,0,0,0,0,0,0,0,0,0,0,0,0,2429,0,
        0,2426,0,0,0,0,0,0,0,0,0,0,0,0,0,0,2429,0,
        0,2426,0,0,0,0,0,0,0,0,0,0,0,0,0,0,2429,0,
        0,2426,0,0,0,0,0,0,0,0,0,0,0,0,0,0,2429,0,
        0,2430,2431,2431,2431,2431,2431,0,2431,2431,2431,2431,2431,2431,2431,2431,2432,0,
        0,0,0,0,0,0,0,0,0,0,0,0,0,0,0,0,0,0
      ]
    },
    {
      "id": 7,
      "name": "collision",
      "type": "tilelayer",
      "x": 0,
      "y": 0,
      "width": 18,
      "height": 12,
      "opacity": 1,
      "visible": false,
      "data": [
        0,0,0,0,0,0,0,0,0,0,0,0,0,0,0,0,0,0,
        0,1,1,1,1,1,1,1,1,1,1,1,1,1,1,1,1,0,
        0,1,1,1,1,1,1,1,1,1,1,1,1,1,1,1,1,0,
        0,1,1,1,0,1,1,0,1,1,0,1,1,1,1,0,1,0,
        0,1,0,0,0,0,0,0,0,0,0,0,0,0,0,0,1,0,
        0,1,1,1,0,0,0,0,0,0,0,0,0,1,1,1,1,0,
        0,1,1,1,0,0,0,0,0,0,0,0,0,1,1,1,1,0,
        0,1,1,1,0,0,0,0,0,1,1,0,0,1,1,0,1,0,
        0,1,0,0,0,0,0,0,0,1,1,0,0,1,1,0,1,0,
        0,1,0,0,0,0,0,0,0,0,0,0,0,0,0,0,1,0,
        0,1,1,1,1,1,1,0,1,1,1,1,1,1,1,1,1,0,
        0,0,0,0,0,0,0,0,0,0,0,0,0,0,0,0,0,0
      ]
    },
    {
      "id": 8,
      "name": "objects",
      "type": "objectgroup",
      "x": 0,
      "y": 0,
      "opacity": 1,
      "visible": true,
      "draworder": "topdown",
      "objects": [
        {
          "id": 1,
          "name": "",
          "type": "light",
          "x": 128,
          "y": 48,
          "width": 16,
          "height": 16,
          "rotation": 0,
          "visible": true,
          "properties": [
            {
              "name": "shape",
              "type": "string",
              "value": "glow"
            },
            {
              "name": "radius",
              "type": "string",
              "value": "2.5"
            },
            {
              "name": "color",
              "type": "string",
              "value": "ffae62"
            },
            {
              "name": "intensity",
              "type": "string",
              "value": "0.5"
            },
            {
              "name": "flicker",
              "type": "string",
              "value": "true"
            }
          ]
        },
        {
          "id": 2,
          "name": "",
          "type": "light",
          "x": 144,
          "y": 48,
          "width": 16,
          "height": 16,
          "rotation": 0,
          "visible": true,
          "properties": [
            {
              "name": "shape",
              "type": "string",
              "value": "glow"
            },
            {
              "name": "radius",
              "type": "string",
              "value": "2.5"
            },
            {
              "name": "color",
              "type": "string",
              "value": "ffae62"
            },
            {
              "name": "intensity",
              "type": "string",
              "value": "0.5"
            },
            {
              "name": "flicker",
              "type": "string",
              "value": "true"
            }
          ]
        },
        {
          "id": 3,
          "name": "",
          "type": "door",
          "x": 112,
          "y": 160,
          "width": 16,
          "height": 16,
          "rotation": 0,
          "visible": true,
          "properties": [
            {
              "name": "toMap",
              "type": "string",
              "value": "town"
            },
            {
              "name": "toSpawn",
              "type": "string",
              "value": "smithy_door"
            }
          ]
        },
        {
          "id": 4,
          "name": "entrance",
          "type": "spawn",
          "x": 112,
          "y": 144,
          "width": 16,
          "height": 16,
          "rotation": 0,
          "visible": true,
          "properties": [
            {
              "name": "facing",
              "type": "string",
              "value": "up"
            }
          ]
        },
        {
          "id": 5,
          "name": "smith",
          "type": "npc",
          "x": 144,
          "y": 80,
          "width": 16,
          "height": 16,
          "rotation": 0,
          "visible": true,
          "properties": [
            {
              "name": "character",
              "type": "string",
              "value": "smith"
            },
            {
              "name": "facing",
              "type": "string",
              "value": "down"
            },
            {
              "name": "name",
              "type": "string",
              "value": "Tor"
            },
            {
              "name": "dialogue",
              "type": "string",
              "value": "smith"
            }
          ]
        },
        {
          "id": 6,
          "name": "",
          "type": "sign",
          "x": 48,
          "y": 48,
          "width": 16,
          "height": 16,
          "rotation": 0,
          "visible": true,
          "properties": [
            {
              "name": "text",
              "type": "string",
              "value": "* The languages rack. Ask Tor what's on it."
            }
          ]
        },
        {
          "id": 7,
          "name": "",
          "type": "sign",
          "x": 80,
          "y": 48,
          "width": 16,
          "height": 16,
          "rotation": 0,
          "visible": true,
          "properties": [
            {
              "name": "text",
              "type": "string",
              "value": "* The frameworks chest. Every tool in it has a favourite job."
            }
          ]
        },
        {
          "id": 8,
          "name": "",
          "type": "sign",
          "x": 192,
          "y": 48,
          "width": 16,
          "height": 16,
          "rotation": 0,
          "visible": true,
          "properties": [
            {
              "name": "text",
              "type": "string",
              "value": "* The cloud and DevOps rack. It hums slightly."
            }
          ]
        },
        {
          "id": 9,
          "name": "",
          "type": "sign",
          "x": 224,
          "y": 48,
          "width": 16,
          "height": 16,
          "rotation": 0,
          "visible": true,
          "properties": [
            {
              "name": "text",
              "type": "string",
              "value": "* A chest of everyday tools, worn smooth from use."
            }
          ]
        },
        {
          "id": 10,
          "name": "",
          "type": "sign",
          "x": 208,
          "y": 96,
          "width": 16,
          "height": 16,
          "rotation": 0,
          "visible": true,
          "properties": [
            {
              "name": "text",
              "type": "string",
              "value": "* The heavy rack: video and streaming gear. It weighs more than the ferry."
            }
          ]
        },
        {
          "id": 11,
          "name": "",
          "type": "sign",
          "x": 160,
          "y": 128,
          "width": 16,
          "height": 16,
          "rotation": 0,
          "visible": true,
          "properties": [
            {
              "name": "text",
              "type": "string",
              "value": "* The till. Tor takes payments. Thomas built a few ways to do that."
            }
          ]
        }
      ]
    }
  ],
  "tilesets": [
    {
      "firstgid": 1,
      "name": "world",
      "image": "../tilesets/world.png",
      "imagewidth": 2048,
      "imageheight": 2048,
      "tilewidth": 16,
      "tileheight": 16,
      "tilecount": 16384,
      "columns": 128,
      "margin": 0,
      "spacing": 0,
      "tiles": [
        {
          "id": 0,
          "properties": [
            {
              "name": "collides",
              "type": "bool",
              "value": true
            }
          ]
        },
        {
          "id": 1,
          "properties": [
            {
              "name": "clears",
              "type": "bool",
              "value": true
            }
          ]
        }
      ]
    }
  ]
}
