{
  "type": "map",
  "version": "1.10",
  "tiledversion": "1.11.0",
  "orientation": "orthogonal",
  "renderorder": "right-down",
  "infinite": false,
  "width": 24,
  "height": 14,
  "tilewidth": 16,
  "tileheight": 16,
  "nextlayerid": 9,
  "nextobjectid": 8,
  "properties": [
    {
      "name": "name",
      "type": "string",
      "value": "Town hall"
    }
  ],
  "layers": [
    {
      "id": 1,
      "name": "ground",
      "type": "tilelayer",
      "x": 0,
      "y": 0,
      "width": 24,
      "height": 14,
      "opacity": 1,
      "visible": true,
      "data": [
        0,0,0,0,0,0,0,0,0,0,0,0,0,0,0,0,0,0,0,0,0,0,0,0,
        0,0,2946,2947,2947,2947,2947,2947,2947,2947,2947,2947,2947,2947,2947,2947,2947,2947,2947,2947,2947,2948,0,0,
        0,0,2949,2950,2950,2950,2950,2950,2950,2950,2950,2950,2950,2950,2950,2950,2950,2950,2950,2950,2950,2951,0,0,
        0,0,2952,2953,2953,2953,2953,2953,2953,2953,2953,2953,2953,2953,2953,2953,2953,2953,2953,2953,2953,2953,0,0,
        0,0,2954,2955,2955,2955,2955,2955,2955,2955,2955,2955,2955,2955,2955,2955,2955,2955,2955,2955,2955,2955,0,0,
        0,0,2954,2955,2955,2955,2955,2955,2955,2955,2955,2955,2955,2955,2955,2955,2955,2955,2955,2955,2955,2955,0,0,
        0,0,2954,2955,2955,2955,2955,2955,2955,2955,2955,2955,2955,2955,2955,2955,2955,2955,2955,2955,2955,2955,0,0,
        0,0,2954,2955,2955,2955,2955,2955,2955,2955,2955,2955,2955,2955,2955,2955,2955,2955,2955,2955,2955,2955,0,0,
        0,0,2954,2955,2955,2955,2955,2955,2955,2955,2955,2955,2955,2955,2955,2955,2955,2955,2955,2955,2955,2955,0,0,
        0,0,2954,2955,2955,2955,2955,2955,2955,2955,2955,2955,2955,2955,2955,2955,2955,2955,2955,2955,2955,2955,0,0,
        0,0,2954,2955,2955,2955,2955,2955,2955,2955,2955,2955,2955,2955,2955,2955,2955,2955,2955,2955,2955,2955,0,0,
        0,0,2954,2955,2955,2955,2955,2955,2955,2955,2955,2955,2955,2955,2955,2955,2955,2955,2955,2955,2955,2955,0,0,
        0,0,0,0,0,0,0,0,0,0,0,0,0,0,0,0,0,0,0,0,0,0,0,0,
        0,0,0,0,0,0,0,0,0,0,0,0,0,0,0,0,0,0,0,0,0,0,0,0
      ]
    },
    {
      "id": 2,
      "name": "ground2",
      "type": "tilelayer",
      "x": 0,
      "y": 0,
      "width": 24,
      "height": 14,
      "opacity": 1,
      "visible": true,
      "data": [
        0,0,0,0,0,0,0,0,0,0,0,0,0,0,0,0,0,0,0,0,0,0,0,0,
        0,0,0,2956,2957,0,2958,2959,0,0,0,0,0,0,0,0,2960,2961,0,2962,0,0,0,0,
        0,0,0,2963,2964,0,2965,2966,0,2967,2968,2969,2970,2971,0,0,2972,2973,0,2974,0,0,0,0,
        0,0,0,2975,2976,0,0,0,0,2977,2978,2979,2980,2981,0,0,0,0,0,0,0,0,0,0,
        0,0,0,0,0,0,0,0,0,2982,2983,2984,2985,2986,0,0,0,0,0,0,0,0,0,0,
        0,0,0,0,0,0,0,0,0,0,0,2987,2988,0,0,0,0,0,0,0,0,0,0,0,
        0,0,0,0,0,0,0,0,0,0,0,2990,2991,0,0,0,0,0,0,0,0,0,0,0,
        0,0,0,0,0,0,0,0,0,0,0,2987,2988,0,0,0,0,0,0,0,0,0,0,0,
        0,0,0,0,0,0,0,0,0,0,0,2990,2991,0,0,0,0,0,0,0,0,0,0,0,
        0,0,0,0,0,0,0,0,0,0,0,2987,2988,0,0,0,0,0,0,0,0,0,0,0,
        0,0,0,0,0,0,0,0,0,0,0,2990,2991,0,0,0,0,0,0,0,0,0,0,0,
        0,0,0,0,0,0,0,0,0,0,0,0,0,0,0,0,0,0,0,0,0,0,0,0,
        0,0,0,0,0,0,0,0,0,0,0,0,0,0,0,0,0,0,0,0,0,0,0,0,
        0,0,0,0,0,0,0,0,0,0,0,0,0,0,0,0,0,0,0,0,0,0,0,0
      ]
    },
    {
      "id": 3,
      "name": "decal",
      "type": "tilelayer",
      "x": 0,
      "y": 0,
      "width": 24,
      "height": 14,
      "opacity": 1,
      "visible": true,
      "data": [
        0,0,0,0,0,0,0,0,0,0,0,0,0,0,0,0,0,0,0,0,0,0,0,0,
        0,0,0,0,0,0,0,0,0,0,0,0,0,0,0,0,0,0,0,0,0,0,0,0,
        0,0,0,0,0,0,0,0,0,0,0,0,0,0,0,0,0,0,0,0,0,0,0,0,
        0,0,0,0,0,0,0,0,0,0,0,0,0,0,0,0,0,0,0,0,0,0,0,0,
        0,0,0,0,0,0,0,0,0,0,0,0,0,0,0,0,0,0,0,0,0,0,0,0,
        0,0,0,0,0,0,0,0,0,0,0,0,0,0,0,0,0,0,0,0,0,0,0,0,
        0,0,0,0,0,0,0,0,0,0,0,0,0,0,0,0,0,0,0,0,0,0,0,0,
        0,0,0,0,0,0,0,0,0,0,0,0,0,0,0,0,0,0,0,0,0,0,0,0,
        0,0,0,0,0,0,0,0,0,0,0,0,0,0,0,0,0,0,0,0,0,0,0,0,
        0,0,0,0,0,0,0,0,0,0,0,0,0,0,0,0,0,0,0,0,0,0,0,0,
        0,0,0,0,0,0,0,0,0,0,0,0,0,0,0,0,0,0,0,0,0,0,0,0,
        0,0,0,0,0,0,0,0,0,0,0,0,0,0,0,0,0,0,0,0,0,0,0,0,
        0,0,0,0,0,0,0,0,0,0,0,0,0,0,0,0,0,0,0,0,0,0,0,0,
        0,0,0,0,0,0,0,0,0,0,0,0,0,0,0,0,0,0,0,0,0,0,0,0
      ]
    },
    {
      "id": 4,
      "name": "below",
      "type": "tilelayer",
      "x": 0,
      "y": 0,
      "width": 24,
      "height": 14,
      "opacity": 1,
      "visible": true,
      "data": [
        0,0,0,0,0,0,0,0,0,0,0,0,0,0,0,0,0,0,0,0,0,0,0,0,
        0,0,0,0,0,0,0,0,2993,0,0,0,0,0,0,2993,0,0,0,0,0,0,0,0,
        0,0,0,0,0,0,0,0,2994,0,0,2995,0,0,0,2994,0,0,0,0,0,0,0,0,
        0,0,0,0,0,0,0,0,2996,0,0,2997,0,0,0,2996,0,0,0,0,0,0,0,0,
        0,0,0,0,1073744822,1073744823,0,1073744822,1073744823,0,0,0,0,0,1073744822,1073744823,0,1073744822,1073744823,0,0,0,0,0,
        0,0,0,0,0,0,0,0,0,0,0,0,0,0,0,0,0,0,0,0,0,0,0,0,
        0,0,0,0,1073744822,1073744823,0,1073744822,1073744823,0,0,0,0,0,1073744822,1073744823,0,1073744822,1073744823,0,0,0,0,0,
        0,0,0,0,0,0,0,0,0,0,0,0,0,0,0,0,0,0,0,0,0,0,0,0,
        0,0,3000,3001,1073744822,1073744823,0,1073744822,1073744823,0,0,0,0,0,1073744822,1073744823,0,1073744822,1073744823,0,3000,3001,0,0,
        0,0,3002,3003,0,0,0,0,0,0,0,0,0,0,0,0,0,0,0,0,3002,3003,0,0,
        0,0,3004,3005,0,0,0,0,0,0,0,0,0,0,0,0,0,0,0,0,3004,3005,0,0,
        0,0,0,0,0,0,0,0,0,0,0,0,0,0,0,0,0,0,0,0,0,0,0,0,
        0,0,0,0,0,0,0,0,0,0,0,0,0,0,0,0,0,0,0,0,0,0,0,0,
        0,0,0,0,0,0,0,0,0,0,0,0,0,0,0,0,0,0,0,0,0,0,0,0
      ]
    },
    {
      "id": 5,
      "name": "shade",
      "type": "tilelayer",
      "x": 0,
      "y": 0,
      "width": 24,
      "height": 14,
      "opacity": 1,
      "visible": true,
      "data": [
        0,0,0,0,0,0,0,0,0,0,0,0,0,0,0,0,0,0,0,0,0,0,0,0,
        0,0,0,0,0,0,0,0,0,0,0,0,0,0,0,0,0,0,0,0,0,0,0,0,
        0,0,0,0,0,0,0,0,0,0,0,0,0,0,0,0,0,0,0,0,0,0,0,0,
        0,0,0,0,0,0,0,0,0,0,0,0,0,0,0,0,0,0,0,0,0,0,0,0,
        0,0,0,0,0,0,0,0,0,0,0,0,0,0,0,0,0,0,0,0,0,0,0,0,
        0,0,0,0,0,0,0,0,0,0,2420,2421,2422,0,0,0,0,0,0,0,0,0,0,0,
        0,0,0,0,0,0,0,0,0,0,0,0,0,0,0,0,0,0,0,0,0,0,0,0,
        0,0,0,0,0,0,0,0,0,0,0,0,0,0,0,0,0,0,0,0,0,0,0,0,
        0,0,0,0,0,0,0,0,0,0,0,0,0,0,0,0,0,0,0,0,0,0,0,0,
        0,0,0,0,0,0,0,0,0,0,0,0,0,0,0,0,0,0,0,0,0,0,0,0,
        0,0,0,0,0,0,0,0,0,0,0,0,0,0,0,0,0,0,0,0,0,0,0,0,
        0,0,0,0,0,0,0,0,0,0,0,0,0,0,0,0,0,0,0,0,0,0,0,0,
        0,0,0,0,0,0,0,0,0,0,0,0,0,0,0,0,0,0,0,0,0,0,0,0,
        0,0,0,0,0,0,0,0,0,0,0,0,0,0,0,0,0,0,0,0,0,0,0,0
      ],
      "properties": [
        {
          "name": "blend",
          "type": "string",
          "value": "multiply"
        }
      ]
    },
    {
      "id": 6,
      "name": "above",
      "type": "tilelayer",
      "x": 0,
      "y": 0,
      "width": 24,
      "height": 14,
      "opacity": 1,
      "visible": true,
      "data": [
        0,0,0,0,0,0,0,0,0,0,0,0,0,0,0,0,0,0,0,0,0,0,0,0,
        0,2423,2424,2424,2424,2424,2424,2424,2424,2424,2424,2424,2424,2424,2424,2424,2424,2424,2424,2424,2424,2424,2425,0,
        0,2426,0,0,0,0,0,0,0,0,0,0,0,0,0,0,0,0,0,0,0,0,2429,0,
        0,2426,0,0,0,0,0,0,0,0,0,0,0,0,0,0,0,0,0,0,0,0,2429,0,
        0,2426,0,0,0,0,0,0,0,0,0,0,0,0,0,0,0,0,0,0,0,0,2429,0,
        0,2426,0,0,0,0,0,0,0,0,0,0,0,0,0,0,0,0,0,0,0,0,2429,0,
        0,2426,0,0,0,0,0,0,0,0,0,0,0,0,0,0,0,0,0,0,0,0,2429,0,
        0,2426,0,0,0,0,0,0,0,0,0,0,0,0,0,0,0,0,0,0,0,0,2429,0,
        0,2426,0,0,0,0,0,0,0,0,0,0,0,0,0,0,0,0,0,0,0,0,2429,0,
        0,2426,0,0,0,0,0,0,0,0,0,0,0,0,0,0,0,0,0,0,0,0,2429,0,
        0,2426,0,0,0,0,0,0,0,0,0,0,0,0,0,0,0,0,0,0,0,0,2429,0,
        0,2426,0,0,0,0,0,0,0,0,0,0,0,0,0,0,0,0,0,0,0,0,2429,0,
        0,2430,2431,2431,2431,2431,2431,2431,2431,2431,2431,2431,0,2431,2431,2431,2431,2431,2431,2431,2431,2431,2432,0,
        0,0,0,0,0,0,0,0,0,0,0,0,0,0,0,0,0,0,0,0,0,0,0,0
      ]
    },
    {
      "id": 7,
      "name": "collision",
      "type": "tilelayer",
      "x": 0,
      "y": 0,
      "width": 24,
      "height": 14,
      "opacity": 1,
      "visible": false,
      "data": [
        0,0,0,0,0,0,0,0,0,0,0,0,0,0,0,0,0,0,0,0,0,0,0,0,
        0,1,1,1,1,1,1,1,1,1,1,1,1,1,1,1,1,1,1,1,1,1,1,0,
        0,1,1,1,1,1,1,1,1,1,1,1,1,1,1,1,1,1,1,1,1,1,1,0,
        0,1,0,0,0,0,0,0,1,0,0,1,0,0,0,1,0,0,0,0,0,0,1,0,
        0,1,0,0,1,1,0,1,1,0,0,0,0,0,1,1,0,1,1,0,0,0,1,0,
        0,1,0,0,0,0,0,0,0,0,0,0,0,0,0,0,0,0,0,0,0,0,1,0,
        0,1,0,0,1,1,0,1,1,0,0,0,0,0,1,1,0,1,1,0,0,0,1,0,
        0,1,0,0,0,0,0,0,0,0,0,0,0,0,0,0,0,0,0,0,0,0,1,0,
        0,1,1,1,1,1,0,1,1,0,0,0,0,0,1,1,0,1,1,0,1,1,1,0,
        0,1,1,1,0,0,0,0,0,0,0,0,0,0,0,0,0,0,0,0,1,1,1,0,
        0,1,1,1,0,0,0,0,0,0,0,0,0,0,0,0,0,0,0,0,1,1,1,0,
        0,1,0,0,0,0,0,0,0,0,0,0,0,0,0,0,0,0,0,0,0,0,1,0,
        0,1,1,1,1,1,1,1,1,1,1,1,0,1,1,1,1,1,1,1,1,1,1,0,
        0,0,0,0,0,0,0,0,0,0,0,0,0,0,0,0,0,0,0,0,0,0,0,0
      ]
    },
    {
      "id": 8,
      "name": "objects",
      "type": "objectgroup",
      "x": 0,
      "y": 0,
      "opacity": 1,
      "visible": true,
      "draworder": "topdown",
      "objects": [
        {
          "id": 1,
          "name": "",
          "type": "light",
          "x": 176,
          "y": 48,
          "width": 16,
          "height": 16,
          "rotation": 0,
          "visible": true,
          "properties": [
            {
              "name": "shape",
              "type": "string",
              "value": "glow"
            },
            {
              "name": "radius",
              "type": "string",
              "value": "2"
            },
            {
              "name": "color",
              "type": "string",
              "value": "ffd08a"
            },
            {
              "name": "intensity",
              "type": "string",
              "value": "0.45"
            },
            {
              "name": "flicker",
              "type": "string",
              "value": "false"
            }
          ]
        },
        {
          "id": 2,
          "name": "",
          "type": "door",
          "x": 192,
          "y": 192,
          "width": 16,
          "height": 16,
          "rotation": 0,
          "visible": true,
          "properties": [
            {
              "name": "toMap",
              "type": "string",
              "value": "town"
            },
            {
              "name": "toSpawn",
              "type": "string",
              "value": "town_hall_door"
            }
          ]
        },
        {
          "id": 3,
          "name": "entrance",
          "type": "spawn",
          "x": 192,
          "y": 176,
          "width": 16,
          "height": 16,
          "rotation": 0,
          "visible": true,
          "properties": [
            {
              "name": "facing",
              "type": "string",
              "value": "up"
            }
          ]
        },
        {
          "id": 4,
          "name": "sysadmin",
          "type": "npc",
          "x": 288,
          "y": 48,
          "width": 16,
          "height": 16,
          "rotation": 0,
          "visible": true,
          "properties": [
            {
              "name": "character",
              "type": "string",
              "value": "sysadmin"
            },
            {
              "name": "facing",
              "type": "string",
              "value": "down"
            },
            {
              "name": "name",
              "type": "string",
              "value": "Bjørn"
            },
            {
              "name": "dialogue",
              "type": "string",
              "value": "sysadmin"
            }
          ]
        },
        {
          "id": 5,
          "name": "",
          "type": "sign",
          "x": 304,
          "y": 32,
          "width": 16,
          "height": 16,
          "rotation": 0,
          "visible": true,
          "properties": [
            {
              "name": "text",
              "type": "string",
              "value": "* BASEMENT. SERVERS. AUTHORISED PERSONNEL ONLY. The door is humming, and cold to the touch."
            }
          ]
        },
        {
          "id": 6,
          "name": "",
          "type": "sign",
          "x": 64,
          "y": 32,
          "width": 16,
          "height": 16,
          "rotation": 0,
          "visible": true,
          "properties": [
            {
              "name": "text",
              "type": "string",
              "value": "* A past mayor. She is smiling. Nobody on the council knows why."
            }
          ]
        },
        {
          "id": 7,
          "name": "",
          "type": "sign",
          "x": 176,
          "y": 48,
          "width": 16,
          "height": 16,
          "rotation": 0,
          "visible": true,
          "properties": [
            {
              "name": "text",
              "type": "string",
              "value": "* The lectern. A note taped to it says: KEEP IT SHORT."
            }
          ]
        }
      ]
    }
  ],
  "tilesets": [
    {
      "firstgid": 1,
      "name": "world",
      "image": "../tilesets/world.png",
      "imagewidth": 2048,
      "imageheight": 2048,
      "tilewidth": 16,
      "tileheight": 16,
      "tilecount": 16384,
      "columns": 128,
      "margin": 0,
      "spacing": 0,
      "tiles": [
        {
          "id": 0,
          "properties": [
            {
              "name": "collides",
              "type": "bool",
              "value": true
            }
          ]
        },
        {
          "id": 1,
          "properties": [
            {
              "name": "clears",
              "type": "bool",
              "value": true
            }
          ]
        }
      ]
    }
  ]
}
