{
  "type": "map",
  "version": "1.10",
  "tiledversion": "1.11.0",
  "orientation": "orthogonal",
  "renderorder": "right-down",
  "infinite": false,
  "width": 40,
  "height": 30,
  "tilewidth": 16,
  "tileheight": 16,
  "nextlayerid": 10,
  "nextobjectid": 9,
  "properties": [
    {
      "name": "name",
      "type": "string",
      "value": "Mountain trail"
    },
    {
      "name": "outdoor",
      "type": "string",
      "value": "true"
    },
    {
      "name": "season:spring",
      "type": "string",
      "value": "3:3119,30:3146,31:3147,32:3148,33:3149,34:3150,35:3151,36:3152,37:3153,38:3154,39:3155,41:3157,42:3158,49:3165,50:3166,51:3167,52:3168,53:3168,54:3169,59:3166,60:3166,61:3174,62:3174,63:3167,64:3175,65:3176,70:3169,81:3181,82:3182,83:3183,84:3184,85:3185,86:3186,644:3206,645:3207,646:3208,647:3209,1904:3245,1905:3246,1906:3247,1907:3248,1951:3260,1952:3261,1953:3262,1954:3263,1955:3264,1956:3265,1957:3266,1958:3267,1959:3268,1960:3269,1961:3270,1962:3271,1963:3272,1964:3273,1965:3274,1966:3275,2152:3287,2153:3288,2154:3289,2155:3290,2164:3295,2165:3296,2166:3297,2167:3298,2172:3303,2173:3304,2174:3305,2175:3306,6328:6409,6704:6734,6705:6735,6706:6736,6707:6737"
    },
    {
      "name": "season:autumn",
      "type": "string",
      "value": "3:3314,30:3341,31:3342,32:3343,33:3344,34:3345,35:3346,36:3347,37:3348,38:3349,39:3350,41:3352,42:3353,49:3360,50:3361,51:3362,52:3363,53:3364,54:3365,59:3370,60:3371,61:3372,62:3373,63:3374,64:3375,65:3376,70:3381,81:5858,82:5859,83:3384,84:3385,85:5860,86:5861,644:3407,645:3408,646:3409,647:3410,1904:3446,1905:3447,1906:3448,1907:3449,1951:5862,1952:5863,1953:3463,1954:3464,1955:5864,1956:5865,1957:5866,1958:5867,1959:3469,1960:3470,1961:5868,1962:5869,1963:3473,1964:3474,1965:5870,1966:5871,2152:3488,2153:3489,2154:3490,2155:3491,2164:3496,2165:3497,2166:3498,2167:3499,2172:3504,2173:3505,2174:3506,2175:3507,6328:6490,6704:6738,6705:6739,6706:6740,6707:6741"
    },
    {
      "name": "season:winter",
      "type": "string",
      "value": "3:3515,30:3542,31:3543,32:3544,33:3545,34:3546,35:3547,36:3548,37:3549,38:3550,39:3551,41:3553,42:3554,49:0,50:3561,51:0,52:0,53:3562,54:3563,59:0,60:3568,61:3569,62:0,63:3570,64:0,65:0,70:0,81:3575,82:3576,83:3577,84:3578,85:3579,86:3580,644:4138,645:4139,646:4140,647:4141,1904:5396,1905:5397,1906:5398,1907:5399,1951:5411,1952:5412,1953:5413,1954:5414,1955:5415,1956:5416,1957:5417,1958:5418,1959:5419,1960:5420,1961:5421,1962:5422,1963:5423,1964:5424,1965:5425,1966:5426,2152:5612,2153:5613,2154:5614,2155:5615,2164:5624,2165:5625,2166:5626,2167:5627,2172:5632,2173:5633,2174:5634,2175:5635,6328:6571,6600:6742,6601:6743,6602:6744,6603:6745,6604:6746,6605:6747,6606:6748,6607:6749,6608:6750,6609:6751,6610:6752,6611:6753,6612:6754,6613:6755,6614:6756,6615:6757,6616:6758,6617:6759,6618:6760,6619:6761,6620:6762,6621:6763,6622:6764,6623:6765,6624:6766,6625:6767,6626:6768,6627:6769,6628:6770,6629:6771,6630:6772,6631:6773,6632:6774,6633:6775,6634:6776,6635:6777,6636:6778,6637:6779,6638:6780,6639:6781,6640:6782,6641:6783,6642:6784,6643:6785,6644:6786,6645:6787,6646:6788,6647:6789,6648:6790,6649:6791,6650:6792,6651:6793,6652:6794,6653:6795,6654:6796,6655:6797,6656:6798,6657:6799,6658:6800,6659:6801,6660:6802,6661:6803,6662:6804,6663:6805,6664:6806,6665:6807,6666:6808,6667:6809,6668:6810,6669:6811,6670:6812,6671:6813,6672:6814,6673:6815,6674:6816,6675:6817,6676:6818,6677:6819,6678:6820,6679:6821,6680:6822,6681:6823,6682:6824,6683:6825,6684:6826,6685:6827,6686:6828,6687:6829,6688:6830,6689:6831,6690:6832,6691:6833,6692:6834,6693:6835,6694:6836,6695:6837,6696:6838,6697:6839,6698:6840,6699:6841,6700:6842,6701:6843,6702:6844,6703:6845,6704:6846,6705:6847,6706:6848,6707:6849,6708:6850,6709:6851,6710:6852,6711:6853,6712:6854,6713:6855,6714:6856,6715:6857,6716:6858,6717:6859,6718:6860,6719:6861,6720:6862,6721:6863,6722:6864,6723:6865,6724:6866,6725:6867,6726:6868,6727:6869,6728:6870,6729:6871,6730:6872,6731:6873,6732:6874,6733:6875"
    }
  ],
  "layers": [
    {
      "id": 1,
      "name": "ground",
      "type": "tilelayer",
      "x": 0,
      "y": 0,
      "width": 40,
      "height": 30,
      "opacity": 1,
      "visible": true,
      "data": [
        3,3,3,3,3,3,3,3,3,3,3,3,3,3,3,3,3,3,3,3,3,3,3,3,3,3,3,3,3,3,3,3,3,3,3,3,3,3,3,3,
        3,3,3,3,3,3,3,3,3,3,3,3,3,3,3,3,3,3,3,3,3,3,3,3,3,3,3,3,3,3,3,3,3,3,3,3,3,3,3,3,
        3,3,3,3,3,3,3,3,3,3,3,3,3,3,3,3,3,3,3,3,3,3,3,3,3,3,3,3,3,3,3,3,3,3,3,3,3,3,3,3,
        3,3,3,3,3,3,3,3,3,3,3,3,3,3,3,3,3,3,3,3,3,3,3,3,3,3,3,3,3,3,3,3,3,3,3,3,3,3,3,3,
        3,3,3,3,3,3,3,3,3,3,3,3,3,3,3,3,3,3,3,3,3,3,3,3,3,3,3,3,3,3,3,3,3,3,3,3,3,3,3,3,
        3,3,3,3,3,3,3,3,3,3,3,3,3,3,3,3,3,3,3,3,3,3,3,3,3,3,3,3,3,3,3,3,3,3,3,3,3,3,3,3,
        3,3,3,3,3,3,3,3,3,3,3,3,3,3,3,3,3,3,3,3,3,3,3,3,3,3,3,3,3,3,3,3,3,3,3,3,3,3,3,3,
        3,3,3,3,3,3,3,3,3,3,3,3,3,3,3,3,3,3,3,3,3,3,3,3,3,3,3,3,3,3,3,3,3,3,3,3,3,3,3,3,
        3,3,3,3,3,3,3,3,3,3,3,3,3,3,3,3,3,3,3,3,3,3,3,3,3,3,3,3,3,3,3,3,3,3,3,3,3,3,3,3,
        3,3,3,3,3,3,3,3,3,3,3,3,3,3,3,3,3,3,3,3,3,3,3,3,3,3,3,3,3,3,3,3,3,3,3,3,3,3,3,3,
        3,3,3,3,3,3,3,3,3,3,3,3,3,3,3,3,3,3,3,3,3,3,3,3,3,3,3,3,3,3,3,3,3,3,3,3,3,3,3,3,
        3,3,3,3,3,3,3,3,3,3,3,3,3,3,3,3,3,3,3,3,3,3,3,3,3,3,3,3,3,3,3,3,3,3,3,3,3,3,3,3,
        3,3,3,3,3,3,3,3,3,3,3,3,3,3,3,3,3,3,3,3,3,3,3,3,3,3,3,3,3,3,3,3,3,3,3,3,3,3,3,3,
        3,3,3,3,3,3,3,3,3,3,3,3,3,3,3,3,3,3,3,3,3,3,3,3,3,3,3,3,3,3,3,3,3,3,3,3,3,3,3,3,
        3,3,3,3,3,3,3,3,3,3,3,3,3,3,3,3,3,3,3,3,3,3,3,3,3,3,3,3,3,3,3,3,3,3,3,3,3,3,3,3,
        3,3,3,3,3,3,3,3,3,3,3,3,3,3,3,3,3,3,3,3,3,3,3,3,3,3,3,3,3,3,3,3,3,3,3,3,3,3,3,3,
        3,3,3,3,3,3,3,3,3,3,3,3,3,3,3,3,3,3,3,3,3,3,3,3,3,3,3,3,3,3,3,3,3,3,3,3,3,3,3,3,
        3,3,3,3,3,3,3,3,3,3,3,3,3,3,3,3,3,3,3,3,3,3,3,3,3,3,3,3,3,3,3,3,3,3,3,3,3,3,3,3,
        3,3,3,3,3,3,3,3,3,3,3,3,3,3,3,3,3,3,3,3,3,3,3,3,3,3,3,3,3,3,3,3,3,3,3,3,3,3,3,3,
        3,3,3,3,3,3,3,3,3,3,3,3,3,3,3,3,3,3,3,3,3,3,3,3,3,3,3,3,3,3,3,3,3,3,3,3,3,3,3,3,
        3,3,3,3,3,3,3,3,3,3,3,3,3,3,3,3,3,3,3,3,3,3,3,3,3,3,3,3,3,3,3,3,3,3,3,3,3,3,3,3,
        3,3,3,3,3,3,3,3,3,3,3,3,3,3,3,3,3,3,3,3,3,3,3,3,3,3,3,3,3,3,3,3,3,3,3,3,3,3,3,3,
        3,3,3,3,3,3,3,3,3,3,3,3,3,3,3,3,3,3,3,3,3,3,3,3,3,3,3,3,3,3,3,3,3,3,3,3,3,3,3,3,
        3,3,3,3,3,3,3,3,3,3,3,3,3,3,3,3,3,3,3,3,3,3,3,3,3,3,3,3,3,3,3,3,3,3,3,3,3,3,3,3,
        3,3,3,3,3,3,3,3,3,3,3,3,3,3,3,3,3,3,3,3,3,3,3,3,3,3,3,3,3,3,3,3,3,3,3,3,3,3,3,3,
        3,3,3,3,3,3,3,3,3,3,3,3,3,3,3,3,3,3,3,3,3,3,3,3,3,3,3,3,3,3,3,3,3,3,3,3,3,3,3,3,
        3,3,3,3,3,3,3,3,3,3,3,3,3,3,3,3,3,3,3,3,3,3,3,3,3,3,3,3,3,3,3,3,3,3,3,3,3,3,3,3,
        3,3,3,3,3,3,3,3,3,3,3,3,3,3,3,3,3,3,3,3,3,3,3,3,3,3,3,3,3,3,3,3,3,3,3,3,3,3,3,3,
        3,3,3,3,3,3,3,3,3,3,3,3,3,3,3,3,3,3,3,3,3,3,3,3,3,3,3,3,3,3,3,3,3,3,3,3,3,3,3,3,
        3,3,3,3,3,3,3,3,3,3,3,3,3,3,3,3,3,3,3,3,3,3,3,3,3,3,3,3,3,3,3,3,3,3,3,3,3,3,3,3
      ]
    },
    {
      "id": 2,
      "name": "ground2",
      "type": "tilelayer",
      "x": 0,
      "y": 0,
      "width": 40,
      "height": 30,
      "opacity": 1,
      "visible": true,
      "data": [
        0,0,0,0,0,0,0,0,0,0,0,0,0,0,0,0,0,0,0,0,0,0,0,0,0,0,0,0,0,0,0,0,0,0,0,0,0,0,0,0,
        0,0,0,0,0,0,0,0,0,0,0,0,0,0,0,0,0,0,0,0,0,0,0,0,0,0,0,0,0,0,0,0,0,0,0,0,0,0,0,0,
        0,0,0,0,0,0,0,0,0,0,0,0,0,0,0,0,0,0,0,0,0,0,0,0,0,0,0,0,0,0,0,0,0,0,0,0,0,0,0,0,
        0,0,0,0,0,0,0,0,0,0,0,0,0,0,0,0,0,0,0,0,0,0,0,0,0,0,0,0,0,0,0,0,0,0,0,0,0,0,0,0,
        0,0,0,0,0,0,0,0,0,0,0,0,0,0,0,0,0,0,0,0,0,0,0,0,0,0,0,0,0,0,0,0,0,0,0,0,0,0,0,0,
        0,0,0,0,0,0,0,0,0,0,0,0,0,0,0,0,0,0,0,0,0,0,0,0,0,0,0,0,0,0,0,0,0,0,0,0,0,0,0,0,
        0,0,0,0,0,0,0,0,0,0,0,0,0,0,0,0,0,0,0,0,0,0,0,0,0,0,0,0,0,0,0,0,0,0,0,0,0,0,0,0,
        0,0,0,0,0,0,0,0,0,0,0,0,0,0,0,0,0,0,0,0,0,0,0,0,0,0,0,0,0,0,0,0,0,0,0,0,0,0,0,0,
        0,0,0,0,0,0,0,0,0,0,0,0,0,0,0,0,0,0,0,0,0,0,0,0,0,0,0,0,0,0,0,0,0,0,0,0,0,0,0,0,
        0,0,0,0,0,0,0,0,0,0,0,0,0,0,0,0,0,0,0,0,0,0,0,0,0,0,0,0,0,0,0,0,0,0,0,0,0,0,0,0,
        0,0,0,0,0,0,0,0,0,0,0,0,0,0,0,0,0,0,0,0,0,0,30,31,0,0,0,0,0,0,0,0,0,0,0,0,0,0,0,0,
        0,0,0,0,0,0,0,0,0,0,0,0,0,0,0,0,0,0,0,0,0,0,32,33,0,0,0,0,0,0,0,0,0,0,0,0,0,0,0,0,
        0,0,0,0,0,0,0,0,0,0,0,0,0,0,0,0,0,0,0,0,0,0,32,33,0,0,0,0,0,0,0,0,0,0,0,0,0,0,0,0,
        0,0,0,0,0,0,0,0,0,0,0,0,0,0,0,0,0,0,0,0,0,0,32,33,0,0,0,0,0,0,0,0,0,0,0,0,0,0,0,0,
        0,0,0,0,0,0,0,0,0,0,0,0,0,0,0,0,0,0,0,0,0,0,32,33,0,0,0,0,0,0,0,0,0,0,0,0,0,0,0,0,
        0,0,0,0,0,0,0,0,0,0,0,0,0,30,34,34,34,34,34,34,34,34,38,33,0,0,0,0,0,0,0,0,0,0,0,0,0,0,0,0,
        0,0,0,0,0,0,0,0,0,0,0,0,0,32,35,36,36,36,36,36,36,36,36,37,0,0,0,0,0,0,0,0,0,0,0,0,0,0,0,0,
        0,0,0,0,0,0,0,0,0,0,0,0,0,32,33,0,0,0,0,0,0,0,0,0,0,0,0,0,0,0,0,0,0,0,0,0,0,0,0,0,
        0,0,0,0,0,0,0,0,0,0,0,0,0,32,33,0,0,0,0,0,0,0,0,0,0,0,0,0,0,0,0,0,0,0,0,0,0,0,0,0,
        0,0,0,0,0,0,0,0,0,0,0,0,0,32,33,0,0,0,0,0,0,0,30,34,34,34,34,34,34,34,34,34,31,0,0,0,0,0,0,0,
        0,0,0,0,0,0,0,0,0,0,0,0,0,32,33,0,0,0,0,0,0,0,41,36,36,36,36,36,36,36,36,36,37,0,0,0,0,0,0,0,
        0,0,0,0,0,0,0,0,0,0,0,0,0,32,33,0,0,0,0,0,0,0,0,0,0,0,0,0,0,0,0,0,0,0,0,0,0,0,0,0,
        0,0,0,0,0,0,0,0,0,0,0,0,0,32,33,0,0,0,0,0,0,0,0,0,0,0,0,0,0,0,0,0,0,0,0,0,0,0,0,0,
        0,0,0,0,0,0,0,0,0,0,0,0,0,32,39,34,34,34,34,34,34,31,0,0,0,0,0,0,0,0,0,0,0,0,0,0,0,0,0,0,
        0,0,0,0,0,0,0,0,0,0,0,0,0,41,36,36,36,36,36,36,42,33,0,0,0,0,0,0,0,0,0,0,0,0,0,0,0,0,0,0,
        0,0,0,0,0,0,0,0,0,0,0,0,0,0,0,0,0,0,0,0,32,33,0,0,0,0,0,0,0,0,0,0,0,0,0,0,0,0,0,0,
        0,0,0,0,0,0,0,0,0,0,0,0,0,0,0,0,0,0,0,0,32,33,0,0,0,0,0,0,0,0,0,0,0,0,0,0,0,0,0,0,
        0,0,0,0,0,0,0,0,0,0,0,0,0,0,0,0,0,0,0,0,32,33,0,0,0,0,0,0,0,0,0,0,0,0,0,0,0,0,0,0,
        0,0,0,0,0,0,0,0,0,0,0,0,0,0,0,0,0,0,0,0,32,33,0,0,0,0,0,0,0,0,0,0,0,0,0,0,0,0,0,0,
        0,0,0,0,0,0,0,0,0,0,0,0,0,0,0,0,0,0,0,0,41,37,0,0,0,0,0,0,0,0,0,0,0,0,0,0,0,0,0,0
      ]
    },
    {
      "id": 3,
      "name": "decal",
      "type": "tilelayer",
      "x": 0,
      "y": 0,
      "width": 40,
      "height": 30,
      "opacity": 1,
      "visible": true,
      "data": [
        0,0,0,0,0,0,0,0,0,0,0,0,0,0,0,64,0,70,0,0,0,64,70,0,0,0,0,53,0,0,0,0,0,0,0,0,0,0,0,0,
        0,0,0,0,0,0,0,0,0,0,0,0,0,0,0,0,0,0,0,0,0,0,0,0,0,0,0,0,0,0,0,0,0,0,0,0,0,0,0,0,
        0,0,0,0,0,0,0,0,0,0,0,0,0,0,0,0,0,0,0,0,0,0,0,0,0,0,0,0,0,0,0,0,0,0,0,0,0,0,0,0,
        0,0,0,0,0,0,0,0,0,70,0,64,0,0,0,0,0,0,0,0,0,0,0,0,0,0,0,0,0,61,0,0,0,0,0,0,0,0,0,0,
        0,0,59,0,0,52,0,0,52,0,0,59,0,0,0,0,0,0,0,0,0,0,0,0,0,0,0,0,0,0,0,0,0,0,65,0,0,0,0,0,
        0,0,0,0,0,0,59,0,0,59,0,0,0,0,0,0,0,0,0,0,0,0,0,0,0,0,0,0,0,0,0,0,0,0,0,0,0,0,0,54,
        0,65,0,0,0,0,0,0,0,62,0,0,0,0,0,0,0,0,0,0,0,0,0,0,0,0,0,0,0,0,0,0,0,0,0,0,0,0,0,0,
        0,0,0,0,65,65,0,62,0,62,0,0,62,65,0,0,0,0,0,0,0,0,0,0,0,0,0,0,0,0,0,0,0,0,0,0,0,0,0,0,
        0,0,0,0,0,62,62,62,0,62,65,0,0,0,65,0,0,0,0,0,0,0,0,0,0,0,0,0,0,0,0,0,0,0,0,0,0,0,0,0,
        0,0,0,0,0,0,0,51,0,0,62,65,0,0,0,0,0,0,0,0,0,0,0,0,0,0,0,0,0,0,0,0,0,0,0,0,0,0,0,0,
        0,0,0,0,0,0,0,0,0,0,0,0,0,0,0,0,0,0,0,0,0,0,0,0,0,0,0,0,0,0,0,0,0,0,0,0,0,0,0,0,
        0,0,0,0,63,0,0,0,0,0,0,0,49,62,65,65,0,0,0,50,0,0,0,0,0,0,0,0,0,0,0,0,0,0,0,0,0,0,0,0,
        0,0,0,0,0,0,0,0,0,0,0,0,0,65,65,62,52,0,0,0,0,0,0,0,0,0,0,53,0,50,0,0,0,0,0,0,0,0,0,0,
        0,0,0,0,0,0,0,0,0,0,0,0,0,0,0,0,0,0,0,0,0,0,0,0,0,0,0,0,0,0,0,0,0,0,0,0,0,0,0,0,
        0,0,0,0,0,0,0,0,0,54,0,0,0,65,0,0,0,0,0,63,0,0,0,0,0,0,0,0,0,0,0,0,0,0,0,0,0,0,0,0,
        0,0,0,0,0,0,0,0,0,0,0,50,0,0,0,0,0,0,0,0,0,0,0,0,0,0,0,0,0,0,0,0,0,0,61,61,0,0,0,0,
        0,0,0,0,0,0,0,0,60,0,0,0,0,0,0,0,0,0,0,0,0,0,0,0,0,0,0,0,0,0,0,0,0,60,0,0,0,0,0,0,
        0,0,0,0,0,0,0,0,0,0,0,0,0,0,0,0,0,0,0,0,0,0,0,0,0,0,0,0,0,0,0,0,0,0,0,0,0,0,0,0,
        0,0,0,0,0,0,0,0,0,0,0,0,0,0,0,0,0,0,0,0,0,0,0,63,50,0,0,0,0,0,0,0,0,0,0,0,0,0,0,0,
        0,0,0,0,54,0,0,0,0,0,0,0,0,0,0,0,0,0,0,0,65,0,0,0,0,0,0,0,0,0,0,0,0,0,0,0,0,0,0,0,
        0,0,0,0,0,0,0,0,0,0,0,0,0,0,0,0,0,0,0,0,51,0,0,0,0,0,0,0,0,0,0,0,0,0,0,0,0,0,0,0,
        0,0,0,0,0,0,0,0,0,0,0,0,0,0,0,0,0,0,0,49,0,49,51,51,0,51,0,62,0,65,0,54,0,0,0,0,0,0,0,0,
        0,0,0,0,0,0,0,0,0,0,0,0,63,0,0,0,0,0,49,0,51,0,49,0,0,0,0,62,0,0,0,0,0,0,0,0,0,0,0,0,
        0,70,0,0,0,0,0,0,0,0,63,0,0,0,0,0,0,0,0,0,0,0,49,51,0,51,0,0,0,0,0,0,0,0,0,61,0,0,0,61,
        0,0,0,0,0,0,0,0,0,0,50,0,0,0,0,0,0,0,0,0,0,0,0,0,0,0,0,0,0,0,0,54,0,0,63,0,0,0,0,0,
        0,0,0,0,0,0,0,0,0,0,0,0,0,0,0,0,54,0,0,49,0,0,49,0,0,0,0,0,0,0,0,0,0,0,0,0,0,0,0,0,
        0,0,0,0,0,0,0,0,0,0,0,0,0,0,0,0,0,0,0,0,0,0,51,49,0,0,0,0,0,0,0,0,0,0,0,0,0,0,0,0,
        0,0,0,0,0,0,0,0,0,0,0,0,0,0,0,0,0,0,0,0,0,0,51,0,0,0,0,0,0,0,0,0,0,0,0,0,0,0,0,0,
        0,0,0,0,0,0,0,0,0,0,0,0,61,0,0,0,0,0,0,0,0,0,49,0,0,0,0,0,0,0,0,0,0,0,53,0,0,0,0,0,
        0,0,0,0,0,0,0,0,0,0,0,0,0,0,0,0,0,0,0,51,0,0,0,0,0,0,0,0,0,0,50,0,0,50,0,0,0,0,54,0
      ]
    },
    {
      "id": 4,
      "name": "shade",
      "type": "tilelayer",
      "x": 0,
      "y": 0,
      "width": 40,
      "height": 30,
      "opacity": 1,
      "visible": true,
      "data": [
        0,0,0,0,0,0,0,0,0,0,0,0,0,0,0,0,0,0,0,0,0,0,0,0,0,0,0,0,0,0,0,0,0,0,0,0,0,0,0,0,
        0,0,0,0,0,0,0,0,0,0,0,0,0,0,0,0,0,0,0,0,0,0,0,0,0,0,0,0,0,0,0,0,0,0,0,0,0,0,0,0,
        0,0,0,0,0,0,0,0,0,0,0,0,0,0,0,0,0,0,0,0,0,0,0,0,0,0,0,0,0,0,0,0,0,0,0,0,0,0,0,0,
        0,0,0,0,0,0,0,0,0,0,0,0,0,0,0,0,0,0,0,0,0,0,0,0,0,0,0,0,0,0,0,0,0,0,0,0,0,0,0,0,
        0,0,0,0,0,0,0,0,0,0,0,0,0,0,0,0,0,0,0,0,0,0,0,0,0,0,0,0,0,0,0,0,0,0,0,0,0,0,0,0,
        0,0,0,0,0,0,0,0,0,0,0,0,0,0,0,0,0,0,0,0,0,0,0,0,0,0,0,0,0,0,0,0,0,0,0,0,0,0,0,0,
        0,0,0,0,0,0,0,0,0,0,0,0,0,0,0,0,0,0,0,0,0,0,0,0,0,0,0,0,0,0,0,0,0,0,0,0,0,0,0,0,
        0,0,0,0,0,0,0,0,0,0,0,0,0,0,0,0,0,0,0,0,0,0,0,0,0,0,0,0,0,0,0,0,0,0,0,0,0,0,0,0,
        0,0,0,0,0,0,0,0,0,0,0,0,0,0,0,0,0,0,0,0,0,0,0,0,0,0,0,0,0,0,0,0,0,0,0,0,0,0,0,0,
        0,0,0,0,0,0,0,0,0,0,0,0,0,0,0,0,0,0,0,0,0,0,0,0,0,0,0,0,0,0,0,0,0,0,0,0,0,0,0,0,
        0,0,0,0,0,0,0,0,0,0,0,0,0,0,0,0,0,0,0,0,0,0,0,0,0,0,0,0,0,0,0,0,0,0,0,0,0,0,0,0,
        0,0,0,0,0,0,0,0,0,0,0,0,0,0,0,0,0,0,0,0,0,0,0,0,0,0,0,0,0,0,0,0,0,0,0,0,0,0,0,0,
        0,0,0,0,0,0,0,0,0,0,0,0,0,0,0,0,0,0,0,0,0,0,0,0,0,0,0,0,0,0,0,0,0,0,0,0,0,0,0,0,
        0,0,0,0,0,0,0,0,0,0,0,0,0,0,0,0,0,0,0,0,0,0,0,0,0,0,0,0,0,0,0,0,0,0,0,0,0,0,0,0,
        0,0,0,0,0,0,0,0,0,0,0,0,0,0,0,0,0,0,0,0,0,0,0,0,0,0,0,0,0,0,0,0,0,0,0,0,0,0,0,0,
        0,0,0,0,0,0,0,0,0,0,0,0,0,0,0,0,0,0,0,0,0,0,0,0,0,0,0,0,0,0,0,0,0,0,0,0,0,0,0,0,
        0,0,0,0,0,0,0,0,0,0,0,0,0,0,0,0,0,0,0,0,0,0,0,0,0,0,0,0,0,0,0,0,0,0,0,0,0,0,0,0,
        0,0,0,0,0,0,0,0,0,0,0,0,0,0,0,0,0,0,0,0,0,0,0,0,0,0,0,0,0,0,0,0,0,0,0,0,0,0,0,0,
        0,0,0,0,0,0,0,0,0,0,0,0,0,0,0,0,0,0,0,0,0,0,0,0,0,0,0,0,0,0,0,0,0,0,0,0,0,0,0,0,
        0,0,0,0,0,0,0,0,0,0,0,0,0,0,0,0,0,0,0,0,0,0,0,0,0,0,0,0,0,0,0,0,0,0,0,0,0,0,0,0,
        0,0,0,0,0,0,0,0,0,0,0,0,0,0,0,0,0,0,0,0,0,0,0,0,0,0,0,0,0,0,0,0,0,0,0,0,0,0,0,0,
        0,0,0,0,0,0,0,0,0,0,0,0,0,0,0,0,0,0,0,0,0,0,0,0,0,0,0,0,0,0,0,0,0,0,0,0,0,0,0,0,
        0,0,0,0,0,0,0,0,0,0,0,0,0,0,0,0,0,0,0,0,0,0,0,0,0,0,0,0,0,0,0,0,0,0,0,0,0,0,0,0,
        0,0,0,0,0,0,0,0,0,0,0,0,0,0,0,0,0,0,0,0,0,0,0,0,0,0,0,0,0,0,0,0,0,0,0,0,0,0,0,0,
        0,0,0,0,0,0,0,0,0,0,0,0,0,0,0,0,0,0,0,0,0,0,0,0,0,0,0,0,0,0,0,0,0,0,0,0,0,0,0,0,
        0,0,0,0,0,0,0,0,0,0,0,0,0,0,0,0,0,0,0,0,0,0,0,0,0,0,0,0,0,0,0,0,0,0,0,0,0,0,0,0,
        0,0,0,0,0,0,0,0,0,0,0,0,0,0,0,0,0,0,0,0,0,0,0,0,0,0,0,0,0,0,0,0,0,0,0,0,0,0,0,0,
        0,0,0,0,0,0,0,0,0,0,0,0,0,0,0,0,0,0,0,0,0,0,0,0,0,0,0,0,0,0,0,0,0,0,0,0,0,0,0,0,
        0,0,0,0,0,0,0,0,0,0,0,0,0,0,0,0,0,0,0,0,0,0,0,0,0,0,0,0,0,0,0,0,0,0,0,0,0,0,0,0,
        0,0,0,0,0,0,0,0,0,0,0,0,0,0,0,0,0,0,0,0,0,0,0,0,0,0,0,0,0,0,0,0,0,0,0,0,0,0,0,0
      ],
      "properties": [
        {
          "name": "blend",
          "type": "string",
          "value": "multiply"
        }
      ]
    },
    {
      "id": 5,
      "name": "below",
      "type": "tilelayer",
      "x": 0,
      "y": 0,
      "width": 40,
      "height": 30,
      "opacity": 1,
      "visible": true,
      "data": [
        0,0,0,0,0,0,0,0,0,0,0,0,0,0,0,0,0,0,0,0,0,0,0,0,0,0,0,0,0,0,0,0,0,0,0,0,0,0,0,0,
        85,86,0,81,82,83,84,85,86,83,84,85,86,83,84,0,0,0,0,0,0,0,0,0,0,0,0,0,81,82,0,83,84,83,84,83,84,85,86,0,
        0,0,0,0,0,0,0,0,0,0,0,0,0,0,0,0,0,0,0,0,0,0,0,0,0,0,0,0,0,0,0,0,0,0,0,0,0,0,0,0,
        0,0,0,0,0,0,0,0,0,0,0,0,0,0,0,6600,6601,6602,6603,6604,6605,6606,6607,6608,6609,6610,6611,6612,0,0,0,0,0,0,0,0,0,0,0,0,
        0,0,0,85,86,0,85,86,0,0,0,0,0,0,0,6613,6614,6615,6616,6617,6618,6619,6620,6621,6622,6623,6624,6625,0,0,0,0,0,0,0,0,0,0,0,0,
        83,84,0,0,0,0,0,0,0,0,0,0,85,86,0,6626,6627,6628,6629,6630,6631,6632,6633,6634,6635,6636,6637,6638,0,0,0,0,85,86,0,83,84,85,86,0,
        0,0,0,0,0,0,0,0,0,0,0,0,0,0,0,6639,6640,6641,6642,6643,6644,6645,6646,6647,6648,6649,6650,6651,85,86,0,0,0,0,0,0,0,0,0,0,
        0,0,0,0,0,0,0,0,0,0,85,86,0,0,0,6652,6653,6654,6655,6656,6657,6658,6659,6660,6661,6662,6663,6664,0,0,0,0,0,0,0,0,0,0,0,0,
        0,0,83,84,0,0,0,0,0,0,0,0,0,0,0,6665,6666,6667,6668,6669,6670,6671,6672,6673,6674,6675,6676,6677,0,0,0,0,0,85,86,0,0,0,0,0,
        85,86,0,0,0,0,0,0,0,0,0,0,0,0,0,6678,6679,6680,6681,6682,6683,6684,6685,6686,6687,6688,6689,6690,0,0,0,0,0,0,0,0,81,82,81,82,
        0,0,0,0,0,0,0,0,0,0,0,0,0,0,0,6691,6692,6693,6694,6695,6696,6697,6698,6699,6700,6701,6702,6703,644,645,646,647,0,0,0,0,0,0,0,0,
        0,0,0,0,0,0,0,0,0,6704,0,0,0,0,0,0,0,0,0,0,0,0,0,0,0,0,0,0,0,0,0,0,0,0,0,0,0,0,0,0,
        0,0,83,84,0,0,0,0,0,0,85,86,0,0,0,0,0,0,0,0,0,0,0,0,0,0,6705,0,0,0,0,0,0,83,84,0,85,86,0,0,
        0,0,0,0,0,0,0,0,0,0,0,0,0,0,0,0,0,0,0,0,0,0,0,0,0,0,0,0,0,0,0,0,0,0,0,0,0,0,81,82,
        85,86,0,0,0,0,0,85,86,0,0,0,0,0,0,0,0,0,0,0,0,0,0,0,0,0,0,0,0,0,0,85,86,0,0,0,0,0,0,0,
        0,0,0,85,86,0,0,0,0,0,0,0,0,0,0,0,0,0,0,0,0,0,0,0,0,0,0,0,85,86,0,0,0,0,0,0,85,86,0,0,
        0,0,0,0,0,0,0,0,0,0,0,0,0,0,0,0,0,0,0,0,0,0,0,0,0,0,0,0,0,0,0,0,0,0,0,0,0,0,0,0,
        0,0,0,0,0,0,0,0,0,0,0,0,0,0,0,0,0,0,0,0,0,0,0,0,0,0,0,0,0,0,0,0,0,0,0,0,0,0,81,82,
        83,84,0,0,0,0,0,0,0,0,6706,0,0,0,0,0,0,0,0,0,0,0,0,0,0,0,0,0,0,0,0,0,1904,1905,0,85,86,0,0,0,
        0,0,83,84,0,0,0,0,0,0,0,0,0,0,0,0,0,0,0,0,0,0,0,0,0,0,0,0,0,0,0,0,1906,1907,6328,0,0,0,0,0,
        0,0,0,0,0,0,0,0,0,0,0,0,0,0,0,0,0,0,0,0,0,0,0,0,0,0,0,0,0,0,0,0,0,0,0,0,0,0,85,86,
        0,0,0,0,0,0,0,0,0,0,0,0,0,0,0,0,0,0,0,0,0,0,0,0,0,0,0,0,0,0,0,0,0,0,0,0,0,0,0,0,
        85,86,0,0,0,0,0,644,645,646,647,0,0,0,0,0,0,0,0,0,0,0,0,0,0,0,0,0,0,6706,0,0,0,0,0,83,84,0,0,0,
        0,0,83,84,0,0,0,0,0,0,0,0,0,0,0,0,0,0,0,0,0,0,0,0,0,0,0,0,0,0,0,0,0,0,0,0,0,0,0,0,
        0,0,0,0,0,0,0,0,0,0,0,0,0,0,0,0,0,0,0,0,0,0,0,6704,0,0,0,0,0,0,0,0,0,0,0,0,0,85,86,0,
        0,0,0,0,0,0,0,0,0,0,0,0,0,0,0,0,0,6707,0,0,0,0,0,0,0,0,0,0,0,0,0,0,0,0,0,0,0,0,0,0,
        85,86,0,0,0,0,0,0,0,0,0,0,0,0,0,0,0,0,0,0,0,0,0,0,0,0,0,0,0,0,0,0,0,0,0,0,0,0,0,0,
        0,0,83,84,0,0,0,0,0,0,0,0,0,0,0,0,0,0,0,0,0,0,0,0,0,0,0,0,0,0,0,0,0,0,0,85,86,0,0,0,
        0,0,0,0,83,84,83,84,85,86,0,0,0,0,85,86,0,0,0,0,0,0,0,0,83,84,83,84,85,86,81,82,83,84,0,0,0,81,82,0,
        85,86,0,0,0,0,0,0,0,0,83,84,0,0,0,0,0,0,0,0,0,0,0,0,0,0,0,0,0,0,0,0,0,0,0,0,0,0,0,0
      ]
    },
    {
      "id": 6,
      "name": "above",
      "type": "tilelayer",
      "x": 0,
      "y": 0,
      "width": 40,
      "height": 30,
      "opacity": 1,
      "visible": true,
      "data": [
        1955,1956,0,1951,1952,1953,1954,1955,1956,1953,1954,1955,1956,1953,1954,0,0,0,0,0,0,0,0,0,0,0,0,0,1951,1952,0,1953,1954,1953,1954,1953,1954,1955,1956,0,
        0,0,0,0,0,0,0,0,0,0,0,0,0,0,0,6708,6709,6710,6711,6712,6713,6714,6715,6716,6717,6718,6719,6720,0,0,0,0,0,0,0,0,0,0,0,0,
        1959,1960,0,1957,1958,0,1957,1958,0,0,0,0,0,0,0,6721,6722,6723,6724,6725,6726,6727,6728,6729,6730,6731,6732,6733,0,0,0,0,0,0,0,1959,1960,0,0,0,
        1963,1964,0,1955,1956,0,1955,1956,0,0,0,0,1957,1958,0,0,0,0,0,0,0,0,0,0,0,0,0,0,0,0,0,0,1957,1958,0,1963,1964,1957,1958,0,
        1953,1954,0,0,0,0,0,0,0,0,0,0,1955,1956,0,0,0,0,0,0,0,0,0,0,0,0,0,0,1957,1958,0,0,1955,1956,0,1953,1954,1955,1956,0,
        0,0,1959,1960,0,0,0,0,0,0,1957,1958,0,0,0,0,0,0,0,0,0,0,0,0,0,0,0,0,1955,1956,0,0,0,0,0,0,0,0,0,0,
        0,0,1963,1964,0,0,0,0,0,0,1955,1956,0,0,0,0,0,0,0,0,0,0,0,0,0,0,0,0,0,0,0,0,0,1957,1958,0,1961,1962,1961,1962,
        1957,1958,1953,1954,0,0,0,0,0,0,0,0,0,0,0,0,0,0,0,0,0,0,0,0,0,0,0,0,2152,2153,2154,2155,0,1955,1956,0,1965,1966,1965,1966,
        1955,1956,0,0,0,0,0,0,0,0,0,0,0,0,0,0,0,0,0,0,0,0,0,0,0,0,0,0,2164,2165,2166,2167,0,0,0,0,1951,1952,1951,1952,
        0,0,1959,1960,0,0,0,0,0,0,0,0,0,0,0,0,0,0,0,0,0,0,0,0,0,0,0,0,2172,2173,2174,2175,0,1959,1960,0,0,0,0,0,
        0,0,1963,1964,0,0,0,0,0,0,1957,1958,0,0,0,0,0,0,0,0,0,0,0,0,0,0,0,0,0,0,0,0,0,1963,1964,0,1957,1958,1961,1962,
        0,0,1953,1954,0,0,0,0,0,0,1955,1956,0,0,0,0,0,0,0,0,0,0,0,0,0,0,0,0,0,0,0,0,0,1953,1954,0,1955,1956,1965,1966,
        1957,1958,0,0,0,0,0,1957,1958,0,0,0,0,0,0,0,0,0,0,0,0,0,0,0,0,0,0,0,0,0,0,1957,1958,0,0,0,0,0,1951,1952,
        1955,1956,0,1957,1958,0,0,1955,1956,0,0,0,0,0,0,0,0,0,0,0,0,0,0,0,0,0,0,0,1957,1958,0,1955,1956,0,0,0,1957,1958,0,0,
        0,0,0,1955,1956,0,0,0,0,0,0,0,0,0,0,0,0,0,0,0,0,0,0,0,0,0,0,0,1955,1956,0,0,0,0,0,0,1955,1956,1961,1962,
        1959,1960,0,0,0,0,0,0,0,0,0,0,0,0,0,0,0,0,0,0,0,0,0,0,0,0,0,0,0,0,0,0,0,0,0,0,0,0,1965,1966,
        1963,1964,1959,1960,0,0,0,0,0,0,0,0,0,0,0,0,0,0,0,0,0,0,0,0,0,0,0,0,0,0,0,0,0,0,0,1957,1958,0,1951,1952,
        1953,1954,1963,1964,0,0,0,0,0,0,0,0,0,0,0,0,0,0,0,0,0,0,0,0,0,0,0,0,0,0,0,0,0,0,0,1955,1956,0,0,0,
        0,0,1953,1954,0,0,0,0,0,0,0,0,0,0,0,0,0,0,0,0,0,0,0,0,0,0,0,0,0,0,0,0,0,0,0,0,0,0,1957,1958,
        0,0,0,0,0,0,0,2152,2153,2154,2155,0,0,0,0,0,0,0,0,0,0,0,0,0,0,0,0,0,0,0,0,0,0,0,0,1959,1960,0,1955,1956,
        1957,1958,1959,1960,0,0,0,2164,2165,2166,2167,0,0,0,0,0,0,0,0,0,0,0,0,0,0,0,0,0,0,0,0,0,0,0,0,1963,1964,0,0,0,
        1955,1956,1963,1964,0,0,0,2172,2173,2174,2175,0,0,0,0,0,0,0,0,0,0,0,0,0,0,0,0,0,0,0,0,0,0,0,0,1953,1954,0,0,0,
        0,0,1953,1954,0,0,0,0,0,0,0,0,0,0,0,0,0,0,0,0,0,0,0,0,0,0,0,0,0,0,0,0,0,0,0,0,0,1957,1958,0,
        0,0,0,0,0,0,0,0,0,0,0,0,0,0,0,0,0,0,0,0,0,0,0,0,0,0,0,0,0,0,0,0,0,0,0,0,0,1955,1956,0,
        1957,1958,1959,1960,0,0,0,0,0,0,0,0,0,0,0,0,0,0,0,0,0,0,0,0,0,0,0,0,0,0,0,0,0,0,0,0,0,0,0,0,
        1955,1956,1963,1964,1959,1960,1959,1960,0,0,0,0,0,0,0,0,0,0,0,0,0,0,0,0,1959,1960,1959,1960,0,0,1961,1962,1959,1960,0,1957,1958,1961,1962,0,
        0,0,1953,1954,1963,1964,1963,1964,1957,1958,1959,1960,0,0,1957,1958,0,0,0,0,0,0,0,0,1963,1964,1963,1964,1957,1958,1965,1966,1963,1964,0,1955,1956,1965,1966,0,
        1957,1958,0,0,1953,1954,1953,1954,1955,1956,1963,1964,0,0,1955,1956,0,0,0,0,0,0,0,0,1953,1954,1953,1954,1955,1956,1951,1952,1953,1954,0,0,0,1951,1952,0,
        1955,1956,0,0,0,0,0,0,0,0,1953,1954,0,0,0,0,0,0,0,0,0,0,0,0,0,0,0,0,0,0,0,0,0,0,0,0,0,0,0,0,
        0,0,0,0,0,0,0,0,0,0,0,0,0,0,0,0,0,0,0,0,0,0,0,0,0,0,0,0,0,0,0,0,0,0,0,0,0,0,0,0
      ]
    },
    {
      "id": 7,
      "name": "collision",
      "type": "tilelayer",
      "x": 0,
      "y": 0,
      "width": 40,
      "height": 30,
      "opacity": 1,
      "visible": false,
      "data": [
        0,0,0,0,0,0,0,0,0,0,0,0,0,0,0,0,0,0,0,0,0,0,0,0,0,0,0,0,0,0,0,0,0,0,0,0,0,0,0,0,
        1,1,0,1,1,1,1,1,1,1,1,1,1,1,1,0,0,0,0,0,0,0,0,0,0,0,0,0,1,1,0,1,1,1,1,1,1,1,1,0,
        0,0,0,0,0,0,0,0,0,0,0,0,0,0,0,0,0,0,0,0,0,0,0,0,0,0,0,0,0,0,0,0,0,0,0,0,0,0,0,0,
        0,0,0,0,0,0,0,0,0,0,0,0,0,0,0,1,1,1,1,1,1,1,1,1,1,1,0,0,0,0,0,0,0,0,0,0,0,0,0,0,
        0,0,0,1,1,0,1,1,0,0,0,0,0,0,0,1,1,1,1,1,1,1,1,1,1,1,1,1,0,0,0,0,0,0,0,0,0,0,0,0,
        1,1,0,0,0,0,0,0,0,0,0,0,1,1,0,1,1,1,1,1,1,1,1,1,1,1,1,1,0,0,0,0,1,1,0,1,1,1,1,0,
        0,0,0,0,0,0,0,0,0,0,0,0,0,0,0,1,1,1,1,1,1,1,1,1,1,1,1,1,1,1,0,0,0,0,0,0,0,0,0,0,
        0,0,0,0,0,0,0,0,0,0,1,1,0,0,0,1,1,1,1,1,1,1,1,1,1,1,1,1,0,0,0,0,0,0,0,0,0,0,0,0,
        0,0,1,1,0,0,0,0,0,0,0,0,0,0,0,1,1,1,1,1,1,1,1,1,1,1,1,1,0,0,0,0,0,1,1,0,0,0,0,0,
        1,1,0,0,0,0,0,0,0,0,0,0,0,0,0,1,1,1,1,1,1,1,1,1,1,1,1,1,0,0,0,0,0,0,0,0,1,1,1,1,
        0,0,0,0,0,0,0,0,0,0,0,0,0,0,0,0,0,0,0,0,0,0,0,1,0,0,0,0,0,1,1,0,0,0,0,0,0,0,0,0,
        0,0,0,0,0,0,0,0,0,1,0,0,0,0,0,0,0,0,0,0,0,0,0,0,0,0,0,0,0,0,0,0,0,0,0,0,0,0,0,0,
        0,0,1,1,0,0,0,0,0,0,1,1,0,0,0,0,0,0,0,0,0,0,0,0,0,0,1,0,0,0,0,0,0,1,1,0,1,1,0,0,
        0,0,0,0,0,0,0,0,0,0,0,0,0,0,0,0,0,0,0,0,0,0,0,0,0,0,0,0,0,0,0,0,0,0,0,0,0,0,1,1,
        1,1,0,0,0,0,0,1,1,0,0,0,0,0,0,0,0,0,0,0,0,0,0,0,0,0,0,0,0,0,0,1,1,0,0,0,0,0,0,0,
        0,0,0,1,1,0,0,0,0,0,0,0,0,0,0,0,0,0,0,0,0,0,0,0,0,0,0,0,1,1,0,0,0,0,0,0,1,1,0,0,
        0,0,0,0,0,0,0,0,0,0,0,0,0,0,0,0,0,0,0,0,0,0,0,0,0,0,0,0,0,0,0,0,0,0,0,0,0,0,0,0,
        0,0,0,0,0,0,0,0,0,0,0,0,0,0,0,0,0,0,0,0,0,0,0,0,0,0,0,0,0,0,1,0,0,0,0,0,0,0,1,1,
        1,1,0,0,0,0,0,0,0,0,1,0,0,0,0,0,0,0,0,0,0,0,0,0,0,0,0,0,0,0,0,0,1,1,0,1,1,0,0,0,
        0,0,1,1,0,0,0,0,0,0,0,0,0,0,0,0,0,0,0,0,0,0,0,0,0,0,0,0,0,0,0,0,1,1,1,0,0,0,0,0,
        0,0,0,0,0,0,0,0,0,0,0,0,0,0,0,0,0,0,0,0,0,0,0,0,0,0,0,0,0,0,0,0,0,0,0,0,0,0,1,1,
        0,0,0,0,0,0,0,0,0,0,0,0,0,0,0,0,0,0,0,0,0,0,0,0,0,0,0,0,0,0,0,0,0,0,0,0,0,0,0,0,
        1,1,0,0,0,0,0,0,1,1,0,0,0,0,0,0,0,0,0,0,0,0,0,0,0,0,0,0,0,1,0,0,0,0,0,1,1,0,0,0,
        0,0,1,1,0,0,0,0,0,0,0,0,0,0,0,0,0,0,0,0,0,0,0,0,0,0,0,0,0,0,0,0,0,0,0,0,0,0,0,0,
        0,0,0,0,0,0,0,0,0,0,0,0,0,0,0,0,0,0,0,0,0,0,0,1,0,0,0,0,0,0,0,0,0,0,0,0,0,1,1,0,
        0,0,0,0,0,0,0,0,0,0,0,0,0,0,0,0,0,1,0,0,0,0,0,0,0,0,0,0,0,0,0,0,0,0,0,0,0,0,0,0,
        1,1,0,0,0,0,0,0,0,0,0,0,0,0,0,0,0,0,0,0,0,0,0,0,0,0,0,0,0,0,0,0,0,0,0,0,0,0,0,0,
        0,0,1,1,0,0,0,0,0,0,0,0,0,0,0,0,0,0,0,0,0,0,0,0,0,0,0,0,0,0,0,0,0,0,0,1,1,0,0,0,
        0,0,0,0,1,1,1,1,1,1,0,0,0,0,1,1,0,0,0,0,0,0,0,0,1,1,1,1,1,1,1,1,1,1,0,0,0,1,1,0,
        1,1,0,0,0,0,0,0,0,0,1,1,0,0,0,0,0,0,0,0,0,0,0,0,0,0,0,0,0,0,0,0,0,0,0,0,0,0,0,0
      ]
    },
    {
      "id": 8,
      "name": "forest",
      "type": "tilelayer",
      "x": 0,
      "y": 0,
      "width": 40,
      "height": 30,
      "opacity": 1,
      "visible": false,
      "data": [
        1,1,1,1,1,1,1,1,1,1,1,1,1,1,1,1,1,1,1,1,1,1,1,1,1,1,1,1,1,1,1,1,1,1,1,1,1,1,1,1,
        1,1,1,1,1,1,1,1,1,1,1,1,1,1,1,1,1,1,1,1,1,1,1,1,1,1,1,1,1,1,1,1,1,1,1,1,1,1,1,1,
        1,1,1,1,1,1,1,1,1,1,1,1,1,1,1,1,1,1,1,1,1,1,1,1,1,1,1,1,1,1,1,1,1,1,1,1,1,1,1,1,
        1,1,1,1,1,1,1,1,1,1,1,1,1,1,1,1,1,1,1,1,1,1,1,1,1,1,1,1,1,1,1,1,1,1,1,1,1,1,1,1,
        1,1,1,1,1,1,1,1,1,1,1,1,1,1,1,1,1,1,1,1,1,1,1,1,1,1,1,1,1,1,1,1,1,1,1,1,1,1,1,1,
        1,1,1,1,1,1,1,1,1,1,1,1,1,1,1,1,1,1,1,1,1,1,1,1,1,1,1,1,1,1,1,1,1,1,1,1,1,1,1,1,
        1,1,1,1,1,1,1,1,1,1,1,1,1,1,1,1,1,1,1,1,1,1,1,1,1,1,1,1,1,1,1,1,1,1,1,1,1,1,1,1,
        1,1,1,1,1,1,1,1,1,1,1,1,1,1,1,1,1,1,1,1,1,1,1,1,1,1,1,1,1,1,1,1,1,1,1,1,1,1,1,1,
        1,1,1,1,1,1,1,1,1,1,1,1,1,1,1,1,1,1,1,1,1,1,1,1,1,1,1,1,1,1,1,1,1,1,1,1,1,1,1,1,
        1,1,1,1,1,1,1,1,1,1,1,1,1,1,1,1,1,1,1,1,1,1,1,1,1,1,1,1,1,1,1,1,1,1,1,1,1,1,1,1,
        1,1,1,1,1,1,1,1,1,1,1,1,1,1,1,1,1,1,1,1,1,1,1,1,1,1,1,1,1,1,1,1,1,1,1,1,1,1,1,1,
        1,1,1,1,1,1,1,1,1,1,1,1,1,1,1,1,1,1,1,1,1,1,1,1,1,1,1,1,1,1,1,1,1,1,1,1,1,1,1,1,
        1,1,1,1,1,1,1,1,1,1,1,1,1,1,1,1,1,1,1,1,1,1,1,1,1,1,1,1,1,1,1,1,1,1,1,1,1,1,1,1,
        1,1,1,1,1,1,1,1,1,1,1,1,1,1,1,1,1,1,1,1,1,1,1,1,1,1,1,1,1,1,1,1,1,1,1,1,1,1,1,1,
        1,1,1,1,1,1,1,1,1,1,1,1,1,1,1,1,1,1,1,1,1,1,1,1,1,1,1,1,1,1,1,1,1,1,1,1,1,1,1,1,
        1,1,1,1,1,1,1,1,1,1,1,1,1,1,1,1,1,1,1,1,1,1,1,1,1,1,1,1,1,1,1,1,1,1,1,1,1,1,1,1,
        1,1,1,1,1,1,1,1,1,1,1,1,1,1,1,1,1,1,1,1,1,1,1,1,1,1,1,1,1,1,1,1,1,1,1,1,1,1,1,1,
        1,1,1,1,1,1,1,1,1,1,1,1,1,1,1,1,1,1,1,1,1,1,1,1,1,1,1,1,1,1,1,1,1,1,1,1,1,1,1,1,
        1,1,1,1,1,1,1,1,1,1,1,1,1,1,1,1,1,1,1,1,1,1,1,1,1,1,1,1,1,1,1,1,1,1,1,1,1,1,1,1,
        1,1,1,1,1,1,1,1,1,1,1,1,1,1,1,1,1,1,1,1,1,1,1,1,1,1,1,1,1,1,1,1,1,1,1,1,1,1,1,1,
        1,1,1,1,1,1,1,1,1,1,1,1,1,1,1,1,1,1,1,1,1,1,1,1,1,1,1,1,1,1,1,1,1,1,1,1,1,1,1,1,
        1,1,1,1,1,1,1,1,1,1,1,1,1,1,1,1,1,1,1,1,1,1,1,1,1,1,1,1,1,1,1,1,1,1,1,1,1,1,1,1,
        1,1,1,1,1,1,1,1,1,1,1,1,1,1,1,1,1,1,1,1,1,1,1,1,1,1,1,1,1,1,1,1,1,1,1,1,1,1,1,1,
        1,1,1,1,1,1,1,1,1,1,1,1,1,1,1,1,1,1,1,1,1,1,1,1,1,1,1,1,1,1,1,1,1,1,1,1,1,1,1,1,
        1,1,1,1,1,1,1,1,1,1,1,1,1,1,1,1,1,1,1,1,1,1,1,1,1,1,1,1,1,1,1,1,1,1,1,1,1,1,1,1,
        1,1,1,1,1,1,1,1,1,1,1,1,1,1,1,1,1,1,1,1,1,1,1,1,1,1,1,1,1,1,1,1,1,1,1,1,1,1,1,1,
        1,1,1,1,1,1,1,1,1,1,1,1,1,1,1,1,1,1,1,1,1,1,1,1,1,1,1,1,1,1,1,1,1,1,1,1,1,1,1,1,
        1,1,1,1,1,1,1,1,1,1,1,1,1,1,1,1,1,0,0,0,0,0,0,0,1,1,1,1,1,1,1,1,1,1,1,1,1,1,1,1,
        1,1,1,1,1,1,1,1,1,1,1,1,1,1,1,1,1,0,0,0,0,0,0,0,1,1,1,1,1,1,1,1,1,1,1,1,1,1,1,1,
        1,1,1,1,1,1,1,1,1,1,1,1,1,1,1,1,1,0,0,0,0,0,0,0,1,1,1,1,1,1,1,1,1,1,1,1,1,1,1,1
      ]
    },
    {
      "id": 9,
      "name": "objects",
      "type": "objectgroup",
      "x": 0,
      "y": 0,
      "opacity": 1,
      "visible": true,
      "draworder": "topdown",
      "objects": [
        {
          "id": 1,
          "name": "",
          "type": "light",
          "x": 352,
          "y": 128,
          "width": 16,
          "height": 16,
          "rotation": 0,
          "visible": true,
          "properties": [
            {
              "name": "shape",
              "type": "string",
              "value": "glow"
            },
            {
              "name": "radius",
              "type": "string",
              "value": "1.8"
            },
            {
              "name": "color",
              "type": "string",
              "value": "ffc070"
            },
            {
              "name": "intensity",
              "type": "string",
              "value": "0.6"
            },
            {
              "name": "flicker",
              "type": "string",
              "value": "false"
            },
            {
              "name": "when",
              "type": "string",
              "value": "night"
            }
          ]
        },
        {
          "id": 2,
          "name": "",
          "type": "sign",
          "x": 352,
          "y": 144,
          "width": 16,
          "height": 16,
          "rotation": 0,
          "visible": true,
          "properties": [
            {
              "name": "text",
              "type": "string",
              "value": "* Locked. A note on the door: \"Gone fishing. Back when the next quest is ready. - T.\""
            }
          ]
        },
        {
          "id": 3,
          "name": "",
          "type": "sprite",
          "x": 480,
          "y": 256,
          "width": 16,
          "height": 16,
          "rotation": 0,
          "visible": true,
          "properties": [
            {
              "name": "sprite",
              "type": "string",
              "value": "campfire"
            }
          ]
        },
        {
          "id": 4,
          "name": "",
          "type": "light",
          "x": 480,
          "y": 272,
          "width": 16,
          "height": 16,
          "rotation": 0,
          "visible": true,
          "properties": [
            {
              "name": "shape",
              "type": "string",
              "value": "glow"
            },
            {
              "name": "radius",
              "type": "string",
              "value": "2.5"
            },
            {
              "name": "color",
              "type": "string",
              "value": "ffae62"
            },
            {
              "name": "intensity",
              "type": "string",
              "value": "0.5"
            },
            {
              "name": "flicker",
              "type": "string",
              "value": "true"
            },
            {
              "name": "when",
              "type": "string",
              "value": "night"
            }
          ]
        },
        {
          "id": 5,
          "name": "",
          "type": "sprite",
          "x": 352,
          "y": 336,
          "width": 16,
          "height": 16,
          "rotation": 0,
          "visible": true,
          "properties": [
            {
              "name": "sprite",
              "type": "string",
              "value": "butterfly"
            },
            {
              "name": "seasons",
              "type": "string",
              "value": "spring,summer"
            },
            {
              "name": "when",
              "type": "string",
              "value": "day"
            }
          ]
        },
        {
          "id": 6,
          "name": "",
          "type": "sign",
          "x": 544,
          "y": 304,
          "width": 16,
          "height": 16,
          "rotation": 0,
          "visible": true,
          "properties": [
            {
              "name": "text",
              "type": "string",
              "value": "The whole of Fjord Town fits in one look from up here: the harbour, the square, the radio tower blinking on its hill. The fjord goes on further than you can see."
            }
          ]
        },
        {
          "id": 7,
          "name": "",
          "type": "door",
          "x": 320,
          "y": 448,
          "width": 16,
          "height": 16,
          "rotation": 0,
          "visible": true,
          "properties": [
            {
              "name": "toMap",
              "type": "string",
              "value": "town"
            },
            {
              "name": "toSpawn",
              "type": "string",
              "value": "trail"
            }
          ]
        },
        {
          "id": 8,
          "name": "trailhead",
          "type": "spawn",
          "x": 320,
          "y": 432,
          "width": 16,
          "height": 16,
          "rotation": 0,
          "visible": true,
          "properties": [
            {
              "name": "facing",
              "type": "string",
              "value": "up"
            }
          ]
        }
      ]
    }
  ],
  "tilesets": [
    {
      "firstgid": 1,
      "name": "world",
      "image": "../tilesets/world.png",
      "imagewidth": 2048,
      "imageheight": 2048,
      "tilewidth": 16,
      "tileheight": 16,
      "tilecount": 16384,
      "columns": 128,
      "margin": 0,
      "spacing": 0,
      "tiles": [
        {
          "id": 0,
          "properties": [
            {
              "name": "collides",
              "type": "bool",
              "value": true
            }
          ]
        },
        {
          "id": 1,
          "properties": [
            {
              "name": "clears",
              "type": "bool",
              "value": true
            }
          ]
        }
      ]
    }
  ]
}
