{
  "type": "map",
  "version": "1.10",
  "tiledversion": "1.11.0",
  "orientation": "orthogonal",
  "renderorder": "right-down",
  "infinite": false,
  "width": 14,
  "height": 10,
  "tilewidth": 16,
  "tileheight": 16,
  "nextlayerid": 9,
  "nextobjectid": 12,
  "properties": [
    {
      "name": "name",
      "type": "string",
      "value": "Radio hut"
    }
  ],
  "layers": [
    {
      "id": 1,
      "name": "ground",
      "type": "tilelayer",
      "x": 0,
      "y": 0,
      "width": 14,
      "height": 10,
      "opacity": 1,
      "visible": true,
      "data": [
        0,0,0,0,0,0,0,0,0,0,0,0,0,0,
        0,0,2965,2966,2966,2966,2966,2966,2966,2966,2966,2967,0,0,
        0,0,2968,2969,2969,2969,2969,2969,2969,2969,2969,2970,0,0,
        0,0,2971,2972,2972,2972,2972,2972,2972,2972,2972,2972,0,0,
        0,0,2973,2974,2974,2974,2974,2974,2974,2974,2974,2974,0,0,
        0,0,2973,2974,2974,2974,2974,2974,2974,2974,2974,2974,0,0,
        0,0,2973,2974,2974,2974,2974,2974,2974,2974,2974,2974,0,0,
        0,0,2973,2974,2974,2974,2974,2974,2974,2974,2974,2974,0,0,
        0,0,0,0,0,0,0,0,0,0,0,0,0,0,
        0,0,0,0,0,0,0,0,0,0,0,0,0,0
      ]
    },
    {
      "id": 2,
      "name": "ground2",
      "type": "tilelayer",
      "x": 0,
      "y": 0,
      "width": 14,
      "height": 10,
      "opacity": 1,
      "visible": true,
      "data": [
        0,0,0,0,0,0,0,0,0,0,0,0,0,0,
        0,0,0,0,0,2975,2976,2977,2978,2979,0,0,0,0,
        0,0,0,0,0,2980,2981,2982,2983,2984,0,0,0,0,
        0,0,0,0,0,0,0,0,0,0,0,0,0,0,
        0,0,0,0,0,0,0,0,0,0,0,0,0,0,
        0,0,0,0,0,0,0,0,0,0,0,0,0,0,
        0,0,0,0,0,0,0,0,0,0,0,0,0,0,
        0,0,0,0,0,0,0,0,0,0,0,0,0,0,
        0,0,0,0,0,0,0,0,0,0,0,0,0,0,
        0,0,0,0,0,0,0,0,0,0,0,0,0,0
      ]
    },
    {
      "id": 3,
      "name": "decal",
      "type": "tilelayer",
      "x": 0,
      "y": 0,
      "width": 14,
      "height": 10,
      "opacity": 1,
      "visible": true,
      "data": [
        0,0,0,0,0,0,0,0,0,0,0,0,0,0,
        0,0,0,0,0,0,0,0,0,0,0,0,0,0,
        0,0,0,0,0,0,0,0,0,0,0,0,0,0,
        0,0,0,0,0,0,0,0,0,0,0,0,0,0,
        0,0,0,0,0,0,0,0,0,0,0,0,0,0,
        0,0,0,0,0,0,0,0,0,0,0,0,0,0,
        0,0,0,0,0,0,0,0,0,0,0,0,0,0,
        0,0,0,0,0,0,0,0,0,0,0,0,0,0,
        0,0,0,0,0,0,0,0,0,0,0,0,0,0,
        0,0,0,0,0,0,0,0,0,0,0,0,0,0
      ]
    },
    {
      "id": 4,
      "name": "shade",
      "type": "tilelayer",
      "x": 0,
      "y": 0,
      "width": 14,
      "height": 10,
      "opacity": 1,
      "visible": true,
      "data": [
        0,0,0,0,0,0,0,0,0,0,0,0,0,0,
        0,0,0,0,0,0,0,0,0,0,0,0,0,0,
        0,0,0,0,0,0,0,0,0,0,0,0,0,0,
        0,0,0,0,0,0,0,0,0,0,0,0,0,0,
        0,0,0,0,0,0,0,0,0,0,0,0,0,0,
        0,0,0,0,0,0,0,0,0,0,0,0,0,0,
        0,0,0,0,0,0,0,0,0,0,0,0,0,0,
        0,0,0,0,0,0,0,0,0,0,0,0,0,0,
        0,0,0,0,0,0,0,0,0,0,0,0,0,0,
        0,0,0,0,0,0,0,0,0,0,0,0,0,0
      ],
      "properties": [
        {
          "name": "blend",
          "type": "string",
          "value": "multiply"
        }
      ]
    },
    {
      "id": 5,
      "name": "below",
      "type": "tilelayer",
      "x": 0,
      "y": 0,
      "width": 14,
      "height": 10,
      "opacity": 1,
      "visible": true,
      "data": [
        0,0,0,0,0,0,0,0,0,0,0,0,0,0,
        0,0,2985,2986,2987,0,0,0,0,0,2988,2989,0,0,
        0,0,2990,2991,2992,0,0,0,0,0,2993,2994,0,0,
        0,0,2995,2996,2997,0,0,0,0,0,2998,2999,0,0,
        0,0,0,0,0,0,0,0,0,0,0,0,0,0,
        0,0,3000,3001,3002,0,0,0,0,3003,3004,3005,0,0,
        0,0,3006,3007,3008,0,0,0,0,3009,3010,3011,0,0,
        0,0,0,0,0,0,0,0,0,0,0,0,0,0,
        0,0,0,0,0,0,0,0,0,0,0,0,0,0,
        0,0,0,0,0,0,0,0,0,0,0,0,0,0
      ]
    },
    {
      "id": 6,
      "name": "above",
      "type": "tilelayer",
      "x": 0,
      "y": 0,
      "width": 14,
      "height": 10,
      "opacity": 1,
      "visible": true,
      "data": [
        0,0,0,0,0,0,0,0,0,0,0,0,0,0,
        0,2509,2510,2510,2510,2510,2510,2510,2510,2510,2510,2510,2511,0,
        0,2512,0,0,0,0,0,0,0,0,0,0,2515,0,
        0,2512,0,0,0,0,0,0,0,0,0,0,2515,0,
        0,2512,0,0,0,0,0,0,0,0,0,0,2515,0,
        0,2512,0,0,0,0,0,0,0,0,0,0,2515,0,
        0,2512,0,0,0,0,0,0,0,0,0,0,2515,0,
        0,2512,0,0,0,0,0,0,0,0,0,0,2515,0,
        0,2516,2517,2517,2517,2517,2517,0,2517,2517,2517,2517,2518,0,
        0,0,0,0,0,0,0,0,0,0,0,0,0,0
      ]
    },
    {
      "id": 7,
      "name": "collision",
      "type": "tilelayer",
      "x": 0,
      "y": 0,
      "width": 14,
      "height": 10,
      "opacity": 1,
      "visible": false,
      "data": [
        0,0,0,0,0,0,0,0,0,0,0,0,0,0,
        0,1,1,1,1,1,1,1,1,1,1,1,1,0,
        0,1,1,1,1,1,1,1,1,1,1,1,1,0,
        0,1,1,1,1,0,0,0,0,0,1,1,1,0,
        0,1,0,0,0,0,0,0,0,0,0,0,1,0,
        0,1,0,0,1,0,0,0,0,0,1,0,1,0,
        0,1,1,1,1,0,0,0,0,1,1,1,1,0,
        0,1,0,0,0,0,0,0,0,0,0,0,1,0,
        0,1,1,1,1,1,1,0,1,1,1,1,1,0,
        0,0,0,0,0,0,0,0,0,0,0,0,0,0
      ]
    },
    {
      "id": 8,
      "name": "objects",
      "type": "objectgroup",
      "x": 0,
      "y": 0,
      "opacity": 1,
      "visible": true,
      "draworder": "topdown",
      "objects": [
        {
          "id": 1,
          "name": "",
          "type": "light",
          "x": 112,
          "y": 48,
          "width": 16,
          "height": 16,
          "rotation": 0,
          "visible": true,
          "properties": [
            {
              "name": "shape",
              "type": "string",
              "value": "glow"
            },
            {
              "name": "radius",
              "type": "string",
              "value": "1.6"
            },
            {
              "name": "color",
              "type": "string",
              "value": "78b4ff"
            },
            {
              "name": "intensity",
              "type": "string",
              "value": "0.35"
            },
            {
              "name": "flicker",
              "type": "string",
              "value": "false"
            }
          ]
        },
        {
          "id": 2,
          "name": "",
          "type": "light",
          "x": 48,
          "y": 96,
          "width": 16,
          "height": 16,
          "rotation": 0,
          "visible": true,
          "properties": [
            {
              "name": "shape",
              "type": "string",
              "value": "glow"
            },
            {
              "name": "radius",
              "type": "string",
              "value": "1.6"
            },
            {
              "name": "color",
              "type": "string",
              "value": "78b4ff"
            },
            {
              "name": "intensity",
              "type": "string",
              "value": "0.35"
            },
            {
              "name": "flicker",
              "type": "string",
              "value": "false"
            }
          ]
        },
        {
          "id": 3,
          "name": "",
          "type": "light",
          "x": 160,
          "y": 48,
          "width": 16,
          "height": 16,
          "rotation": 0,
          "visible": true,
          "properties": [
            {
              "name": "shape",
              "type": "string",
              "value": "glow"
            },
            {
              "name": "radius",
              "type": "string",
              "value": "0.9"
            },
            {
              "name": "color",
              "type": "string",
              "value": "ff4038"
            },
            {
              "name": "intensity",
              "type": "string",
              "value": "0.55"
            },
            {
              "name": "flicker",
              "type": "string",
              "value": "true"
            }
          ]
        },
        {
          "id": 4,
          "name": "",
          "type": "light",
          "x": 48,
          "y": 48,
          "width": 16,
          "height": 16,
          "rotation": 0,
          "visible": true,
          "properties": [
            {
              "name": "shape",
              "type": "string",
              "value": "glow"
            },
            {
              "name": "radius",
              "type": "string",
              "value": "0.9"
            },
            {
              "name": "color",
              "type": "string",
              "value": "60ff80"
            },
            {
              "name": "intensity",
              "type": "string",
              "value": "0.55"
            },
            {
              "name": "flicker",
              "type": "string",
              "value": "true"
            }
          ]
        },
        {
          "id": 5,
          "name": "",
          "type": "door",
          "x": 112,
          "y": 128,
          "width": 16,
          "height": 16,
          "rotation": 0,
          "visible": true,
          "properties": [
            {
              "name": "toMap",
              "type": "string",
              "value": "town"
            },
            {
              "name": "toSpawn",
              "type": "string",
              "value": "radio_hut_door"
            }
          ]
        },
        {
          "id": 6,
          "name": "entrance",
          "type": "spawn",
          "x": 112,
          "y": 112,
          "width": 16,
          "height": 16,
          "rotation": 0,
          "visible": true,
          "properties": [
            {
              "name": "facing",
              "type": "string",
              "value": "up"
            }
          ]
        },
        {
          "id": 7,
          "name": "technician",
          "type": "npc",
          "x": 112,
          "y": 64,
          "width": 16,
          "height": 16,
          "rotation": 0,
          "visible": true,
          "properties": [
            {
              "name": "character",
              "type": "string",
              "value": "technician"
            },
            {
              "name": "facing",
              "type": "string",
              "value": "down"
            },
            {
              "name": "name",
              "type": "string",
              "value": "Kjell"
            },
            {
              "name": "dialogue",
              "type": "string",
              "value": "technician"
            }
          ]
        },
        {
          "id": 8,
          "name": "",
          "type": "sign",
          "x": 80,
          "y": 16,
          "width": 80,
          "height": 32,
          "rotation": 0,
          "visible": true,
          "properties": [
            {
              "name": "text",
              "type": "string",
              "value": "* Six signal meters, one per connection. All of them at five bars. Kjell looks very pleased."
            }
          ]
        },
        {
          "id": 9,
          "name": "",
          "type": "sign",
          "x": 32,
          "y": 32,
          "width": 48,
          "height": 32,
          "rotation": 0,
          "visible": true,
          "properties": [
            {
              "name": "text",
              "type": "string",
              "value": "* A transceiver, tuned to the tower. It hums."
            }
          ]
        },
        {
          "id": 10,
          "name": "",
          "type": "sign",
          "x": 144,
          "y": 80,
          "width": 48,
          "height": 32,
          "rotation": 0,
          "visible": true,
          "properties": [
            {
              "name": "text",
              "type": "string",
              "value": "* A spare transceiver. Labelled: DO NOT UNPLUG (KJELL)."
            }
          ]
        },
        {
          "id": 11,
          "name": "",
          "type": "sign",
          "x": 32,
          "y": 96,
          "width": 32,
          "height": 16,
          "rotation": 0,
          "visible": true,
          "properties": [
            {
              "name": "text",
              "type": "string",
              "value": "* A very old PC. It runs the stream dashboard, somehow."
            }
          ]
        }
      ]
    }
  ],
  "tilesets": [
    {
      "firstgid": 1,
      "name": "world",
      "image": "../tilesets/world.png",
      "imagewidth": 2048,
      "imageheight": 2048,
      "tilewidth": 16,
      "tileheight": 16,
      "tilecount": 16384,
      "columns": 128,
      "margin": 0,
      "spacing": 0,
      "tiles": [
        {
          "id": 0,
          "properties": [
            {
              "name": "collides",
              "type": "bool",
              "value": true
            }
          ]
        },
        {
          "id": 1,
          "properties": [
            {
              "name": "clears",
              "type": "bool",
              "value": true
            }
          ]
        }
      ]
    }
  ]
}
