{
  "type": "map",
  "version": "1.10",
  "tiledversion": "1.11.0",
  "orientation": "orthogonal",
  "renderorder": "right-down",
  "infinite": false,
  "width": 28,
  "height": 14,
  "tilewidth": 16,
  "tileheight": 16,
  "nextlayerid": 9,
  "nextobjectid": 19,
  "properties": [
    {
      "name": "name",
      "type": "string",
      "value": "Town hall basement"
    }
  ],
  "layers": [
    {
      "id": 1,
      "name": "ground",
      "type": "tilelayer",
      "x": 0,
      "y": 0,
      "width": 28,
      "height": 14,
      "opacity": 1,
      "visible": true,
      "data": [
        0,0,0,0,0,0,0,0,0,0,0,0,0,0,0,0,0,0,0,0,0,0,0,0,0,0,0,0,
        0,0,6024,6025,6025,6025,6025,6025,6025,6025,6025,6025,6025,6025,6025,6025,6025,6025,6025,6025,6025,6025,6025,6025,6025,6026,0,0,
        0,0,6027,6028,6028,6028,6028,6028,6028,6028,6028,6028,6028,6028,6028,6028,6028,6028,6028,6028,6028,6028,6028,6028,6028,6029,0,0,
        0,0,6030,6031,6031,6031,6031,6031,6031,6031,6031,6031,6031,6031,5881,5881,5881,5881,5881,5881,6031,6031,6031,6031,6031,6031,0,0,
        0,0,6032,5957,5957,5957,5957,5957,5957,5957,5957,5957,5957,5957,5881,5881,5881,5881,5881,5881,5957,5957,5957,5957,5957,5957,0,0,
        0,0,6032,5957,5957,5957,5957,5957,5957,5957,5957,5957,5957,5957,5881,5881,5881,5881,5881,5881,5957,5957,5957,5957,5957,5957,0,0,
        0,0,6032,5957,5957,5957,5957,5957,5957,5957,5957,5957,5957,5957,5957,5957,5957,5957,5957,5957,5957,5957,5957,5957,5957,5957,0,0,
        0,0,6032,5957,5957,5957,5957,5957,5957,5957,5957,5957,5957,5957,5957,5957,5957,5957,5957,5957,5957,5957,5957,5957,5957,5957,0,0,
        0,0,6032,5957,5957,5957,5957,5957,5957,5957,5957,5957,5957,5957,5957,5957,5957,5957,5957,5957,5957,5957,5957,5957,5957,5957,0,0,
        0,0,6032,5957,5957,5957,5957,5957,5957,5957,5957,5957,5957,5957,5957,5957,5957,5957,5957,5957,5957,5957,5957,5957,5957,5957,0,0,
        0,0,6032,5957,5957,5957,5957,5957,5957,5957,5957,5957,5957,5957,5957,5957,5957,5957,5957,5957,5957,5957,5957,5957,5957,5957,0,0,
        0,0,6032,5957,5957,5957,5957,5957,5957,5957,5957,5957,5957,5957,5957,5957,5957,5957,5957,5957,5957,5957,5957,5957,5957,5957,0,0,
        0,0,0,0,0,0,0,0,0,0,0,0,0,0,0,0,0,0,0,0,0,0,0,0,0,0,0,0,
        0,0,0,0,0,0,0,0,0,0,0,0,0,0,0,0,0,0,0,0,0,0,0,0,0,0,0,0
      ]
    },
    {
      "id": 2,
      "name": "ground2",
      "type": "tilelayer",
      "x": 0,
      "y": 0,
      "width": 28,
      "height": 14,
      "opacity": 1,
      "visible": true,
      "data": [
        0,0,0,0,0,0,0,0,0,0,0,0,0,0,0,0,0,0,0,0,0,0,0,0,0,0,0,0,
        0,0,0,0,0,0,0,0,0,0,0,0,0,0,0,0,0,0,0,0,0,0,0,0,0,0,0,0,
        0,0,0,0,0,0,0,0,0,0,0,0,0,0,0,0,0,0,0,0,0,0,0,0,0,0,0,0,
        0,0,0,0,0,0,0,0,0,0,0,0,0,0,0,0,0,0,0,0,0,0,0,0,0,0,0,0,
        0,0,0,0,0,0,0,0,0,0,0,0,0,0,0,0,0,0,0,0,0,0,0,0,0,0,0,0,
        0,0,0,0,0,0,0,0,0,0,0,0,0,0,0,0,0,0,0,0,0,0,0,0,0,0,0,0,
        0,0,0,0,0,0,0,0,0,0,0,0,0,0,0,0,0,0,0,0,0,0,0,0,0,0,0,0,
        0,0,0,0,0,0,0,0,0,0,0,0,0,0,0,0,0,0,0,0,0,0,0,0,0,0,0,0,
        0,0,0,0,0,0,0,0,0,0,0,0,0,0,0,0,0,0,0,0,0,0,0,0,0,0,0,0,
        0,0,0,0,0,0,0,0,0,0,0,0,0,0,0,0,0,0,0,0,0,0,0,0,0,0,0,0,
        0,0,0,0,0,0,0,0,0,0,0,0,0,0,0,0,0,0,0,0,0,0,0,0,0,0,0,0,
        0,0,0,0,0,0,0,0,0,0,0,0,0,0,0,0,0,0,0,0,0,0,0,0,0,0,0,0,
        0,0,0,0,0,0,0,0,0,0,0,0,0,0,0,0,0,0,0,0,0,0,0,0,0,0,0,0,
        0,0,0,0,0,0,0,0,0,0,0,0,0,0,0,0,0,0,0,0,0,0,0,0,0,0,0,0
      ]
    },
    {
      "id": 3,
      "name": "decal",
      "type": "tilelayer",
      "x": 0,
      "y": 0,
      "width": 28,
      "height": 14,
      "opacity": 1,
      "visible": true,
      "data": [
        0,0,0,0,0,0,0,0,0,0,0,0,0,0,0,0,0,0,0,0,0,0,0,0,0,0,0,0,
        0,0,0,0,0,0,0,0,0,0,0,0,0,0,0,0,0,0,0,0,0,0,0,0,0,0,0,0,
        0,0,0,0,0,0,0,0,0,0,0,0,0,0,0,0,0,0,0,0,0,0,0,0,0,0,0,0,
        0,0,0,0,0,0,0,0,0,0,0,0,0,0,0,0,0,0,0,0,0,0,0,0,0,0,0,0,
        0,0,0,0,0,0,0,0,0,0,0,0,0,0,0,0,0,0,0,0,0,0,0,0,0,0,0,0,
        0,0,0,0,0,0,0,0,0,0,0,0,0,0,0,0,0,0,0,0,0,0,0,0,0,0,0,0,
        0,0,0,0,0,0,0,0,0,0,0,0,0,0,0,0,0,0,0,0,0,0,0,0,0,0,0,0,
        0,0,0,0,0,0,0,0,0,0,0,0,0,0,0,0,0,0,0,0,0,0,0,0,0,0,0,0,
        0,0,0,0,0,0,0,0,0,0,0,0,0,0,0,0,0,0,0,0,0,0,0,0,0,0,0,0,
        0,0,0,0,0,0,0,0,0,0,0,0,0,0,0,0,0,0,0,0,0,0,0,0,0,0,0,0,
        0,0,0,0,0,0,0,0,0,0,0,0,0,0,0,0,0,0,0,0,0,0,0,0,0,0,0,0,
        0,0,0,0,0,0,0,0,0,0,0,0,0,0,0,0,0,0,0,0,0,0,0,0,0,0,0,0,
        0,0,0,0,0,0,0,0,0,0,0,0,0,0,0,0,0,0,0,0,0,0,0,0,0,0,0,0,
        0,0,0,0,0,0,0,0,0,0,0,0,0,0,0,0,0,0,0,0,0,0,0,0,0,0,0,0
      ]
    },
    {
      "id": 4,
      "name": "shade",
      "type": "tilelayer",
      "x": 0,
      "y": 0,
      "width": 28,
      "height": 14,
      "opacity": 1,
      "visible": true,
      "data": [
        0,0,0,0,0,0,0,0,0,0,0,0,0,0,0,0,0,0,0,0,0,0,0,0,0,0,0,0,
        0,0,0,0,0,0,0,0,0,0,0,0,0,0,0,0,0,0,0,0,0,0,0,0,0,0,0,0,
        0,0,0,0,0,0,0,0,0,0,0,0,0,0,0,0,0,0,0,0,0,0,0,0,0,0,0,0,
        0,0,0,0,0,0,0,0,0,0,0,0,0,0,0,0,0,0,0,0,0,0,0,0,0,0,0,0,
        0,0,0,0,0,0,0,0,0,0,0,0,0,0,0,0,0,0,0,0,0,0,0,0,0,0,0,0,
        0,0,0,0,0,0,0,0,0,0,0,0,0,0,0,0,0,0,0,0,0,0,0,0,0,0,0,0,
        0,0,0,0,0,0,0,0,0,0,0,0,0,0,0,0,0,0,0,0,0,0,0,0,0,0,0,0,
        0,0,0,0,0,0,0,0,0,0,0,0,0,0,0,0,0,0,0,0,0,0,0,0,0,0,0,0,
        0,0,0,0,0,3109,3110,3111,3109,3110,3111,0,0,0,0,0,0,0,0,3109,3110,3111,0,0,0,0,0,0,
        0,0,0,0,0,3112,3113,3114,3112,3113,3114,0,0,3109,3110,3111,0,0,0,3112,3113,3114,3109,3110,3111,0,0,0,
        0,0,0,0,0,0,0,0,0,0,0,0,0,3112,3113,3114,0,0,0,0,0,0,3112,3113,3114,0,0,0,
        0,0,0,0,0,0,0,0,0,0,0,0,0,0,0,0,0,0,0,0,0,0,0,0,0,0,0,0,
        0,0,0,0,0,0,0,0,0,0,0,0,0,0,0,0,0,0,0,0,0,0,0,0,0,0,0,0,
        0,0,0,0,0,0,0,0,0,0,0,0,0,0,0,0,0,0,0,0,0,0,0,0,0,0,0,0
      ],
      "properties": [
        {
          "name": "blend",
          "type": "string",
          "value": "multiply"
        }
      ]
    },
    {
      "id": 5,
      "name": "below",
      "type": "tilelayer",
      "x": 0,
      "y": 0,
      "width": 28,
      "height": 14,
      "opacity": 1,
      "visible": true,
      "data": [
        0,0,0,0,0,0,0,0,0,0,0,0,0,0,0,0,0,0,0,0,5882,5883,0,0,0,0,0,0,
        0,0,0,0,0,0,6033,6034,5949,5950,5949,5950,6033,6034,6043,6044,6045,6046,6043,6044,5886,5887,5890,6035,5949,5950,0,0,
        0,0,0,0,0,0,6036,6037,5951,5952,5951,5952,6036,6037,6047,6048,6049,6050,6047,6048,5893,5894,5897,6038,5951,5952,0,0,
        0,0,0,0,0,0,6039,6040,5953,6041,5953,6041,6039,6040,6051,6052,6053,6054,6051,6052,0,0,5900,6042,5953,6041,0,0,
        0,0,0,0,0,0,0,0,0,0,0,0,0,0,0,0,0,0,0,0,0,0,0,0,0,0,0,0,
        0,0,0,0,0,0,0,0,0,0,0,0,0,0,0,0,0,0,0,0,0,0,0,0,0,0,0,0,
        0,0,0,0,0,0,0,0,0,0,0,0,0,0,0,0,0,0,0,0,0,0,0,0,0,0,0,0,
        0,0,0,0,0,6111,6112,6113,6144,6145,6146,0,0,0,0,0,0,0,0,6064,6065,6066,0,0,0,0,0,0,
        0,0,0,0,0,6119,6209,6121,6149,6210,6151,6114,6115,6122,6123,6124,0,0,0,6076,6211,6078,6111,6112,6113,0,0,0,
        0,0,2540,2541,0,0,6212,0,0,6212,0,6125,6126,6134,6213,6136,0,0,0,0,6212,0,6119,6209,6121,0,0,0,
        0,0,2549,2550,0,0,0,0,0,0,0,6137,6138,0,6214,0,0,0,0,0,0,0,0,6212,0,0,0,0,
        0,0,2558,2559,0,0,0,0,0,0,0,0,0,0,0,0,0,0,0,0,0,0,0,0,0,0,0,0,
        0,0,0,0,0,0,0,0,0,0,0,0,0,0,0,0,0,0,0,0,0,0,0,0,0,0,0,0,
        0,0,0,0,0,0,0,0,0,0,0,0,0,0,0,0,0,0,0,0,0,0,0,0,0,0,0,0
      ]
    },
    {
      "id": 6,
      "name": "above",
      "type": "tilelayer",
      "x": 0,
      "y": 0,
      "width": 28,
      "height": 14,
      "opacity": 1,
      "visible": true,
      "data": [
        0,0,0,0,0,0,0,0,0,0,0,0,0,0,0,0,0,0,0,0,0,0,0,0,0,0,0,0,
        0,2509,2510,2510,2510,2510,2510,2510,2510,2510,2510,2510,2510,2510,2510,2510,2510,2510,2510,2510,2510,2510,2510,2510,2510,2510,2511,0,
        0,2512,0,0,0,0,0,0,0,0,0,0,0,0,0,0,0,0,0,0,0,0,0,0,0,0,2515,0,
        0,2512,0,0,0,0,0,0,0,0,0,0,0,0,0,0,0,0,0,0,0,0,0,0,0,0,2515,0,
        0,2512,0,0,0,0,0,0,0,0,0,0,0,0,0,0,0,0,0,0,0,0,0,0,0,0,2515,0,
        0,2512,0,0,0,0,0,0,0,0,0,0,0,0,0,0,0,0,0,0,0,0,0,0,0,0,2515,0,
        0,2512,0,0,0,0,0,0,0,0,0,0,0,0,0,0,0,0,0,0,0,0,0,0,0,0,2515,0,
        0,2512,0,0,0,0,0,0,0,0,0,0,0,0,0,0,0,0,0,0,0,0,0,0,0,0,2515,0,
        0,2512,0,0,0,0,0,0,0,0,0,0,0,0,0,0,0,0,0,0,0,0,0,0,0,0,2515,0,
        0,2512,0,0,0,0,0,0,0,0,0,0,0,0,0,0,0,0,0,0,0,0,0,0,0,0,2515,0,
        0,2512,0,0,0,0,0,0,0,0,0,0,0,0,0,0,0,0,0,0,0,0,0,0,0,0,2515,0,
        0,2512,0,0,0,0,0,0,0,0,0,0,0,0,0,0,0,0,0,0,0,0,0,0,0,0,2515,0,
        0,2516,2517,2517,2517,2517,2517,2517,2517,2517,2517,2517,2517,2517,2517,2517,2517,2517,2517,2517,2517,2517,2517,2517,2517,2517,2518,0,
        0,0,0,0,0,0,0,0,0,0,0,0,0,0,0,0,0,0,0,0,0,0,0,0,0,0,0,0
      ]
    },
    {
      "id": 7,
      "name": "collision",
      "type": "tilelayer",
      "x": 0,
      "y": 0,
      "width": 28,
      "height": 14,
      "opacity": 1,
      "visible": false,
      "data": [
        0,0,0,0,0,0,0,0,0,0,0,0,0,0,0,0,0,0,0,0,0,0,0,0,0,0,0,0,
        0,1,1,1,1,1,1,1,1,1,1,1,1,1,1,1,1,1,1,1,1,1,1,1,1,1,1,0,
        0,1,1,0,1,1,1,1,1,1,1,1,1,1,1,1,1,1,1,1,1,1,1,1,1,1,1,0,
        0,1,1,0,1,0,0,1,1,1,1,1,0,1,1,1,1,1,1,1,0,0,1,0,1,1,1,0,
        0,1,1,0,1,0,0,0,0,0,0,0,0,0,0,0,0,0,0,0,0,0,0,0,0,0,1,0,
        0,1,0,0,0,0,0,0,0,0,0,0,0,0,0,0,0,0,0,0,0,0,0,0,0,0,1,0,
        0,1,0,0,0,0,0,0,0,0,0,0,0,0,0,0,0,0,0,0,0,0,0,0,0,0,1,0,
        0,1,0,0,0,1,1,1,1,1,1,0,0,0,0,0,0,0,0,1,1,1,0,0,0,0,1,0,
        0,1,0,0,0,1,1,1,1,1,1,0,0,1,1,1,0,0,0,1,1,1,1,1,1,0,1,0,
        0,1,0,0,0,0,1,0,0,1,0,1,0,1,1,1,0,0,0,0,1,0,1,1,1,0,1,0,
        0,1,1,1,0,0,0,0,0,0,0,1,0,0,1,0,0,0,0,0,0,0,0,1,0,0,1,0,
        0,1,0,0,0,0,0,0,0,0,0,0,0,0,0,0,0,0,0,0,0,0,0,0,0,0,1,0,
        0,1,1,1,1,1,1,1,1,1,1,1,1,1,1,1,1,1,1,1,1,1,1,1,1,1,1,0,
        0,0,0,0,0,0,0,0,0,0,0,0,0,0,0,0,0,0,0,0,0,0,0,0,0,0,0,0
      ]
    },
    {
      "id": 8,
      "name": "objects",
      "type": "objectgroup",
      "x": 0,
      "y": 0,
      "opacity": 1,
      "visible": true,
      "draworder": "topdown",
      "objects": [
        {
          "id": 1,
          "name": "",
          "type": "sprite",
          "x": 32,
          "y": 16,
          "width": 16,
          "height": 16,
          "rotation": 0,
          "visible": true,
          "properties": [
            {
              "name": "sprite",
              "type": "string",
              "value": "escalator"
            },
            {
              "name": "layer",
              "type": "string",
              "value": "below"
            }
          ]
        },
        {
          "id": 2,
          "name": "",
          "type": "door",
          "x": 48,
          "y": 32,
          "width": 16,
          "height": 16,
          "rotation": 0,
          "visible": true,
          "properties": [
            {
              "name": "toMap",
              "type": "string",
              "value": "town-hall"
            },
            {
              "name": "toSpawn",
              "type": "string",
              "value": "basement"
            }
          ]
        },
        {
          "id": 3,
          "name": "stairs",
          "type": "spawn",
          "x": 48,
          "y": 96,
          "width": 16,
          "height": 16,
          "rotation": 0,
          "visible": true,
          "properties": [
            {
              "name": "facing",
              "type": "string",
              "value": "down"
            }
          ]
        },
        {
          "id": 4,
          "name": "",
          "type": "light",
          "x": 112,
          "y": 48,
          "width": 16,
          "height": 16,
          "rotation": 0,
          "visible": true,
          "properties": [
            {
              "name": "shape",
              "type": "string",
              "value": "glow"
            },
            {
              "name": "radius",
              "type": "string",
              "value": "2.2"
            },
            {
              "name": "color",
              "type": "string",
              "value": "78ff8c"
            },
            {
              "name": "intensity",
              "type": "string",
              "value": "0.22"
            },
            {
              "name": "flicker",
              "type": "string",
              "value": "false"
            }
          ]
        },
        {
          "id": 5,
          "name": "",
          "type": "light",
          "x": 144,
          "y": 48,
          "width": 16,
          "height": 16,
          "rotation": 0,
          "visible": true,
          "properties": [
            {
              "name": "shape",
              "type": "string",
              "value": "glow"
            },
            {
              "name": "radius",
              "type": "string",
              "value": "2.2"
            },
            {
              "name": "color",
              "type": "string",
              "value": "78ff8c"
            },
            {
              "name": "intensity",
              "type": "string",
              "value": "0.22"
            },
            {
              "name": "flicker",
              "type": "string",
              "value": "false"
            }
          ]
        },
        {
          "id": 6,
          "name": "",
          "type": "light",
          "x": 176,
          "y": 48,
          "width": 16,
          "height": 16,
          "rotation": 0,
          "visible": true,
          "properties": [
            {
              "name": "shape",
              "type": "string",
              "value": "glow"
            },
            {
              "name": "radius",
              "type": "string",
              "value": "2.2"
            },
            {
              "name": "color",
              "type": "string",
              "value": "78ff8c"
            },
            {
              "name": "intensity",
              "type": "string",
              "value": "0.22"
            },
            {
              "name": "flicker",
              "type": "string",
              "value": "false"
            }
          ]
        },
        {
          "id": 7,
          "name": "",
          "type": "light",
          "x": 208,
          "y": 48,
          "width": 16,
          "height": 16,
          "rotation": 0,
          "visible": true,
          "properties": [
            {
              "name": "shape",
              "type": "string",
              "value": "glow"
            },
            {
              "name": "radius",
              "type": "string",
              "value": "2.2"
            },
            {
              "name": "color",
              "type": "string",
              "value": "78ff8c"
            },
            {
              "name": "intensity",
              "type": "string",
              "value": "0.22"
            },
            {
              "name": "flicker",
              "type": "string",
              "value": "false"
            }
          ]
        },
        {
          "id": 8,
          "name": "",
          "type": "light",
          "x": 400,
          "y": 48,
          "width": 16,
          "height": 16,
          "rotation": 0,
          "visible": true,
          "properties": [
            {
              "name": "shape",
              "type": "string",
              "value": "glow"
            },
            {
              "name": "radius",
              "type": "string",
              "value": "2.2"
            },
            {
              "name": "color",
              "type": "string",
              "value": "78ff8c"
            },
            {
              "name": "intensity",
              "type": "string",
              "value": "0.22"
            },
            {
              "name": "flicker",
              "type": "string",
              "value": "false"
            }
          ]
        },
        {
          "id": 9,
          "name": "",
          "type": "light",
          "x": 96,
          "y": 112,
          "width": 16,
          "height": 16,
          "rotation": 0,
          "visible": true,
          "properties": [
            {
              "name": "shape",
              "type": "string",
              "value": "glow"
            },
            {
              "name": "radius",
              "type": "string",
              "value": "1.6"
            },
            {
              "name": "color",
              "type": "string",
              "value": "78b4ff"
            },
            {
              "name": "intensity",
              "type": "string",
              "value": "0.35"
            },
            {
              "name": "flicker",
              "type": "string",
              "value": "false"
            }
          ]
        },
        {
          "id": 10,
          "name": "",
          "type": "light",
          "x": 144,
          "y": 112,
          "width": 16,
          "height": 16,
          "rotation": 0,
          "visible": true,
          "properties": [
            {
              "name": "shape",
              "type": "string",
              "value": "glow"
            },
            {
              "name": "radius",
              "type": "string",
              "value": "1.6"
            },
            {
              "name": "color",
              "type": "string",
              "value": "78b4ff"
            },
            {
              "name": "intensity",
              "type": "string",
              "value": "0.35"
            },
            {
              "name": "flicker",
              "type": "string",
              "value": "false"
            }
          ]
        },
        {
          "id": 11,
          "name": "",
          "type": "light",
          "x": 224,
          "y": 128,
          "width": 16,
          "height": 16,
          "rotation": 0,
          "visible": true,
          "properties": [
            {
              "name": "shape",
              "type": "string",
              "value": "glow"
            },
            {
              "name": "radius",
              "type": "string",
              "value": "1.6"
            },
            {
              "name": "color",
              "type": "string",
              "value": "78b4ff"
            },
            {
              "name": "intensity",
              "type": "string",
              "value": "0.35"
            },
            {
              "name": "flicker",
              "type": "string",
              "value": "false"
            }
          ]
        },
        {
          "id": 12,
          "name": "",
          "type": "light",
          "x": 320,
          "y": 112,
          "width": 16,
          "height": 16,
          "rotation": 0,
          "visible": true,
          "properties": [
            {
              "name": "shape",
              "type": "string",
              "value": "glow"
            },
            {
              "name": "radius",
              "type": "string",
              "value": "1.6"
            },
            {
              "name": "color",
              "type": "string",
              "value": "78b4ff"
            },
            {
              "name": "intensity",
              "type": "string",
              "value": "0.35"
            },
            {
              "name": "flicker",
              "type": "string",
              "value": "false"
            }
          ]
        },
        {
          "id": 13,
          "name": "",
          "type": "light",
          "x": 368,
          "y": 128,
          "width": 16,
          "height": 16,
          "rotation": 0,
          "visible": true,
          "properties": [
            {
              "name": "shape",
              "type": "string",
              "value": "glow"
            },
            {
              "name": "radius",
              "type": "string",
              "value": "1.6"
            },
            {
              "name": "color",
              "type": "string",
              "value": "78b4ff"
            },
            {
              "name": "intensity",
              "type": "string",
              "value": "0.35"
            },
            {
              "name": "flicker",
              "type": "string",
              "value": "false"
            }
          ]
        },
        {
          "id": 14,
          "name": "sysadmin",
          "type": "npc",
          "x": 256,
          "y": 96,
          "width": 16,
          "height": 16,
          "rotation": 0,
          "visible": true,
          "properties": [
            {
              "name": "character",
              "type": "string",
              "value": "sysadmin"
            },
            {
              "name": "facing",
              "type": "string",
              "value": "down"
            },
            {
              "name": "name",
              "type": "string",
              "value": "Bjørn"
            },
            {
              "name": "dialogue",
              "type": "string",
              "value": "sysadmin"
            }
          ]
        },
        {
          "id": 15,
          "name": "",
          "type": "sign",
          "x": 32,
          "y": 16,
          "width": 48,
          "height": 64,
          "rotation": 0,
          "visible": true,
          "properties": [
            {
              "name": "text",
              "type": "string",
              "value": "* An escalator. The council spent the IT budget for 2019 on it. It only goes up."
            }
          ]
        },
        {
          "id": 16,
          "name": "",
          "type": "sign",
          "x": 256,
          "y": 48,
          "width": 32,
          "height": 16,
          "rotation": 0,
          "visible": true,
          "properties": [
            {
              "name": "text",
              "type": "string",
              "value": "* The printers. One of them says PC LOAD LETTER. Nobody knows what that means."
            }
          ]
        },
        {
          "id": 17,
          "name": "",
          "type": "sign",
          "x": 320,
          "y": 16,
          "width": 32,
          "height": 32,
          "rotation": 0,
          "visible": true,
          "properties": [
            {
              "name": "text",
              "type": "string",
              "value": "* The ticket board. OPEN: 4012. Under it, in marker: \"most of them are the printer\"."
            }
          ]
        },
        {
          "id": 18,
          "name": "",
          "type": "sign",
          "x": 384,
          "y": 16,
          "width": 32,
          "height": 48,
          "rotation": 0,
          "visible": true,
          "properties": [
            {
              "name": "text",
              "type": "string",
              "value": "* A server with a name tag: FIDO. A dog biscuit sits on top of it. Best not to touch."
            }
          ]
        }
      ]
    }
  ],
  "tilesets": [
    {
      "firstgid": 1,
      "name": "world",
      "image": "../tilesets/world.png",
      "imagewidth": 2048,
      "imageheight": 2048,
      "tilewidth": 16,
      "tileheight": 16,
      "tilecount": 16384,
      "columns": 128,
      "margin": 0,
      "spacing": 0,
      "tiles": [
        {
          "id": 0,
          "properties": [
            {
              "name": "collides",
              "type": "bool",
              "value": true
            }
          ]
        },
        {
          "id": 1,
          "properties": [
            {
              "name": "clears",
              "type": "bool",
              "value": true
            }
          ]
        }
      ]
    }
  ]
}
