{
  "type": "map",
  "version": "1.10",
  "tiledversion": "1.11.0",
  "orientation": "orthogonal",
  "renderorder": "right-down",
  "infinite": false,
  "width": 14,
  "height": 10,
  "tilewidth": 16,
  "tileheight": 16,
  "nextlayerid": 9,
  "nextobjectid": 5,
  "properties": [
    {
      "name": "name",
      "type": "string",
      "value": "Workshop"
    }
  ],
  "layers": [
    {
      "id": 1,
      "name": "ground",
      "type": "tilelayer",
      "x": 0,
      "y": 0,
      "width": 14,
      "height": 10,
      "opacity": 1,
      "visible": true,
      "data": [
        0,0,0,0,0,0,0,0,0,0,0,0,0,0,
        0,0,3,4,4,4,4,4,4,4,4,5,0,0,
        0,0,6,7,7,7,7,7,7,7,7,8,0,0,
        0,0,9,10,10,10,10,10,10,10,10,10,0,0,
        0,0,11,12,12,12,12,12,12,12,12,12,0,0,
        0,0,11,12,12,12,12,12,12,12,12,12,0,0,
        0,0,11,12,12,12,12,12,12,12,12,12,0,0,
        0,0,11,12,12,12,12,12,12,12,12,12,0,0,
        0,0,0,0,0,0,0,0,0,0,0,0,0,0,
        0,0,0,0,0,0,0,0,0,0,0,0,0,0
      ]
    },
    {
      "id": 2,
      "name": "ground2",
      "type": "tilelayer",
      "x": 0,
      "y": 0,
      "width": 14,
      "height": 10,
      "opacity": 1,
      "visible": true,
      "data": [
        0,0,0,0,0,0,0,0,0,0,0,0,0,0,
        0,0,0,0,0,0,0,0,0,0,0,0,0,0,
        0,0,0,0,0,0,0,0,0,0,0,0,0,0,
        0,0,0,0,0,0,0,0,0,0,0,0,0,0,
        0,0,0,0,0,0,0,0,0,0,0,0,0,0,
        0,0,0,0,0,0,0,0,0,0,0,0,0,0,
        0,0,0,0,0,0,0,0,0,0,0,0,0,0,
        0,0,0,0,0,0,0,0,0,0,0,0,0,0,
        0,0,0,0,0,0,0,0,0,0,0,0,0,0,
        0,0,0,0,0,0,0,0,0,0,0,0,0,0
      ]
    },
    {
      "id": 3,
      "name": "decal",
      "type": "tilelayer",
      "x": 0,
      "y": 0,
      "width": 14,
      "height": 10,
      "opacity": 1,
      "visible": true,
      "data": [
        0,0,0,0,0,0,0,0,0,0,0,0,0,0,
        0,0,0,0,0,0,0,0,0,0,0,0,0,0,
        0,0,0,0,0,0,0,0,0,0,0,0,0,0,
        0,0,0,0,0,0,0,0,0,0,0,0,0,0,
        0,0,0,0,0,0,0,0,0,0,0,0,0,0,
        0,0,0,0,0,0,0,0,0,0,0,0,0,0,
        0,0,0,0,0,0,0,0,0,0,0,0,0,0,
        0,0,0,0,0,0,0,0,0,0,0,0,0,0,
        0,0,0,0,0,0,0,0,0,0,0,0,0,0,
        0,0,0,0,0,0,0,0,0,0,0,0,0,0
      ]
    },
    {
      "id": 4,
      "name": "shade",
      "type": "tilelayer",
      "x": 0,
      "y": 0,
      "width": 14,
      "height": 10,
      "opacity": 1,
      "visible": true,
      "data": [
        0,0,0,0,0,0,0,0,0,0,0,0,0,0,
        0,0,0,0,0,0,0,0,0,0,0,0,0,0,
        0,0,0,0,0,0,0,0,0,0,0,0,0,0,
        0,0,0,0,0,0,0,0,0,0,0,0,0,0,
        0,0,0,0,0,0,0,0,0,0,0,0,0,0,
        0,0,0,0,0,0,0,0,0,0,0,0,0,0,
        0,0,0,0,0,0,0,0,0,0,0,0,0,0,
        0,0,0,0,0,0,0,0,0,0,0,0,0,0,
        0,0,0,0,0,0,0,0,0,0,0,0,0,0,
        0,0,0,0,0,0,0,0,0,0,0,0,0,0
      ],
      "properties": [
        {
          "name": "blend",
          "type": "string",
          "value": "multiply"
        }
      ]
    },
    {
      "id": 5,
      "name": "below",
      "type": "tilelayer",
      "x": 0,
      "y": 0,
      "width": 14,
      "height": 10,
      "opacity": 1,
      "visible": true,
      "data": [
        0,0,0,0,0,0,0,0,0,0,0,0,0,0,
        0,0,0,0,0,0,0,0,0,0,0,0,0,0,
        0,0,0,0,0,0,0,0,0,0,0,0,0,0,
        0,0,0,0,0,0,0,0,0,0,0,0,0,0,
        0,0,0,0,0,0,0,0,0,0,0,0,0,0,
        0,0,13,14,15,0,0,0,0,0,0,0,0,0,
        0,0,16,17,18,0,0,0,0,0,0,0,0,0,
        0,0,0,0,0,0,0,0,0,0,0,0,0,0,
        0,0,0,0,0,0,0,0,0,0,0,0,0,0,
        0,0,0,0,0,0,0,0,0,0,0,0,0,0
      ]
    },
    {
      "id": 6,
      "name": "above",
      "type": "tilelayer",
      "x": 0,
      "y": 0,
      "width": 14,
      "height": 10,
      "opacity": 1,
      "visible": true,
      "data": [
        0,0,0,0,0,0,0,0,0,0,0,0,0,0,
        0,19,20,20,20,20,20,20,20,20,20,20,21,0,
        0,22,0,0,0,0,0,0,0,0,0,0,23,0,
        0,22,0,0,0,0,0,0,0,0,0,0,23,0,
        0,22,0,0,0,0,0,0,0,0,0,0,23,0,
        0,22,0,0,0,0,0,0,0,0,0,0,23,0,
        0,22,0,0,0,0,0,0,0,0,0,0,23,0,
        0,22,0,0,0,0,0,0,0,0,0,0,23,0,
        0,24,25,25,25,25,25,25,25,25,25,25,26,0,
        0,0,0,0,0,0,0,0,0,0,0,0,0,0
      ]
    },
    {
      "id": 7,
      "name": "collision",
      "type": "tilelayer",
      "x": 0,
      "y": 0,
      "width": 14,
      "height": 10,
      "opacity": 1,
      "visible": false,
      "data": [
        0,0,0,0,0,0,0,0,0,0,0,0,0,0,
        0,1,1,1,1,1,1,1,1,1,1,1,1,0,
        0,1,1,1,1,1,1,1,1,1,1,1,1,0,
        0,1,0,0,0,0,0,0,0,0,0,0,1,0,
        0,1,0,0,0,0,0,0,0,0,0,0,1,0,
        0,1,0,0,1,0,0,0,0,0,0,0,1,0,
        0,1,1,1,1,0,0,0,0,0,0,0,1,0,
        0,1,0,0,0,0,0,0,0,0,0,0,1,0,
        0,1,1,1,1,1,1,1,1,1,1,1,1,0,
        0,0,0,0,0,0,0,0,0,0,0,0,0,0
      ]
    },
    {
      "id": 8,
      "name": "objects",
      "type": "objectgroup",
      "x": 0,
      "y": 0,
      "opacity": 1,
      "visible": true,
      "draworder": "topdown",
      "objects": [
        {
          "id": 1,
          "name": "",
          "type": "light",
          "x": 48,
          "y": 96,
          "width": 16,
          "height": 16,
          "rotation": 0,
          "visible": true,
          "properties": [
            {
              "name": "shape",
              "type": "string",
              "value": "glow"
            },
            {
              "name": "radius",
              "type": "string",
              "value": "1.6"
            },
            {
              "name": "color",
              "type": "string",
              "value": "78b4ff"
            },
            {
              "name": "intensity",
              "type": "string",
              "value": "0.35"
            },
            {
              "name": "flicker",
              "type": "string",
              "value": "false"
            }
          ]
        },
        {
          "id": 2,
          "name": "keeper",
          "type": "npc",
          "x": 112,
          "y": 64,
          "width": 16,
          "height": 16,
          "rotation": 0,
          "visible": true,
          "properties": [
            {
              "name": "character",
              "type": "string",
              "value": "keeper"
            },
            {
              "name": "facing",
              "type": "string",
              "value": "down"
            },
            {
              "name": "name",
              "type": "string",
              "value": "Keeper"
            },
            {
              "name": "dialogue",
              "type": "string",
              "value": "keeper"
            }
          ]
        },
        {
          "id": 3,
          "name": "",
          "type": "sign",
          "x": 32,
          "y": 96,
          "width": 32,
          "height": 16,
          "rotation": 0,
          "visible": true,
          "properties": [
            {
              "name": "text",
              "type": "string",
              "value": "* A computer. On screen: kai.json, content/, dialogue/, world/. That's a game."
            }
          ]
        },
        {
          "id": 4,
          "name": "start",
          "type": "spawn",
          "x": 112,
          "y": 112,
          "width": 16,
          "height": 16,
          "rotation": 0,
          "visible": true,
          "properties": [
            {
              "name": "facing",
              "type": "string",
              "value": "up"
            }
          ]
        }
      ]
    }
  ],
  "tilesets": [
    {
      "firstgid": 1,
      "name": "world",
      "image": "../tilesets/world.png",
      "imagewidth": 2048,
      "imageheight": 2048,
      "tilewidth": 16,
      "tileheight": 16,
      "tilecount": 16384,
      "columns": 128,
      "margin": 0,
      "spacing": 0,
      "tiles": [
        {
          "id": 0,
          "properties": [
            {
              "name": "collides",
              "type": "bool",
              "value": true
            }
          ]
        },
        {
          "id": 1,
          "properties": [
            {
              "name": "clears",
              "type": "bool",
              "value": true
            }
          ]
        }
      ]
    }
  ]
}
